( Made using CamBam - http://www.cambam.co.uk )
( Left 2/5/2014 4:04:15 PM )
( T3 : 3.0 )
G21 G90 G64 G40
G0 Z3.0
( T3 : 3.0 )
T3 M6
( Stock Drill )
G17
M3 S1000
G0 X211.8115 Y341.8585
G0 Z3.0
G0 X212.3115 Y341.8585
G0 Z1.0
G1 F300.0 Z0.0
G2 F2500.0 X211.5615 Y341.4255 Z-1.0 I-0.5 J0.0
G2 Y342.2915 Z-2.0 I0.25 J0.433
G2 X212.3115 Y341.8585 Z-3.0 I0.25 J-0.433
G2 X211.5615 Y341.4255 Z-4.0 I-0.5 J0.0
G2 Y342.2915 Z-5.0 I0.25 J0.433
G2 X212.3115 Y341.8585 Z-6.0 I0.25 J-0.433
G2 X211.5615 Y341.4255 Z-7.0 I-0.5 J0.0
G2 Y342.2915 Z-8.0 I0.25 J0.433
G2 X212.0615 Z-8.5 I0.25 J-0.433
G2 Y341.4255 I-0.25 J-0.433
G2 X211.3115 Y341.8585 I-0.25 J0.433
G2 X212.0615 Y342.2915 I0.5 J0.0
G0 Z3.0
G0 X178.8976 Y308.088
G0 Z1.0
G1 F300.0 Z0.0
G2 F2500.0 X178.1476 Y307.6549 Z-1.0 I-0.5 J0.0
G2 Y308.521 Z-2.0 I0.25 J0.433
G2 X178.8976 Y308.088 Z-3.0 I0.25 J-0.433
G2 X178.1476 Y307.6549 Z-4.0 I-0.5 J0.0
G2 Y308.521 Z-5.0 I0.25 J0.433
G2 X178.8976 Y308.088 Z-6.0 I0.25 J-0.433
G2 X178.1476 Y307.6549 Z-7.0 I-0.5 J0.0
G2 Y308.521 Z-8.0 I0.25 J0.433
G2 X178.6476 Z-8.5 I0.25 J-0.433
G2 Y307.6549 I-0.25 J-0.433
G2 X177.8976 Y308.088 I-0.25 J0.433
G2 X178.6476 Y308.521 I0.5 J0.0
G0 Z3.0
G0 X109.2967 Y327.054
G0 Z1.0
G1 F300.0 Z0.0
G2 F2500.0 X108.5467 Y326.621 Z-1.0 I-0.5 J0.0
G2 Y327.487 Z-2.0 I0.25 J0.433
G2 X109.2967 Y327.054 Z-3.0 I0.25 J-0.433
G2 X108.5467 Y326.621 Z-4.0 I-0.5 J0.0
G2 Y327.487 Z-5.0 I0.25 J0.433
G2 X109.2967 Y327.054 Z-6.0 I0.25 J-0.433
G2 X108.5467 Y326.621 Z-7.0 I-0.5 J0.0
G2 Y327.487 Z-8.0 I0.25 J0.433
G2 X109.0467 Z-8.5 I0.25 J-0.433
G2 Y326.621 I-0.25 J-0.433
G2 X108.2967 Y327.054 I-0.25 J0.433
G2 X109.0467 Y327.487 I0.5 J0.0
G0 Z3.0
G0 X49.3474 Y327.054
G0 Z1.0
G1 F300.0 Z0.0
G2 F2500.0 X48.5974 Y326.621 Z-1.0 I-0.5 J0.0
G2 Y327.487 Z-2.0 I0.25 J0.433
G2 X49.3474 Y327.054 Z-3.0 I0.25 J-0.433
G2 X48.5974 Y326.621 Z-4.0 I-0.5 J0.0
G2 Y327.487 Z-5.0 I0.25 J0.433
G2 X49.3474 Y327.054 Z-6.0 I0.25 J-0.433
G2 X48.5974 Y326.621 Z-7.0 I-0.5 J0.0
G2 Y327.487 Z-8.0 I0.25 J0.433
G2 X49.0974 Z-8.5 I0.25 J-0.433
G2 Y326.621 I-0.25 J-0.433
G2 X48.3474 Y327.054 I-0.25 J0.433
G2 X49.0974 Y327.487 I0.5 J0.0
G0 Z3.0
G0 X11.0662 Y327.054
G0 Z1.0
G1 F300.0 Z0.0
G2 F2500.0 X10.3162 Y326.621 Z-1.0 I-0.5 J0.0
G2 Y327.487 Z-2.0 I0.25 J0.433
G2 X11.0662 Y327.054 Z-3.0 I0.25 J-0.433
G2 X10.3162 Y326.621 Z-4.0 I-0.5 J0.0
G2 Y327.487 Z-5.0 I0.25 J0.433
G2 X11.0662 Y327.054 Z-6.0 I0.25 J-0.433
G2 X10.3162 Y326.621 Z-7.0 I-0.5 J0.0
G2 Y327.487 Z-8.0 I0.25 J0.433
G2 X10.8162 Z-8.5 I0.25 J-0.433
G2 Y326.621 I-0.25 J-0.433
G2 X10.0662 Y327.054 I-0.25 J0.433
G2 X10.8162 Y327.487 I0.5 J0.0
G0 Z3.0
G0 X11.0662 Y244.0664
G0 Z1.0
G1 F300.0 Z0.0
G2 F2500.0 X10.3162 Y243.6333 Z-1.0 I-0.5 J0.0
G2 Y244.4994 Z-2.0 I0.25 J0.433
G2 X11.0662 Y244.0664 Z-3.0 I0.25 J-0.433
G2 X10.3162 Y243.6333 Z-4.0 I-0.5 J0.0
G2 Y244.4994 Z-5.0 I0.25 J0.433
G2 X11.0662 Y244.0664 Z-6.0 I0.25 J-0.433
G2 X10.3162 Y243.6333 Z-7.0 I-0.5 J0.0
G2 Y244.4994 Z-8.0 I0.25 J0.433
G2 X10.8162 Z-8.5 I0.25 J-0.433
G2 Y243.6333 I-0.25 J-0.433
G2 X10.0662 Y244.0664 I-0.25 J0.433
G2 X10.8162 Y244.4994 I0.5 J0.0
G0 Z3.0
G0 X11.0662 Y172.8391
G0 Z1.0
G1 F300.0 Z0.0
G2 F2500.0 X10.3162 Y172.4061 Z-1.0 I-0.5 J0.0
G2 Y173.2721 Z-2.0 I0.25 J0.433
G2 X11.0662 Y172.8391 Z-3.0 I0.25 J-0.433
G2 X10.3162 Y172.4061 Z-4.0 I-0.5 J0.0
G2 Y173.2721 Z-5.0 I0.25 J0.433
G2 X11.0662 Y172.8391 Z-6.0 I0.25 J-0.433
G2 X10.3162 Y172.4061 Z-7.0 I-0.5 J0.0
G2 Y173.2721 Z-8.0 I0.25 J0.433
G2 X10.8162 Z-8.5 I0.25 J-0.433
G2 Y172.4061 I-0.25 J-0.433
G2 X10.0662 Y172.8391 I-0.25 J0.433
G2 X10.8162 Y173.2721 I0.5 J0.0
G0 Z3.0
G0 X11.0662 Y101.6118
G0 Z1.0
G1 F300.0 Z0.0
G2 F2500.0 X10.3162 Y101.1788 Z-1.0 I-0.5 J0.0
G2 Y102.0448 Z-2.0 I0.25 J0.433
G2 X11.0662 Y101.6118 Z-3.0 I0.25 J-0.433
G2 X10.3162 Y101.1788 Z-4.0 I-0.5 J0.0
G2 Y102.0448 Z-5.0 I0.25 J0.433
G2 X11.0662 Y101.6118 Z-6.0 I0.25 J-0.433
G2 X10.3162 Y101.1788 Z-7.0 I-0.5 J0.0
G2 Y102.0448 Z-8.0 I0.25 J0.433
G2 X10.8162 Z-8.5 I0.25 J-0.433
G2 Y101.1788 I-0.25 J-0.433
G2 X10.0662 Y101.6118 I-0.25 J0.433
G2 X10.8162 Y102.0448 I0.5 J0.0
G0 Z3.0
G0 X11.0662 Y8.59
G0 Z1.0
G1 F300.0 Z0.0
G2 F2500.0 X10.3162 Y8.157 Z-1.0 I-0.5 J0.0
G2 Y9.023 Z-2.0 I0.25 J0.433
G2 X11.0662 Y8.59 Z-3.0 I0.25 J-0.433
G2 X10.3162 Y8.157 Z-4.0 I-0.5 J0.0
G2 Y9.023 Z-5.0 I0.25 J0.433
G2 X11.0662 Y8.59 Z-6.0 I0.25 J-0.433
G2 X10.3162 Y8.157 Z-7.0 I-0.5 J0.0
G2 Y9.023 Z-8.0 I0.25 J0.433
G2 X10.8162 Z-8.5 I0.25 J-0.433
G2 Y8.157 I-0.25 J-0.433
G2 X10.0662 Y8.59 I-0.25 J0.433
G2 X10.8162 Y9.023 I0.5 J0.0
G0 Z3.0
G0 X47.6122 Y8.59
G0 Z1.0
G1 F300.0 Z0.0
G2 F2500.0 X46.8622 Y8.157 Z-1.0 I-0.5 J0.0
G2 Y9.023 Z-2.0 I0.25 J0.433
G2 X47.6122 Y8.59 Z-3.0 I0.25 J-0.433
G2 X46.8622 Y8.157 Z-4.0 I-0.5 J0.0
G2 Y9.023 Z-5.0 I0.25 J0.433
G2 X47.6122 Y8.59 Z-6.0 I0.25 J-0.433
G2 X46.8622 Y8.157 Z-7.0 I-0.5 J0.0
G2 Y9.023 Z-8.0 I0.25 J0.433
G2 X47.3622 Z-8.5 I0.25 J-0.433
G2 Y8.157 I-0.25 J-0.433
G2 X46.6122 Y8.59 I-0.25 J0.433
G2 X47.3622 Y9.023 I0.5 J0.0
G0 Z3.0
G0 X108.5306 Y8.59
G0 Z1.0
G1 F300.0 Z0.0
G2 F2500.0 X107.7806 Y8.157 Z-1.0 I-0.5 J0.0
G2 Y9.023 Z-2.0 I0.25 J0.433
G2 X108.5306 Y8.59 Z-3.0 I0.25 J-0.433
G2 X107.7806 Y8.157 Z-4.0 I-0.5 J0.0
G2 Y9.023 Z-5.0 I0.25 J0.433
G2 X108.5306 Y8.59 Z-6.0 I0.25 J-0.433
G2 X107.7806 Y8.157 Z-7.0 I-0.5 J0.0
G2 Y9.023 Z-8.0 I0.25 J0.433
G2 X108.2806 Z-8.5 I0.25 J-0.433
G2 Y8.157 I-0.25 J-0.433
G2 X107.5306 Y8.59 I-0.25 J0.433
G2 X108.2806 Y9.023 I0.5 J0.0
G0 Z3.0
G0 X212.3115 Y8.59
G0 Z1.0
G1 F300.0 Z0.0
G2 F2500.0 X211.5615 Y8.157 Z-1.0 I-0.5 J0.0
G2 Y9.023 Z-2.0 I0.25 J0.433
G2 X212.3115 Y8.59 Z-3.0 I0.25 J-0.433
G2 X211.5615 Y8.157 Z-4.0 I-0.5 J0.0
G2 Y9.023 Z-5.0 I0.25 J0.433
G2 X212.3115 Y8.59 Z-6.0 I0.25 J-0.433
G2 X211.5615 Y8.157 Z-7.0 I-0.5 J0.0
G2 Y9.023 Z-8.0 I0.25 J0.433
G2 X212.0615 Z-8.5 I0.25 J-0.433
G2 Y8.157 I-0.25 J-0.433
G2 X211.3115 Y8.59 I-0.25 J0.433
G2 X212.0615 Y9.023 I0.5 J0.0
G0 Z3.0
G0 X212.3115 Y101.6118
G0 Z1.0
G1 F300.0 Z0.0
G2 F2500.0 X211.5615 Y101.1788 Z-1.0 I-0.5 J0.0
G2 Y102.0448 Z-2.0 I0.25 J0.433
G2 X212.3115 Y101.6118 Z-3.0 I0.25 J-0.433
G2 X211.5615 Y101.1788 Z-4.0 I-0.5 J0.0
G2 Y102.0448 Z-5.0 I0.25 J0.433
G2 X212.3115 Y101.6118 Z-6.0 I0.25 J-0.433
G2 X211.5615 Y101.1788 Z-7.0 I-0.5 J0.0
G2 Y102.0448 Z-8.0 I0.25 J0.433
G2 X212.0615 Z-8.5 I0.25 J-0.433
G2 Y101.1788 I-0.25 J-0.433
G2 X211.3115 Y101.6118 I-0.25 J0.433
G2 X212.0615 Y102.0448 I0.5 J0.0
G0 Z3.0
G0 X212.3115 Y172.8391
G0 Z1.0
G1 F300.0 Z0.0
G2 F2500.0 X211.5615 Y172.4061 Z-1.0 I-0.5 J0.0
G2 Y173.2721 Z-2.0 I0.25 J0.433
G2 X212.3115 Y172.8391 Z-3.0 I0.25 J-0.433
G2 X211.5615 Y172.4061 Z-4.0 I-0.5 J0.0
G2 Y173.2721 Z-5.0 I0.25 J0.433
G2 X212.3115 Y172.8391 Z-6.0 I0.25 J-0.433
G2 X211.5615 Y172.4061 Z-7.0 I-0.5 J0.0
G2 Y173.2721 Z-8.0 I0.25 J0.433
G2 X212.0615 Z-8.5 I0.25 J-0.433
G2 Y172.4061 I-0.25 J-0.433
G2 X211.3115 Y172.8391 I-0.25 J0.433
G2 X212.0615 Y173.2721 I0.5 J0.0
G0 Z3.0
G0 X212.3115 Y244.0664
G0 Z1.0
G1 F300.0 Z0.0
G2 F2500.0 X211.5615 Y243.6333 Z-1.0 I-0.5 J0.0
G2 Y244.4994 Z-2.0 I0.25 J0.433
G2 X212.3115 Y244.0664 Z-3.0 I0.25 J-0.433
G2 X211.5615 Y243.6333 Z-4.0 I-0.5 J0.0
G2 Y244.4994 Z-5.0 I0.25 J0.433
G2 X212.3115 Y244.0664 Z-6.0 I0.25 J-0.433
G2 X211.5615 Y243.6333 Z-7.0 I-0.5 J0.0
G2 Y244.4994 Z-8.0 I0.25 J0.433
G2 X212.0615 Z-8.5 I0.25 J-0.433
G2 Y243.6333 I-0.25 J-0.433
G2 X211.3115 Y244.0664 I-0.25 J0.433
G2 X212.0615 Y244.4994 I0.5 J0.0
G0 Z3.0
G0 X109.2967 Y244.0664
G0 Z1.0
G1 F300.0 Z0.0
G2 F2500.0 X108.5467 Y243.6333 Z-1.0 I-0.5 J0.0
G2 Y244.4994 Z-2.0 I0.25 J0.433
G2 X109.2967 Y244.0664 Z-3.0 I0.25 J-0.433
G2 X108.5467 Y243.6333 Z-4.0 I-0.5 J0.0
G2 Y244.4994 Z-5.0 I0.25 J0.433
G2 X109.2967 Y244.0664 Z-6.0 I0.25 J-0.433
G2 X108.5467 Y243.6333 Z-7.0 I-0.5 J0.0
G2 Y244.4994 Z-8.0 I0.25 J0.433
G2 X109.0467 Z-8.5 I0.25 J-0.433
G2 Y243.6333 I-0.25 J-0.433
G2 X108.2967 Y244.0664 I-0.25 J0.433
G2 X109.0467 Y244.4994 I0.5 J0.0
G0 Z3.0
M5
M30
