( Made using CamBam - http://www.cambam.co.uk )
( Left 2/7/2014 8:06:23 PM )
( T1 : 1.0 )
( T2 : 2.0 )
( T3 : 3.0 )
G21 G90 G64 G40
G0 Z3.0
( T3 : 3.0 )
T3 M6
( Bolt Holes Through )
G17
M3 S1000
G0 X169.0345 Y158.8307
G0 Z3.0
G0 X169.2845 Y158.8307
G0 Z1.0
G1 F300.0 Z0.0
G2 F2000.0 X168.9095 Y158.6142 Z-0.6667 I-0.25 J0.0
G2 Y159.0472 Z-1.3333 I0.125 J0.2165
G2 X169.2845 Y158.8307 Z-2.0 I0.125 J-0.2165
G2 X168.9095 Y158.6142 Z-2.6667 I-0.25 J0.0
G2 Y159.0472 Z-3.3333 I0.125 J0.2165
G2 X169.2845 Y158.8307 Z-4.0 I0.125 J-0.2165
G2 X168.9095 Y158.6142 Z-4.6667 I-0.25 J0.0
G2 Y159.0472 Z-5.3333 I0.125 J0.2165
G2 X169.2845 Y158.8307 Z-6.0 I0.125 J-0.2165
G2 X168.9095 Y158.6142 Z-6.6667 I-0.25 J0.0
G2 Y159.0472 Z-7.3333 I0.125 J0.2165
G2 X169.2845 Y158.8307 Z-8.0 I0.125 J-0.2165
G2 X168.9095 Y158.6142 I-0.25 J0.0
G2 Y159.0472 I0.125 J0.2165
G2 X169.2845 Y158.8307 I0.125 J-0.2165
G0 Z3.0
G0 X118.4846
G0 Z1.0
G1 F300.0 Z0.0
G2 F2000.0 X118.1096 Y158.6142 Z-0.6667 I-0.25 J0.0
G2 Y159.0472 Z-1.3333 I0.125 J0.2165
G2 X118.4846 Y158.8307 Z-2.0 I0.125 J-0.2165
G2 X118.1096 Y158.6142 Z-2.6667 I-0.25 J0.0
G2 Y159.0472 Z-3.3333 I0.125 J0.2165
G2 X118.4846 Y158.8307 Z-4.0 I0.125 J-0.2165
G2 X118.1096 Y158.6142 Z-4.6667 I-0.25 J0.0
G2 Y159.0472 Z-5.3333 I0.125 J0.2165
G2 X118.4846 Y158.8307 Z-6.0 I0.125 J-0.2165
G2 X118.1096 Y158.6142 Z-6.6667 I-0.25 J0.0
G2 Y159.0472 Z-7.3333 I0.125 J0.2165
G2 X118.4846 Y158.8307 Z-8.0 I0.125 J-0.2165
G2 X118.1096 Y158.6142 I-0.25 J0.0
G2 Y159.0472 I0.125 J0.2165
G2 X118.4846 Y158.8307 I0.125 J-0.2165
G0 Z3.0
G0 X97.6566 Y104.3732
G0 Z1.0
G1 F300.0 Z0.0
G2 F2000.0 X97.2816 Y104.1567 Z-0.6667 I-0.25 J0.0
G2 Y104.5897 Z-1.3333 I0.125 J0.2165
G2 X97.6566 Y104.3732 Z-2.0 I0.125 J-0.2165
G2 X97.2816 Y104.1567 Z-2.6667 I-0.25 J0.0
G2 Y104.5897 Z-3.3333 I0.125 J0.2165
G2 X97.6566 Y104.3732 Z-4.0 I0.125 J-0.2165
G2 X97.2816 Y104.1567 Z-4.6667 I-0.25 J0.0
G2 Y104.5897 Z-5.3333 I0.125 J0.2165
G2 X97.6566 Y104.3732 Z-6.0 I0.125 J-0.2165
G2 X97.2816 Y104.1567 Z-6.6667 I-0.25 J0.0
G2 Y104.5897 Z-7.3333 I0.125 J0.2165
G2 X97.6566 Y104.3732 Z-8.0 I0.125 J-0.2165
G2 X97.2816 Y104.1567 I-0.25 J0.0
G2 Y104.5897 I0.125 J0.2165
G2 X97.6566 Y104.3732 I0.125 J-0.2165
G0 Z3.0
G0 X131.2608 Y38.2062
G0 Z1.0
G1 F300.0 Z0.0
G2 F2000.0 X130.8858 Y37.9897 Z-0.6667 I-0.25 J0.0
G2 Y38.4227 Z-1.3333 I0.125 J0.2165
G2 X131.2608 Y38.2062 Z-2.0 I0.125 J-0.2165
G2 X130.8858 Y37.9897 Z-2.6667 I-0.25 J0.0
G2 Y38.4227 Z-3.3333 I0.125 J0.2165
G2 X131.2608 Y38.2062 Z-4.0 I0.125 J-0.2165
G2 X130.8858 Y37.9897 Z-4.6667 I-0.25 J0.0
G2 Y38.4227 Z-5.3333 I0.125 J0.2165
G2 X131.2608 Y38.2062 Z-6.0 I0.125 J-0.2165
G2 X130.8858 Y37.9897 Z-6.6667 I-0.25 J0.0
G2 Y38.4227 Z-7.3333 I0.125 J0.2165
G2 X131.2608 Y38.2062 Z-8.0 I0.125 J-0.2165
G2 X130.8858 Y37.9897 I-0.25 J0.0
G2 Y38.4227 I0.125 J0.2165
G2 X131.2608 Y38.2062 I0.125 J-0.2165
G0 Z3.0
G0 X182.7973 Y30.129
G0 Z1.0
G1 F300.0 Z0.0
G2 F2000.0 X182.4223 Y29.9125 Z-0.6667 I-0.25 J0.0
G2 Y30.3456 Z-1.3333 I0.125 J0.2165
G2 X182.7973 Y30.129 Z-2.0 I0.125 J-0.2165
G2 X182.4223 Y29.9125 Z-2.6667 I-0.25 J0.0
G2 Y30.3456 Z-3.3333 I0.125 J0.2165
G2 X182.7973 Y30.129 Z-4.0 I0.125 J-0.2165
G2 X182.4223 Y29.9125 Z-4.6667 I-0.25 J0.0
G2 Y30.3456 Z-5.3333 I0.125 J0.2165
G2 X182.7973 Y30.129 Z-6.0 I0.125 J-0.2165
G2 X182.4223 Y29.9125 Z-6.6667 I-0.25 J0.0
G2 Y30.3456 Z-7.3333 I0.125 J0.2165
G2 X182.7973 Y30.129 Z-8.0 I0.125 J-0.2165
G2 X182.4223 Y29.9125 I-0.25 J0.0
G2 Y30.3456 I0.125 J0.2165
G2 X182.7973 Y30.129 I0.125 J-0.2165
G0 Z3.0
G0 X34.9187 Y55.91
G0 Z1.0
G1 F300.0 Z0.0
G2 F2000.0 X34.5437 Y55.6935 Z-0.6667 I-0.25 J0.0
G2 Y56.1265 Z-1.3333 I0.125 J0.2165
G2 X34.9187 Y55.91 Z-2.0 I0.125 J-0.2165
G2 X34.5437 Y55.6935 Z-2.6667 I-0.25 J0.0
G2 Y56.1265 Z-3.3333 I0.125 J0.2165
G2 X34.9187 Y55.91 Z-4.0 I0.125 J-0.2165
G2 X34.5437 Y55.6935 Z-4.6667 I-0.25 J0.0
G2 Y56.1265 Z-5.3333 I0.125 J0.2165
G2 X34.9187 Y55.91 Z-6.0 I0.125 J-0.2165
G2 X34.5437 Y55.6935 Z-6.6667 I-0.25 J0.0
G2 Y56.1265 Z-7.3333 I0.125 J0.2165
G2 X34.9187 Y55.91 Z-8.0 I0.125 J-0.2165
G2 X34.5437 Y55.6935 I-0.25 J0.0
G2 Y56.1265 I0.125 J0.2165
G2 X34.9187 Y55.91 I0.125 J-0.2165
G0 Z3.0
G0 X35.5537 Y158.8307
G0 Z1.0
G1 F300.0 Z0.0
G2 F2000.0 X35.1787 Y158.6142 Z-0.6667 I-0.25 J0.0
G2 Y159.0472 Z-1.3333 I0.125 J0.2165
G2 X35.5537 Y158.8307 Z-2.0 I0.125 J-0.2165
G2 X35.1787 Y158.6142 Z-2.6667 I-0.25 J0.0
G2 Y159.0472 Z-3.3333 I0.125 J0.2165
G2 X35.5537 Y158.8307 Z-4.0 I0.125 J-0.2165
G2 X35.1787 Y158.6142 Z-4.6667 I-0.25 J0.0
G2 Y159.0472 Z-5.3333 I0.125 J0.2165
G2 X35.5537 Y158.8307 Z-6.0 I0.125 J-0.2165
G2 X35.1787 Y158.6142 Z-6.6667 I-0.25 J0.0
G2 Y159.0472 Z-7.3333 I0.125 J0.2165
G2 X35.5537 Y158.8307 Z-8.0 I0.125 J-0.2165
G2 X35.1787 Y158.6142 I-0.25 J0.0
G2 Y159.0472 I0.125 J0.2165
G2 X35.5537 Y158.8307 I0.125 J-0.2165
( Bolt Holes Not Through )
S1000
G0 Z3.0
G0 X34.6687 Y289.0059
G98
G81 X34.6687 Y289.0059 Z-4.0 R3.0 F300.0
G81 X131.0108 Y306.7097 Z-4.0
G81 X118.2346 Y186.0852 Z-4.0
G81 X169.0345 Z-4.0
G81 X35.3037 Z-4.0
G80
( Internal Space )
S1000
G0 Z3.0
G0 X48.4752 Y192.9114
G0 Z1.0
G1 F300.0 Z-3.0
G1 F2500.0 X70.1258
G3 X70.7844 Y192.4084 I8.9549 J11.041
G1 X48.7239
G3 X48.4752 Y192.9114 I-13.4202 J-6.3232
G1 F300.0 X47.9425 Y192.6353
G3 F2500.0 X47.4484 Y193.5114 I-12.6388 J-6.5501
G1 X70.3412
G3 X72.923 Y191.8084 I8.7396 J10.441
G1 X48.3378
G3 X47.9425 Y192.6353 I-13.0341 J-5.7232
G1 F300.0 X46.8771 Y192.0832
G3 F2500.0 X45.0764 Y194.7114 I-11.5734 J-5.998
G1 X70.7886
G3 X79.0808 Y191.5364 I8.2922 J9.241
G1 X91.8708
G3 X93.9527 Y190.6084 I6.0746 J10.8285
G1 X93.0378
G1 X92.5409
G1 X47.529
G3 X46.8771 Y192.0832 I-12.2254 J-4.5232
G1 F300.0 X45.8116 Y191.531
G3 F2500.0 X41.9006 Y195.9114 I-10.5079 J-5.4458
G1 X71.2615
G3 X79.0808 Y192.7364 I7.8193 J8.041
G1 X92.193
G3 X97.9454 Y191.1489 I5.7524 J9.6285
G1 X107.5373
G3 X106.8754 Y189.4084 I10.6973 J-5.0637
G1 X105.0409
G1 X104.544
G1 X93.0378
G1 X92.5409
G1 X46.6628
G3 X45.8116 Y191.531 I-11.3591 J-3.3232
G1 F300.0 X44.7462 Y190.9788
G3 F2500.0 X40.6213 Y195.2956 I-9.4425 J-4.8937
G3 X37.5285 Y196.4852 I-5.3176 J-9.2104
G1 Y197.1114
G1 X71.765
G3 X79.0808 Y193.9364 I7.3158 J6.841
G1 X92.5343
G3 X97.9454 Y192.3489 I5.4112 J8.4285
G1 X109.6395
G3 X107.8134 Y188.2084 I8.5951 J-6.2637
G1 X105.0409
G1 X104.544
G1 X93.0378
G1 X92.5409
G1 X45.7249
G3 X44.7462 Y190.9788 I-10.4212 J-2.1232
G1 F300.0 X43.6808 Y190.4267
G3 F2500.0 X40.0213 Y194.2564 I-8.3771 J-4.3415
G3 X36.3285 Y195.4647 I-4.7176 J-8.1712
G1 Y198.3114
G1 X72.3057
G3 X79.0808 Y195.1364 I6.775 J5.641
G1 X92.8986
G3 X97.9454 Y193.5489 I5.0468 J7.2285
G1 X112.4625
G3 X108.8446 Y187.0084 I5.7721 J-7.4637
G1 X105.0409
G1 X104.544
G1 X93.0378
G1 X92.5409
G1 X44.6937
G3 X43.6808 Y190.4267 I-9.39 J-0.9232
G0 Z3.0
G0 X130.0753 Y191.5364
G0 Z1.0
G1 F300.0 Z-3.0
G1 F2500.0 X135.0471
G3 X140.5173 Y192.8064 I0.0 J12.416
G1 X157.8657
G3 X156.8092 Y190.6084 I11.1689 J-6.7212
G1 X141.3994
G1 X140.9025
G1 X130.4599
G3 X130.0753 Y191.5364 I-12.2254 J-4.5232
G1 F300.0 Y192.7364
G1 F2500.0 X135.0471
G3 X140.2313 Y194.0064 I0.0 J11.216
G1 X160.2409
G3 X157.6754 Y189.4084 I8.7936 J-7.9212
G1 X141.3994
G1 X140.9025
G1 X129.5937
G3 X128.0241 Y192.7364 I-11.3591 J-3.3232
G1 X130.0753
G1 F300.0 Y193.9364
G1 F2500.0 X135.0471
G3 X139.9284 Y195.2064 I0.0 J10.016
G1 X163.5653
G3 X158.6133 Y188.2084 I5.4692 J-9.1212
G1 X158.5697
G1 X141.3994
G1 X140.9025
G1 X128.6558
G3 X125.4087 Y193.9364 I-10.4212 J-2.1232
G1 X130.0753
G1 F300.0 Y195.1364
G1 F2500.0 X135.0471
G3 X139.6056 Y196.4064 I0.0 J8.816
G1 X168.0351
G1 Y195.4674
G3 X159.6445 Y187.0084 I0.9994 J-9.3822
G1 X159.0667
G1 X158.5697
G1 X141.3994
G1 X140.9025
G1 X127.6246
G3 X122.9522 Y194.2564 I-9.39 J-0.9232
G3 X120.8992 Y195.1364 I-4.7176 J-8.1712
G1 X130.0753
G1 F300.0 Y196.3364
G1 F2500.0 X135.0471
G3 X139.258 Y197.6064 I0.0 J7.616
G1 X169.2351
G1 Y194.318
G3 X160.7993 Y186.0852 I-0.2006 J-8.2328
G3 X160.8039 Y185.8084 I8.2353 J0.0
G1 X159.0667
G1 X158.5697
G1 X141.3994
G1 X140.9025
G1 X126.4652
G3 X122.3522 Y193.2172 I-8.2306 J0.2768
G3 X109.9993 Y186.0852 I-4.1176 J-7.132
G3 X110.004 Y185.8084 I8.2353 J0.0
G1 X105.0409
G1 X104.544
G1 X93.0378
G1 X92.5409
G1 X43.5343
G3 X39.4213 Y193.2172 I-8.2306 J0.2768
G3 X35.1285 Y194.3186 I-4.1176 J-7.132
G1 Y199.5114
G1 X72.8936
G3 X79.0808 Y196.3364 I6.1872 J4.441
G1 X93.2913
G3 X97.9454 Y194.7489 I4.6541 J6.0285
G1 X115.8421
G3 X120.4962 Y196.3364 I0.0 J7.616
G1 X130.0753
G1 F300.0 Y197.5364
G1 F2500.0 X135.0471
G3 X138.879 Y198.8064 I0.0 J6.416
G1 X170.4351
G1 Y192.9796
G3 X161.9993 Y186.0852 I-1.4006 J-6.8945
G3 X162.156 Y184.6084 I7.0353 J0.0
G1 X159.0667
G1 X158.5697
G1 X141.3994
G1 X140.9025
G1 X125.1131
G3 X121.7522 Y192.1779 I-6.8785 J1.4768
G3 X111.1993 Y186.0852 I-3.5176 J-6.0927
G3 X111.3561 Y184.6084 I7.0353 J0.0
G1 X105.0409
G1 X104.544
G1 X93.0378
G1 X92.5409
G1 X42.1822
G3 X38.8213 Y192.1779 I-6.8785 J1.4768
G3 X33.9285 Y192.9848 I-3.5176 J-6.0927
G1 Y200.7114
G1 X73.5435
G3 X79.0808 Y197.5364 I5.5372 J3.241
G1 X93.7204
G3 X97.9454 Y195.9489 I4.225 J4.8285
G1 X115.8421
G3 X120.0671 Y197.5364 I0.0 J6.416
G1 X130.0753
G1 F300.0 Y198.7364
G1 F2500.0 X135.0471
G3 X138.4582 Y200.0064 I0.0 J5.216
G1 X171.6351
G1 Y191.3089
G3 X163.1993 Y186.0852 I-2.6006 J-5.2237
G3 X163.8494 Y183.4084 I5.8353 J0.0
G1 X159.0667
G1 X158.5697
G1 X141.3994
G1 X140.9025
G1 X123.4197
G3 X121.1522 Y191.1387 I-5.1851 J2.6768
G3 X112.3993 Y186.0852 I-2.9176 J-5.0535
G3 X113.0495 Y183.4084 I5.8353 J0.0
G1 X105.0409
G1 X104.544
G1 X93.0378
G1 X92.5409
G1 X40.4888
G3 X38.2213 Y191.1387 I-5.1851 J2.6768
G3 X32.7285 Y191.3215 I-2.9176 J-5.0535
G1 Y201.9114
G1 X74.2807
G3 X79.0808 Y198.7364 I4.8001 J2.041
G1 X94.1983
G3 X97.9454 Y197.1489 I3.7471 J3.6285
G1 X115.8421
G3 X119.5892 Y198.7364 I0.0 J5.216
G1 X130.0753
G1 F300.0 Y199.9364
G1 F2500.0 X135.0471
G3 X137.9776 Y201.2064 I0.0 J4.016
G1 X172.8068
G1 X172.8351
G1 Y188.7429
G3 X171.3534 Y190.1015 I-3.8006 J-2.6577
G3 X164.3969 Y186.0852 I-2.3188 J-4.0164
G3 X166.4892 Y182.2084 I4.6377 J0.0
G1 X159.0667
G1 X158.5697
G1 X141.3994
G1 X140.9025
G1 X120.7799
G3 X120.5534 Y190.1015 I-2.5453 J3.8768
G3 X113.5969 Y186.0852 I-2.3188 J-4.0164
G3 X115.6893 Y182.2084 I4.6377 J0.0
G1 X105.0409
G1 X104.544
G1 X93.0378
G1 X92.5409
G1 X37.849
G3 X37.6225 Y190.1015 I-2.5453 J3.8768
G3 X31.5285 Y188.7789 I-2.3188 J-4.0164
G1 Y203.1114
G1 X31.5286
G1 X75.1538
G3 X79.0808 Y199.9364 I3.927 J0.841
G1 X94.7469
G3 X97.9454 Y198.3489 I3.1985 J2.4285
G1 X115.8421
G3 X119.0407 Y199.9364 I0.0 J4.016
G1 X130.0753
G0 Z3.0
G0 Y191.5364
G0 Z-2.0
G1 F300.0 Z-6.0
G1 F2500.0 X135.0471
G3 X140.5173 Y192.8064 I0.0 J12.416
G1 X157.8657
G3 X156.8092 Y190.6084 I11.1689 J-6.7212
G1 X141.3994
G1 X140.9025
G1 X130.4599
G3 X130.0753 Y191.5364 I-12.2254 J-4.5232
G1 F300.0 Y192.7364
G1 F2500.0 X135.0471
G3 X140.2313 Y194.0064 I0.0 J11.216
G1 X160.2409
G3 X157.6754 Y189.4084 I8.7936 J-7.9212
G1 X141.3994
G1 X140.9025
G1 X129.5937
G3 X128.0241 Y192.7364 I-11.3591 J-3.3232
G1 X130.0753
G1 F300.0 Y193.9364
G1 F2500.0 X135.0471
G3 X139.9284 Y195.2064 I0.0 J10.016
G1 X163.5653
G3 X158.6133 Y188.2084 I5.4692 J-9.1212
G1 X158.5697
G1 X141.3994
G1 X140.9025
G1 X128.6558
G3 X125.4087 Y193.9364 I-10.4212 J-2.1232
G1 X130.0753
G1 F300.0 Y195.1364
G1 F2500.0 X135.0471
G3 X139.6056 Y196.4064 I0.0 J8.816
G1 X168.0351
G1 Y195.4674
G3 X159.6445 Y187.0084 I0.9994 J-9.3822
G1 X159.0667
G1 X158.5697
G1 X141.3994
G1 X140.9025
G1 X127.6246
G3 X122.9522 Y194.2564 I-9.39 J-0.9232
G3 X120.8992 Y195.1364 I-4.7176 J-8.1712
G1 X130.0753
G0 Z3.0
G0 X70.7844 Y192.4084
G0 Z-2.0
G1 F300.0 Z-6.0
G1 F2500.0 X48.7239
G3 X48.4752 Y192.9114 I-13.4202 J-6.3232
G1 X70.1258
G3 X70.7844 Y192.4084 I8.9549 J11.041
G1 F300.0 Y191.8084
G1 F2500.0 X48.3378
G3 X47.4484 Y193.5114 I-13.0341 J-5.7232
G1 X70.3412
G3 X72.923 Y191.8084 I8.7396 J10.441
G1 X70.7844
G1 F300.0 Y190.6084
G1 F2500.0 X47.529
G3 X45.0764 Y194.7114 I-12.2254 J-4.5232
G1 X70.7886
G3 X79.0808 Y191.5364 I8.2922 J9.241
G1 X91.8708
G3 X93.9527 Y190.6084 I6.0746 J10.8285
G1 X93.0378
G1 X92.5409
G1 X70.7844
G1 F300.0 Y189.4084
G1 F2500.0 X46.6628
G3 X41.9006 Y195.9114 I-11.3591 J-3.3232
G1 X71.2615
G3 X79.0808 Y192.7364 I7.8193 J8.041
G1 X92.193
G3 X97.9454 Y191.1489 I5.7524 J9.6285
G1 X107.5373
G3 X106.8754 Y189.4084 I10.6973 J-5.0637
G1 X105.0409
G1 X104.544
G1 X93.0378
G1 X92.5409
G1 X70.7844
G1 F300.0 Y188.2084
G1 F2500.0 X45.7249
G3 X40.6213 Y195.2956 I-10.4212 J-2.1232
G3 X37.5285 Y196.4852 I-5.3176 J-9.2104
G1 Y197.1114
G1 X71.765
G3 X79.0808 Y193.9364 I7.3158 J6.841
G1 X92.5343
G3 X97.9454 Y192.3489 I5.4112 J8.4285
G1 X109.6395
G3 X107.8134 Y188.2084 I8.5951 J-6.2637
G1 X105.0409
G1 X104.544
G1 X93.0378
G1 X92.5409
G1 X70.7844
G1 F300.0 Y187.0084
G1 F2500.0 X44.6937
G3 X40.0213 Y194.2564 I-9.39 J-0.9232
G3 X36.3285 Y195.4647 I-4.7176 J-8.1712
G1 Y198.3114
G1 X72.3057
G3 X79.0808 Y195.1364 I6.775 J5.641
G1 X92.8986
G3 X97.9454 Y193.5489 I5.0468 J7.2285
G1 X112.4625
G3 X108.8446 Y187.0084 I5.7721 J-7.4637
G1 X105.0409
G1 X104.544
G1 X93.0378
G1 X92.5409
G1 X70.7844
G1 F300.0 Y185.8084
G1 F2500.0 X43.5343
G3 X39.4213 Y193.2172 I-8.2306 J0.2768
G3 X35.1285 Y194.3186 I-4.1176 J-7.132
G1 Y199.5114
G1 X72.8936
G3 X79.0808 Y196.3364 I6.1872 J4.441
G1 X93.2913
G3 X97.9454 Y194.7489 I4.6541 J6.0285
G1 X115.8421
G3 X120.4962 Y196.3364 I0.0 J7.616
G1 X135.0471
G3 X139.258 Y197.6064 I0.0 J7.616
G1 X169.2351
G1 Y194.318
G3 X160.7993 Y186.0852 I-0.2006 J-8.2328
G3 X160.8039 Y185.8084 I8.2353 J0.0
G1 X159.0667
G1 X158.5697
G1 X141.3994
G1 X140.9025
G1 X126.4652
G3 X122.3522 Y193.2172 I-8.2306 J0.2768
G3 X109.9993 Y186.0852 I-4.1176 J-7.132
G3 X110.004 Y185.8084 I8.2353 J0.0
G1 X105.0409
G1 X104.544
G1 X93.0378
G1 X92.5409
G1 X70.7844
G1 F300.0 Y184.6084
G1 F2500.0 X42.1822
G3 X38.8213 Y192.1779 I-6.8785 J1.4768
G3 X33.9285 Y192.9848 I-3.5176 J-6.0927
G1 Y200.7114
G1 X73.5435
G3 X79.0808 Y197.5364 I5.5372 J3.241
G1 X93.7204
G3 X97.9454 Y195.9489 I4.225 J4.8285
G1 X115.8421
G3 X120.0671 Y197.5364 I0.0 J6.416
G1 X135.0471
G3 X138.879 Y198.8064 I0.0 J6.416
G1 X170.4351
G1 Y192.9796
G3 X161.9993 Y186.0852 I-1.4006 J-6.8945
G3 X162.156 Y184.6084 I7.0353 J0.0
G1 X159.0667
G1 X158.5697
G1 X141.3994
G1 X140.9025
G1 X125.1131
G3 X121.7522 Y192.1779 I-6.8785 J1.4768
G3 X111.1993 Y186.0852 I-3.5176 J-6.0927
G3 X111.3561 Y184.6084 I7.0353 J0.0
G1 X105.0409
G1 X104.544
G1 X93.0378
G1 X92.5409
G1 X70.7844
G1 F300.0 Y183.4084
G1 F2500.0 X40.4888
G3 X38.2213 Y191.1387 I-5.1851 J2.6768
G3 X32.7285 Y191.3215 I-2.9176 J-5.0535
G1 Y201.9114
G1 X74.2807
G3 X79.0808 Y198.7364 I4.8001 J2.041
G1 X94.1983
G3 X97.9454 Y197.1489 I3.7471 J3.6285
G1 X115.8421
G3 X119.5892 Y198.7364 I0.0 J5.216
G1 X135.0471
G3 X138.4582 Y200.0064 I0.0 J5.216
G1 X171.6351
G1 Y191.3089
G3 X163.1993 Y186.0852 I-2.6006 J-5.2237
G3 X163.8494 Y183.4084 I5.8353 J0.0
G1 X159.0667
G1 X158.5697
G1 X141.3994
G1 X140.9025
G1 X123.4197
G3 X121.1522 Y191.1387 I-5.1851 J2.6768
G3 X112.3993 Y186.0852 I-2.9176 J-5.0535
G3 X113.0495 Y183.4084 I5.8353 J0.0
G1 X105.0409
G1 X104.544
G1 X93.0378
G1 X92.5409
G1 X70.7844
G1 F300.0 Y182.2084
G1 F2500.0 X37.849
G3 X37.6225 Y190.1015 I-2.5453 J3.8768
G3 X31.5285 Y188.7789 I-2.3188 J-4.0164
G1 Y203.1114
G1 X31.5286
G1 X75.1538
G3 X79.0808 Y199.9364 I3.927 J0.841
G1 X94.7469
G3 X97.9454 Y198.3489 I3.1985 J2.4285
G1 X115.8421
G3 X119.0407 Y199.9364 I0.0 J4.016
G1 X135.0471
G3 X137.9776 Y201.2064 I0.0 J4.016
G1 X172.8068
G1 X172.8351
G1 Y188.7429
G3 X171.3534 Y190.1015 I-3.8006 J-2.6577
G3 X164.3969 Y186.0852 I-2.3188 J-4.0164
G3 X166.4892 Y182.2084 I4.6377 J0.0
G1 X159.0667
G1 X158.5697
G1 X141.3994
G1 X140.9025
G1 X120.7799
G3 X120.5534 Y190.1015 I-2.5453 J3.8768
G3 X113.5969 Y186.0852 I-2.3188 J-4.0164
G3 X115.6893 Y182.2084 I4.6377 J0.0
G1 X105.0409
G1 X104.544
G1 X93.0378
G1 X92.5409
G1 X70.7844
G0 Z3.0
G0 X66.9498 Y129.1075
G0 Z1.0
G1 F300.0 Z-3.0
G3 F2500.0 X65.1285 Y126.6785 I30.4569 J-24.7343
G1 Y129.1075
G1 X66.9498
G1 F300.0 Y130.3075
G1 F2500.0 X69.5841
G3 X63.9285 Y122.4258 I27.8225 J-25.9343
G1 Y130.3075
G1 X66.9498
G1 F300.0 Y131.5075
G1 F2500.0 X72.4955
G3 X62.7285 Y116.7935 I24.9112 J-27.1343
G1 Y131.5075
G1 X66.9498
G0 Z3.0
G0 X65.1285 Y82.0678
G0 Z1.0
G1 F300.0 Z-3.0
G3 F2500.0 X68.6718 Y77.6576 I32.2781 J22.3054
G1 X67.3252
G3 X65.1285 Y80.6407 I-32.6565 J-21.7476
G1 Y82.0678
G1 F300.0 X66.1157 Y82.75
G3 F2500.0 X71.5724 Y76.4576 I31.2909 J21.6232
G1 X66.6762
G3 X63.9285 Y80.2112 I-32.0075 J-20.5476
G1 Y86.3205
G3 X66.1157 Y82.75 I33.4781 J18.0526
G1 F300.0 X67.1029 Y83.4322
G3 F2500.0 X74.8428 Y75.2576 I30.3037 J20.941
G1 X66.0137
G3 X62.7285 Y79.7739 I-31.345 J-19.3476
G1 Y91.9528
G3 X67.1029 Y83.4322 I34.6781 J12.4204
G1 F300.0 X68.0901 Y84.1144
G3 F2500.0 X78.6758 Y74.0576 I29.3165 J20.2588
G1 X65.3369
G3 X61.5285 Y79.3285 I-30.6682 J-18.1476
G1 Y132.7075
G1 X75.7955
G3 X61.7713 Y104.3732 I21.6111 J-28.3343
G3 X68.0901 Y84.1144 I35.6353 J0.0
G1 F300.0 X69.0774 Y84.7966
G3 F2500.0 X83.53 Y72.8576 I28.3293 J19.5766
G1 X64.6448
G3 X60.3285 Y78.8744 I-29.9761 J-16.9476
G1 Y133.9075
G1 X79.7003
G3 X62.9713 Y104.3732 I17.7063 J-29.5343
G3 X69.0774 Y84.7966 I34.4353 J0.0
G1 F300.0 X70.0646 Y85.4788
G3 F2500.0 X91.5519 Y71.6576 I27.342 J18.8944
G1 X63.9364
G3 X59.1285 Y78.4112 I-29.2677 J-15.7476
G1 Y135.1075
G1 X84.7581
G3 X64.1713 Y104.3732 I12.6485 J-30.7343
G3 X70.0646 Y85.4788 I33.2353 J0.0
G0 Z3.0
G0 X134.3399 Y81.5137
G0 Z1.0
G1 F300.0 Z-3.0
G3 F2500.0 X135.0351 Y82.6771 I-36.9333 J22.8594
G1 Y81.4547
G3 X134.3399 Y81.5137 I-4.0244 J-43.2485
G1 F300.0 X134.294 Y80.9155
G3 F2500.0 X133.2906 Y80.9808 I-3.2832 J-42.7093
G3 X135.6351 Y85.0485 I-35.884 J23.3924
G1 Y80.7912
G3 X134.294 Y80.9155 I-4.6244 J-42.5849
G1 F300.0 X134.202 Y79.719
G3 F2500.0 X131.0473 Y79.8415 I-3.1912 J-41.5128
G3 X136.8351 Y90.9982 I-33.6407 J24.5317
G1 Y79.4321
G3 X134.202 Y79.719 I-5.8244 J-41.2259
G0 Z3.0
G0 X136.8351 Y117.7481
G0 Z1.0
G1 F300.0 Z-3.0
G3 F2500.0 X135.5853 Y120.983 I-39.4285 J-13.3749
G3 X136.8351 Y121.5813 I-17.3507 J37.8477
G1 Y117.7481
G1 F300.0 X138.0351
G1 F2500.0 Y78.1545
G3 X138.0228 Y78.0289 I38.7464 J-3.8549
G3 X128.5351 Y78.5657 I-7.0121 J-39.8226
G3 X133.9924 Y121.5922 I-31.1285 J25.8075
G3 X138.0351 Y123.5752 I-15.7578 J37.2385
G1 Y117.7481
G1 F300.0 X139.2351
G1 F2500.0 Y78.0944
G3 X139.1138 Y76.5957 I37.5464 J-3.7948
G3 X125.5773 Y77.0635 I-8.103 J-38.3894
G3 X132.3472 Y122.2214 I-28.1707 J27.3097
G3 X137.8522 Y124.852 I-14.1127 J36.6093
G3 X139.2351 Y125.6888 I-19.6176 J33.9788
G1 Y117.7481
G1 F300.0 X140.4351
G1 F2500.0 Y78.0335
G3 X140.2526 Y75.1016 I36.3464 J-3.7339
G3 X121.6608 Y75.0744 I-9.2419 J-36.8954
G3 X130.6387 Y122.8749 I-24.2542 J29.2988
G3 X137.2522 Y125.8912 I-12.4041 J35.9558
G3 X140.4351 Y127.9467 I-19.0176 J32.9395
G1 Y117.7481
G1 F300.0 X141.6351
G1 F2500.0 Y77.9715
G3 X141.4438 Y74.2996 I35.1464 J-3.6719
G3 X141.4522 Y73.5307 I35.3377 J0.0
G3 X120.0894 Y73.3852 I-10.4414 J-35.3244
G3 X118.2225 Y73.9834 I-10.9064 J-30.8276
G3 X128.8512 Y123.5585 I-20.8158 J30.3898
G3 X136.6522 Y126.9304 I-10.6166 J35.2722
G3 X141.6351 Y130.3833 I-18.4176 J31.9003
G1 Y117.7481
G1 F300.0 X142.8351
G1 F2500.0 Y77.9084
G3 X142.6438 Y74.2996 I33.9464 J-3.6088
G3 X142.7312 Y71.859 I34.1377 J0.0
G3 X120.0642 Y72.1186 I-11.7204 J-33.6527
G3 X115.1734 Y73.4828 I-10.8812 J-29.5609
G3 X115.2243 Y73.5121 I-17.7668 J30.8904
G3 X126.9626 Y124.2808 I-17.8176 J30.8611
G3 X136.0522 Y127.9696 I-8.728 J34.5499
G3 X142.472 Y132.7075 I-17.8176 J30.8611
G1 X142.8351
G1 Y117.7481
G1 F300.0 X144.0351
G1 F2500.0 Y77.8442
G3 X143.8438 Y74.2996 I32.7464 J-3.5446
G3 X144.1193 Y70.0489 I32.9377 J0.0
G3 X120.038 Y70.8465 I-13.1085 J-31.8427
G3 X111.1388 Y72.7944 I-10.855 J-28.2889
G3 X114.6243 Y74.5513 I-13.7322 J31.5787
G3 X124.9397 Y125.0545 I-17.2176 J29.8218
G3 X135.4522 Y129.0089 I-6.7051 J33.7762
G3 X141.9964 Y133.9075 I-17.2176 J29.8218
G1 X144.0351
G1 Y117.7481
G1 F300.0 X145.2351
G1 F2500.0 Y77.7789
G3 X145.0438 Y74.2996 I31.5464 J-3.4793
G3 X145.6683 Y68.0348 I31.7377 J0.0
G3 X120.0105 Y69.5683 I-14.6575 J-29.8285
G3 X109.183 Y71.6576 I-10.8275 J-27.0106
G1 X103.2614
G3 X114.0243 Y75.5906 I-5.8547 J32.7155
G3 X122.7277 Y125.9005 I-16.6176 J28.7826
G3 X134.8522 Y130.0481 I-4.4931 J32.9302
G3 X141.5111 Y135.1075 I-16.6176 J28.7826
G1 X145.2351
G1 Y117.7481
G1 F300.0 X146.4351
G1 F2500.0 Y77.7123
G3 X146.2438 Y74.2996 I30.3464 J-3.4127
G3 X147.4854 Y65.6807 I30.5377 J0.0
G3 X147.0284 Y65.9496 I-16.4746 J-27.4745
G3 X119.9816 Y68.2831 I-16.0176 J-27.7434
G3 X109.183 Y70.4576 I-10.7986 J-25.7255
G1 X63.2103
G3 X57.9285 Y77.9382 I-28.5417 J-14.5476
G1 Y136.1508
G3 X58.0845 Y136.3075 I-22.6248 J22.6799
G1 X92.5409
G1 X93.0378
G1 X94.8654
G3 X65.3713 Y104.3732 I2.5412 J-31.9343
G3 X113.4243 Y76.6298 I32.0353 J0.0
G3 X120.2259 Y126.8574 I-16.0176 J27.7434
G3 X134.2522 Y131.0873 I-1.9913 J31.9733
G3 X141.0154 Y136.3075 I-16.0176 J27.7434
G1 X141.3994
G1 X146.2537
G3 X146.4351 Y136.1255 I22.7808 J22.5232
G1 Y117.7481
G1 F300.0 X147.6351
G1 F2500.0 Y77.6443
G3 X147.4438 Y74.2996 I29.1464 J-3.3447
G3 X149.8803 Y62.5938 I29.3377 J0.0
G3 X146.4284 Y64.9104 I-18.8695 J-24.3876
G3 X119.9512 Y66.9899 I-15.4176 J-26.7041
G3 X109.183 Y69.2576 I-10.7682 J-24.4323
G1 X62.4654
G3 X56.7285 Y77.4548 I-27.7967 J-13.3476
G1 Y136.6543
G3 X57.5778 Y137.5075 I-21.4248 J22.1764
G1 X92.5409
G1 X93.0378
G1 X95.9605
G3 X98.4358 Y135.1913 I22.2741 J21.3232
G3 X66.5713 Y104.3732 I-1.0292 J-30.8181
G3 X112.8243 Y77.669 I30.8353 J0.0
G3 X117.2054 Y128.0126 I-15.4176 J26.7041
G3 X133.6522 Y132.1266 I1.0292 J30.8181
G3 X140.5087 Y137.5075 I-15.4176 J26.7041
G1 X140.9025
G1 X141.3994
G1 X146.7604
G3 X147.6351 Y136.6298 I22.2741 J21.3232
G1 Y117.7481
G0 Z3.0
G0 X159.1259 Y50.8693
G0 Z1.0
G1 F300.0 Z-3.0
G3 F2500.0 X159.4881 Y50.6007 I17.6556 J23.4303
G3 X159.3256 Y50.4162 I23.0592 J-20.4716
G3 X159.1259 Y50.8693 I-28.3149 J-12.21
G1 F300.0 X158.0318 Y50.3765
G3 F2500.0 X145.8284 Y63.8711 I-27.021 J-12.1702
G3 X119.9189 Y65.6875 I-14.8176 J-25.6649
G3 X109.183 Y68.0576 I-10.7359 J-23.1299
G1 X61.6999
G3 X55.5285 Y76.9604 I-27.0312 J-12.1476
G1 Y137.1695
G3 X57.0593 Y138.7075 I-20.2248 J21.6612
G1 X92.5409
G1 X93.0378
G1 X96.479
G3 X102.8437 Y133.5054 I21.7556 J20.1232
G3 X67.7713 Y104.3732 I-5.4371 J-29.1323
G3 X112.2243 Y78.7083 I29.6353 J0.0
G3 X112.7975 Y129.6984 I-14.8176 J25.6649
G3 X133.0522 Y133.1658 I5.4371 J29.1323
G3 X139.9902 Y138.7075 I-14.8176 J25.6649
G1 X140.9025
G1 X141.3994
G1 X147.2789
G3 X148.8351 Y137.1458 I21.7556 J20.1232
G1 Y77.575
G3 X148.6438 Y74.2996 I27.9464 J-3.2754
G3 X161.3092 Y50.7977 I28.1377 J0.0
G3 X158.9575 Y48.0669 I21.2381 J-20.6687
G3 X158.0318 Y50.3765 I-27.9467 J-9.8607
G0 Z3.0
G0 X183.8239 Y17.3574
G0 Z1.0
G1 F300.0 Z-3.0
G3 F2500.0 X187.329 Y18.2177 I-1.2766 J12.7716
G1 X186.3736 Y16.1687
G1 X183.8239 Y17.3574
G0 Z3.0
G0 X183.2272 Y23.3277
G0 Z1.0
G1 F300.0 Z-3.0
G3 F2500.0 X185.965 Y24.2095 I-0.6798 J6.8014
G3 Y36.0486 I-3.4176 J5.9195
G3 X175.712 Y30.129 I-3.4176 J-5.9195
G3 X183.2272 Y23.3277 I6.8353 J0.0
G1 F300.0 X183.108 Y24.5193
G3 F2500.0 X185.3662 Y25.2467 I-0.5607 J5.6097
G3 Y35.0114 I-2.8188 J4.8824
G3 X176.9096 Y30.129 I-2.8188 J-4.8824
G3 X183.108 Y24.5193 I5.6377 J0.0
G0 Z3.0
G0 X183.3465 Y22.1336
G0 Z1.0
G1 F300.0 Z-3.0
G2 F2500.0 X174.512 Y30.129 I-0.7992 J7.9954
G2 X186.565 Y37.0878 I8.0353 J0.0
G2 Y23.1703 I-4.0176 J-6.9588
G2 X183.3465 Y22.1336 I-4.0176 J6.9588
G1 F300.0 X183.4659 Y20.9396
G2 F2500.0 X173.312 Y30.129 I-0.9185 J9.1895
G2 X187.165 Y38.127 I9.2353 J0.0
G2 Y22.1311 I-4.6176 J-7.998
G2 X183.4659 Y20.9396 I-4.6176 J7.998
G1 F300.0 X183.5852 Y19.7455
G2 F2500.0 X172.112 Y30.129 I-1.0379 J10.3835
G2 X187.765 Y39.1663 I10.4353 J0.0
G2 Y21.0918 I-5.2176 J-9.0372
G2 X183.5852 Y19.7455 I-5.2176 J9.0372
G0 Z3.0
G0 X102.2836 Y99.584
G0 Z1.0
G1 F300.0 Z-3.0
G3 F2500.0 X100.8243 Y110.2927 I-4.877 J4.7892
G3 X90.5713 Y104.3732 I-3.4176 J-5.9195
G3 X100.8243 Y98.4536 I6.8353 J0.0
G3 X102.2836 Y99.584 I-3.4176 J5.9195
G1 F300.0 X101.4291 Y100.4231
G3 F2500.0 X100.2255 Y109.2555 I-4.0225 J3.9501
G3 X91.7689 Y104.3732 I-2.8188 J-4.8824
G3 X100.2255 Y99.4908 I5.6377 J0.0
G3 X101.4291 Y100.4231 I-2.8188 J4.8824
G0 Z3.0
G0 X103.1398 Y98.7432
G0 Z1.0
G1 F300.0 Z-3.0
G2 F2500.0 X101.4243 Y97.4144 I-5.7332 J5.63
G2 X89.3713 Y104.3732 I-4.0176 J6.9588
G2 X101.4243 Y111.3319 I8.0353 J0.0
G2 X103.1398 Y98.7432 I-4.0176 J-6.9588
G1 F300.0 X103.996 Y97.9024
G2 F2500.0 X102.0243 Y96.3752 I-6.5894 J6.4708
G2 X88.1713 Y104.3732 I-4.6176 J7.998
G2 X102.0243 Y112.3712 I9.2353 J0.0
G2 X103.996 Y97.9024 I-4.6176 J-7.998
G1 F300.0 X104.8522 Y97.0616
G2 F2500.0 X102.6243 Y95.3359 I-7.4456 J7.3116
G2 X86.9713 Y104.3732 I-5.2176 J9.0372
G2 X102.6243 Y113.4104 I10.4353 J0.0
G2 X104.8522 Y97.0616 I-5.2176 J-9.0372
G1 F300.0 X105.7084 Y96.2208
G2 F2500.0 X103.2243 Y94.2967 I-8.3018 J8.1523
G2 X85.7713 Y104.3732 I-5.8176 J10.0765
G2 X103.2243 Y114.4496 I11.6353 J0.0
G2 X105.7084 Y96.2208 I-5.8176 J-10.0765
G1 F300.0 X106.5646 Y95.38
G2 F2500.0 X103.8243 Y93.2575 I-9.1579 J8.9931
G2 X84.5713 Y104.3732 I-6.4176 J11.1157
G2 X103.8243 Y115.4888 I12.8353 J0.0
G2 X106.5646 Y95.38 I-6.4176 J-11.1157
G1 F300.0 X107.4208 Y94.5392
G2 F2500.0 X104.4243 Y92.2183 I-10.0141 J9.8339
G2 X83.3713 Y104.3732 I-7.0176 J12.1549
G2 X104.4243 Y116.5281 I14.0353 J0.0
G2 X107.4208 Y94.5392 I-7.0176 J-12.1549
G1 F300.0 X108.277 Y93.6985
G2 F2500.0 X105.0243 Y91.179 I-10.8703 J10.6747
G2 X82.1713 Y104.3732 I-7.6176 J13.1941
G2 X105.0243 Y117.5673 I15.2353 J0.0
G2 X108.277 Y93.6985 I-7.6176 J-13.1941
G1 F300.0 X109.1332 Y92.8577
G2 F2500.0 X105.6243 Y90.1398 I-11.7265 J11.5155
G2 X80.9713 Y104.3732 I-8.2176 J14.2334
G2 X105.6243 Y118.6065 I16.4353 J0.0
G2 X109.1332 Y92.8577 I-8.2176 J-14.2334
G1 F300.0 X109.9894 Y92.0169
G2 F2500.0 X106.2243 Y89.1006 I-12.5827 J12.3563
G2 X79.7713 Y104.3732 I-8.8176 J15.2726
G2 X106.2243 Y119.6458 I17.6353 J0.0
G2 X109.9894 Y92.0169 I-8.8176 J-15.2726
G1 F300.0 X110.8456 Y91.1761
G2 F2500.0 X106.8243 Y88.0613 I-13.4389 J13.1971
G2 X78.5713 Y104.3732 I-9.4176 J16.3118
G2 X106.8243 Y120.685 I18.8353 J0.0
G2 X110.8456 Y91.1761 I-9.4176 J-16.3118
G1 F300.0 X111.7018 Y90.3353
G2 F2500.0 X107.4243 Y87.0221 I-14.2951 J14.0379
G2 X77.3713 Y104.3732 I-10.0176 J17.3511
G2 X107.4243 Y121.7242 I20.0353 J0.0
G2 X111.7018 Y90.3353 I-10.0176 J-17.3511
G1 F300.0 X112.5579 Y89.4945
G2 F2500.0 X108.0243 Y85.9829 I-15.1513 J14.8787
G2 X76.1713 Y104.3732 I-10.6176 J18.3903
G2 X108.0243 Y122.7635 I21.2353 J0.0
G2 X112.5579 Y89.4945 I-10.6176 J-18.3903
G1 F300.0 X113.4141 Y88.6537
G2 F2500.0 X108.6243 Y84.9436 I-16.0075 J15.7194
G2 X74.9713 Y104.3732 I-11.2176 J19.4295
G2 X108.6243 Y123.8027 I22.4353 J0.0
G2 X113.4141 Y88.6537 I-11.2176 J-19.4295
G1 F300.0 X114.2703 Y87.8129
G2 F2500.0 X109.2243 Y83.9044 I-16.8637 J16.5602
G2 X73.7713 Y104.3732 I-11.8176 J20.4688
G2 X109.2243 Y124.8419 I23.6353 J0.0
G2 X114.2703 Y87.8129 I-11.8176 J-20.4688
G1 F300.0 X115.1265 Y86.9721
G2 F2500.0 X109.8243 Y82.8652 I-17.7199 J17.401
G2 X72.5713 Y104.3732 I-12.4176 J21.508
G2 X109.8243 Y125.8812 I24.8353 J0.0
G2 X115.1265 Y86.9721 I-12.4176 J-21.508
G1 F300.0 X115.9827 Y86.1314
G2 F2500.0 X110.4243 Y81.8259 I-18.5761 J18.2418
G2 X71.3713 Y104.3732 I-13.0176 J22.5472
G2 X110.4243 Y126.9204 I26.0353 J0.0
G2 X115.9827 Y86.1314 I-13.0176 J-22.5472
G1 F300.0 X116.8389 Y85.2906
G2 F2500.0 X111.0243 Y80.7867 I-19.4323 J19.0826
G2 X70.1713 Y104.3732 I-13.6176 J23.5864
G2 X111.0243 Y127.9596 I27.2353 J0.0
G2 X116.8389 Y85.2906 I-13.6176 J-23.5864
G1 F300.0 X117.6951 Y84.4498
G2 F2500.0 X111.6243 Y79.7475 I-20.2885 J19.9234
G2 X68.9713 Y104.3732 I-14.2176 J24.6257
G2 X111.6243 Y128.9988 I28.4353 J0.0
G2 X117.6951 Y84.4498 I-14.2176 J-24.6257
G0 Z3.0
G0 X114.0217 Y66.371
G0 Z1.0
G1 F300.0 Z-3.0
G3 F2500.0 X109.183 Y66.8576 I-4.8387 J-23.8134
G1 X60.9121
G3 X54.3285 Y76.4541 I-26.2434 J-10.9476
G1 Y137.6973
G3 X56.5281 Y139.9075 I-19.0248 J21.1334
G1 X92.5409
G1 X93.0378
G1 X97.0101
G3 X132.4522 Y134.205 I21.2245 J18.9232
G3 X139.459 Y139.9075 I-14.2176 J24.6257
G1 X140.9025
G1 X141.3994
G1 X147.8101
G3 X150.0351 Y137.6744 I21.2245 J18.9232
G1 Y77.5041
G3 X149.8438 Y74.2996 I26.7464 J-3.2045
G3 X163.2455 Y51.0098 I26.9377 J0.0
G3 X159.038 Y46.1253 I19.3018 J-20.8807
G1 X158.2056 Y46.5134
G3 X145.2284 Y62.8319 I-27.1948 J-8.3072
G3 X119.8903 Y64.3768 I-14.2176 J-24.6257
G1 X119.4511 Y64.5816
G3 X114.0217 Y66.371 I-10.2681 J-22.024
G1 F300.0 X113.7827 Y65.195
G3 F2500.0 X109.183 Y65.6576 I-4.5997 J-22.6374
G1 X60.0999
G3 X53.1285 Y75.9349 I-25.4312 J-9.7476
G1 Y138.2385
G3 X55.9834 Y141.1075 I-17.8248 J20.5922
G1 X92.5409
G1 X93.0378
G1 X97.5549
G3 X131.8522 Y135.2443 I20.6797 J17.7232
G3 X138.9143 Y141.1075 I-13.6176 J23.5864
G1 X140.9025
G1 X141.3994
G1 X148.3549
G3 X151.2351 Y138.2166 I20.6797 J17.7232
G1 Y77.4317
G3 X151.0438 Y74.2996 I25.5464 J-3.1321
G3 X165.3438 Y51.243 I25.7377 J0.0
G3 X159.4735 Y44.5983 I17.2035 J-21.114
G1 X157.2078 Y45.6546
G3 X144.6284 Y61.7927 I-26.197 J-7.4483
G3 X119.874 Y63.0605 I-13.6176 J-23.5864
G1 X118.944 Y63.494
G3 X113.7827 Y65.195 I-9.761 J-20.9364
G1 F300.0 X113.5438 Y64.0191
G3 F2500.0 X109.183 Y64.4576 I-4.3608 J-21.4614
G1 X59.2608
G3 X51.9285 Y75.4019 I-24.5922 J-8.5476
G1 Y138.7944
G3 X55.4238 Y142.3075 I-16.6248 J20.0363
G1 X92.5409
G1 X93.0378
G1 X98.1145
G3 X131.2522 Y136.2835 I20.1201 J16.5232
G3 X138.3547 Y142.3075 I-13.0176 J22.5472
G1 X140.9025
G1 X141.3994
G1 X148.9144
G3 X152.4351 Y138.7734 I20.1201 J16.5232
G1 Y77.3575
G3 X152.2438 Y74.2996 I24.3464 J-3.0579
G3 X167.6895 Y51.5085 I24.5377 J0.0
G3 X159.9466 Y43.0537 I14.8578 J-21.3795
G1 X156.1967 Y44.8019
G3 X144.0284 Y60.7535 I-25.186 J-6.5957
G3 X119.8709 Y61.7379 I-13.0176 J-22.5472
G1 X118.4369 Y62.4064
G3 X113.5438 Y64.0191 I-9.254 J-19.8488
G1 F300.0 X113.3048 Y62.8431
G3 F2500.0 X109.183 Y63.2576 I-4.1219 J-20.2855
G1 X58.3922
G3 X50.7285 Y74.854 I-23.7235 J-7.3476
G1 Y139.3662
G3 X54.8483 Y143.5075 I-15.4248 J19.4645
G1 X92.5409
G1 X93.0378
G1 X98.69
G3 X130.6522 Y137.3227 I19.5446 J15.3232
G3 X137.7792 Y143.5075 I-12.4176 J21.508
G1 X140.9025
G1 X141.3994
G1 X149.49
G3 X153.6351 Y139.3461 I19.5446 J15.3232
G1 Y77.2815
G3 X153.4438 Y74.2996 I23.1464 J-2.9819
G3 X170.4719 Y51.831 I23.3377 J0.0
G3 X160.4625 Y41.4891 I12.0754 J-21.702
G1 X155.1713 Y43.956
G3 X143.4284 Y59.7142 I-24.1605 J-5.7498
G3 X119.8822 Y60.4086 I-12.4176 J-21.508
G1 X117.9299 Y61.3188
G3 X113.3048 Y62.8431 I-8.7469 J-18.7612
G1 F300.0 X113.0659 Y61.6671
G3 F2500.0 X109.183 Y62.0576 I-3.8829 J-19.1095
G1 X57.4905
G3 X49.5285 Y74.2897 I-22.8218 J-6.1476
G1 Y139.9553
G3 X54.2552 Y144.7075 I-14.2248 J18.8754
G1 X92.5409
G1 X93.0378
G1 X99.283
G3 X130.0522 Y138.3619 I18.9516 J14.1232
G3 X137.1862 Y144.7075 I-11.8176 J20.4688
G1 X140.9025
G1 X141.3994
G1 X150.083
G3 X154.8351 Y139.9362 I18.9516 J14.1232
G1 Y77.2035
G3 X154.6438 Y74.2996 I21.9464 J-2.9039
G3 X174.347 Y52.2962 I22.1377 J0.0
G3 X161.0271 Y39.9019 I8.2003 J-22.1671
G1 X154.1302 Y43.1174
G3 X142.8284 Y58.675 I-23.1194 J-4.9112
G3 X119.9092 Y59.072 I-11.8176 J-20.4688
G1 X117.4228 Y60.2312
G3 X113.0659 Y61.6671 I-8.2398 J-17.6736
G1 F300.0 X112.8269 Y60.4912
G3 F2500.0 X109.183 Y60.8576 I-3.644 J-17.9335
G1 X56.5516
G3 X48.3285 Y73.7075 I-21.8829 J-4.9476
G1 Y140.5633
G3 X53.6431 Y145.9075 I-13.0248 J18.2674
G1 X92.5409
G1 X93.0378
G1 X99.8952
G3 X129.4522 Y139.4012 I18.3394 J12.9232
G3 X136.574 Y145.9075 I-11.2176 J19.4295
G1 X140.9025
G1 X141.3994
G1 X150.6952
G3 X156.0351 Y140.5453 I18.3394 J12.9232
G1 Y77.1234
G3 X155.8438 Y74.2996 I20.7464 J-2.8238
G3 X176.7815 Y53.3619 I20.9377 J0.0
G3 X180.7189 Y53.7355 I0.0 J20.9377
G1 X183.2544 Y52.5532
G3 X161.6483 Y38.2883 I-0.7071 J-22.4241
G1 X153.0718 Y42.2868
G3 X142.2284 Y57.6358 I-22.0611 J-4.0806
G3 X119.9534 Y57.7274 I-11.2176 J-19.4295
G1 X116.9157 Y59.1436
G3 X112.8269 Y60.4912 I-7.7328 J-16.586
G1 F300.0 X112.588 Y59.3152
G3 F2500.0 X109.183 Y59.6576 I-3.405 J-16.7576
G1 X55.5707
G3 X47.1285 Y73.1057 I-20.902 J-3.7476
G1 Y141.1924
G3 X53.0097 Y147.1075 I-11.8248 J17.6383
G1 X92.5409
G1 X93.0378
G1 X100.5286
G3 X128.8522 Y140.4404 I17.706 J11.7232
G3 X135.9406 Y147.1075 I-10.6176 J18.3903
G1 X140.9025
G1 X141.3994
G1 X151.3285
G3 X157.2351 Y141.1754 I17.706 J11.7232
G1 Y77.0409
G3 X157.0438 Y74.2996 I19.5464 J-2.7413
G3 X176.7815 Y54.5619 I19.7377 J0.0
G3 X180.8686 Y54.9897 I0.0 J19.7377
G1 X192.6465 Y49.4977
G1 X192.3892 Y48.9459
G3 X162.336 Y36.6436 I-9.8419 J-18.8169
G1 X151.9945 Y41.4651
G3 X141.6284 Y56.5965 I-20.9837 J-3.2588
G3 X120.0166 Y56.3739 I-10.6176 J-18.3903
G1 X116.4087 Y58.056
G3 X112.588 Y59.3152 I-7.2257 J-15.4984
G1 F300.0 X112.349 Y58.1392
G3 F2500.0 X109.183 Y58.4576 I-3.1661 J-15.5816
G1 X54.5413
G3 X45.9285 Y72.482 I-19.8727 J-2.5476
G1 Y141.8446
G3 X52.3529 Y148.3075 I-10.6248 J16.9861
G1 X92.5409
G1 X93.0378
G1 X101.1854
G3 X128.2522 Y141.4796 I17.0492 J10.5232
G3 X135.2838 Y148.3075 I-10.0176 J17.3511
G1 X140.9025
G1 X141.3994
G1 X151.9853
G3 X158.4351 Y141.8288 I17.0492 J10.5232
G1 Y76.9558
G3 X158.2438 Y74.2996 I18.3464 J-2.6562
G3 X176.7815 Y55.7619 I18.5377 J0.0
G3 X181.006 Y56.2497 I0.0 J18.5377
G1 X194.2412 Y50.0781
G1 X192.9293 Y47.2646
G3 X192.565 Y47.4801 I-10.3819 J-17.1356
G3 X163.1036 Y34.9617 I-10.0176 J-17.3511
G1 X150.8961 Y40.6532
G3 X141.0284 Y55.5573 I-19.8853 J-2.4469
G3 X120.1009 Y55.0106 I-10.0176 J-17.3511
G1 X115.9016 Y56.9684
G3 X112.349 Y58.1392 I-6.7186 J-14.4108
G1 F300.0 X112.1101 Y56.9633
G3 F2500.0 X109.183 Y57.2576 I-2.9271 J-14.4056
G1 X53.4557
G3 X44.7285 Y71.8338 I-18.787 J-1.3476
G1 Y142.523
G3 X51.6697 Y149.5075 I-9.4248 J16.3077
G1 X92.5409
G1 X93.0378
G1 X101.8686
G3 X127.6522 Y142.5189 I16.366 J9.3232
G3 X134.6006 Y149.5075 I-9.4176 J16.3118
G1 X140.9025
G1 X141.3994
G1 X152.6685
G3 X159.6351 Y142.5084 I16.366 J9.3232
G1 Y76.8679
G3 X159.4438 Y74.2996 I17.1464 J-2.5683
G3 X176.7815 Y56.9619 I17.3377 J0.0
G3 X181.1298 Y57.516 I0.0 J17.3377
G1 X195.8359 Y50.6585
G1 X193.4311 Y45.5014
G3 X191.965 Y46.4409 I-10.8838 J-15.3724
G3 X163.9697 Y33.2339 I-9.4176 J-16.3118
G1 X149.774 Y39.8523
G3 X140.4284 Y54.5181 I-18.7632 J-1.6461
G3 X120.2088 Y53.6363 I-9.4176 J-16.3118
G1 X115.3945 Y55.8808
G3 X112.1101 Y56.9633 I-6.2116 J-13.3232
G1 F300.0 X111.8711 Y55.7873
G3 F2500.0 X109.183 Y56.0576 I-2.6882 J-13.2297
G1 X52.3033
G3 X43.5285 Y71.1582 I-17.6347 J-0.1476
G1 Y143.2308
G3 X44.1213 Y143.5581 I-8.2248 J15.5999
G3 X50.9567 Y150.7075 I-8.8176 J15.2726
G1 X92.5409
G1 X93.0378
G1 X102.5816
G3 X127.0522 Y143.5581 I15.653 J8.1232
G3 X133.8876 Y150.7075 I-8.8176 J15.2726
G1 X140.9025
G1 X141.3994
G1 X153.3815
G3 X160.8351 Y143.2175 I15.653 J8.1232
G1 Y76.7769
G3 X160.6438 Y74.2996 I15.9464 J-2.4774
G3 X176.7815 Y58.1619 I16.1377 J0.0
G3 X181.2382 Y58.7895 I0.0 J16.1377
G1 X197.4306 Y51.239
G1 X193.8855 Y43.6364
G3 X191.365 Y45.4016 I-11.3382 J-13.5073
G3 X164.9614 Y31.4476 I-8.8176 J-15.2726
G1 X148.6252 Y39.0639
G3 X139.8284 Y53.4788 I-17.6144 J-0.8577
G3 X120.3435 Y52.2495 I-8.8176 J-15.2726
G1 X114.8875 Y54.7932
G3 X111.8711 Y55.7873 I-5.7045 J-12.2356
G1 F300.0 X111.6322 Y54.6113
G3 F2500.0 X109.183 Y54.8576 I-2.4492 J-12.0537
G1 X51.0702
G3 X42.8863 Y70.1434 I-16.4016 J1.0524
G3 X42.3285 Y70.4512 I-8.2176 J-14.2334
G1 Y143.9724
G3 X43.5213 Y144.5973 I-7.0248 J14.8584
G3 X50.2096 Y151.9075 I-8.2176 J14.2334
G1 X92.5409
G1 X93.0378
G1 X103.3286
G3 X126.4522 Y144.5973 I14.906 J6.9232
G3 X133.1406 Y151.9075 I-8.2176 J14.2334
G1 X140.9025
G1 X141.3994
G1 X154.1286
G3 X162.0351 Y143.9604 I14.906 J6.9232
G1 Y76.6825
G3 X161.8438 Y74.2996 I14.7464 J-2.3829
G3 X176.7815 Y59.3619 I14.9377 J0.0
G3 X181.3294 Y60.0711 I0.0 J14.9377
G1 X199.0253 Y51.8194
G1 X194.2786 Y41.6398
G3 X190.765 Y44.3624 I-11.7312 J-11.5107
G3 X166.112 Y30.129 I-8.2176 J-14.2334
G3 X166.1211 Y29.5829 I16.4353 J0.0
G1 X147.4458 Y38.2897
G3 X139.2284 Y52.4396 I-16.4351 J-0.0835
G3 X120.5087 Y50.8484 I-8.2176 J-14.2334
G1 X114.3804 Y53.7056
G3 X111.6322 Y54.6113 I-5.1974 J-11.1479
G1 F300.0 X111.3932 Y53.4353
G3 F2500.0 X109.183 Y53.6576 I-2.2103 J-10.8777
G1 X49.7366
G3 X42.2863 Y69.1042 I-15.0679 J2.2524
G3 X41.1285 Y69.708 I-7.6176 J-13.1941
G1 Y144.7529
G3 X42.9213 Y145.6366 I-5.8248 J14.0778
G3 X49.4231 Y153.1075 I-7.6176 J13.1941
G1 X92.5409
G1 X93.0378
G1 X104.1151
G3 X125.8522 Y145.6366 I14.1194 J5.7232
G3 X132.354 Y153.1075 I-7.6176 J13.1941
G1 X140.9025
G1 X141.3994
G1 X154.9151
G3 X163.2351 Y144.7424 I14.1194 J5.7232
G1 Y76.5841
G3 X163.0438 Y74.2996 I13.5464 J-2.2845
G3 X176.7815 Y60.5619 I13.7377 J0.0
G3 X181.4008 Y61.3618 I0.0 J13.7377
G1 X200.62 Y52.3998
G1 X194.5879 Y39.4638
G3 X190.165 Y43.3232 I-12.0406 J-9.3347
G3 X167.312 Y30.129 I-7.6176 J-13.1941
G3 X167.5225 Y27.6055 I15.2353 J0.0
G1 X146.2311 Y37.532
G3 X138.6284 Y51.4004 I-15.2204 J0.6742
G3 X120.7093 Y49.4309 I-7.6176 J-13.1941
G1 X113.8733 Y52.618
G3 X111.3932 Y53.4353 I-4.6904 J-10.0603
G1 F300.0 X111.1543 Y52.2594
G3 F2500.0 X109.183 Y52.4576 I-1.9713 J-9.7017
G1 X48.2727
G3 X41.6863 Y68.0649 I-13.6041 J3.4524
G3 X39.9285 Y68.9225 I-7.0176 J-12.1549
G1 Y145.5793
G3 X42.3213 Y146.6758 I-4.6248 J13.2514
G3 X48.5901 Y154.3075 I-7.0176 J12.1549
G1 X92.5409
G1 X93.0378
G1 X104.544
G1 X104.9481
G3 X125.2522 Y146.6758 I13.2865 J4.5232
G3 X131.521 Y154.3075 I-7.0176 J12.1549
G1 X140.9025
G1 X141.3994
G1 X155.7481
G3 X164.4351 Y145.5704 I13.2865 J4.5232
G1 Y76.4813
G3 X164.2438 Y74.2996 I12.3464 J-2.1817
G3 X176.7815 Y61.7619 I12.5377 J0.0
G3 X181.4494 Y62.6632 I0.0 J12.5377
G1 X202.2147 Y52.9803
G1 X194.7734 Y37.022
G3 X189.565 Y42.284 I-12.2261 J-6.8929
G3 X168.512 Y30.129 I-7.0176 J-12.1549
G3 X169.3167 Y25.445 I14.0353 J0.0
G1 X144.9748 Y36.7938
G3 X138.0284 Y50.3611 I-13.964 J1.4125
G3 X120.9515 Y47.994 I-7.0176 J-12.1549
G1 X113.3663 Y51.5304
G3 X111.1543 Y52.2594 I-4.1833 J-8.9727
G1 F300.0 X110.9153 Y51.0834
G3 F2500.0 X109.183 Y51.2576 I-1.7324 J-8.5258
G1 X46.6311
G3 X41.0863 Y67.0257 I-11.9624 J4.6524
G3 X38.7285 Y68.0863 I-6.4176 J-11.1157
G1 Y146.4608
G3 X41.7213 Y147.715 I-3.4248 J12.3699
G3 X47.7013 Y155.5075 I-6.4176 J11.1157
G1 X92.5409
G1 X93.0378
G1 X104.544
G1 X105.0409
G1 X105.837
G3 X124.6522 Y147.715 I12.3976 J3.3232
G3 X130.6322 Y155.5075 I-6.4176 J11.1157
G1 X140.9025
G1 X141.3994
G1 X156.6369
G3 X165.6351 Y146.4538 I12.3976 J3.3232
G1 Y76.3735
G3 X165.4438 Y74.2996 I11.1464 J-2.0739
G3 X176.7815 Y62.9619 I11.3377 J0.0
G3 X181.471 Y63.9772 I0.0 J11.3377
G1 X203.8094 Y53.5607
G1 X194.7455 Y34.1227
G3 X188.965 Y41.2447 I-12.1982 J-3.9936
G3 X169.712 Y30.129 I-6.4176 J-11.1157
G3 X171.9441 Y22.8961 I12.8353 J0.0
G1 X143.6685 Y36.0788
G3 X137.4284 Y49.3219 I-12.6577 J2.1275
G3 X121.2436 Y46.5338 I-6.4176 J-11.1157
G1 X112.8592 Y50.4428
G3 X110.9153 Y51.0834 I-3.6762 J-7.8851
G1 F300.0 X110.6764 Y49.9074
G3 F2500.0 X109.183 Y50.0576 I-1.4934 J-7.3498
G1 X44.725
G3 X40.4863 Y65.9865 I-10.0563 J5.8524
G3 X37.5285 Y67.1884 I-5.8176 J-10.0765
G1 Y147.4101
G3 X41.1213 Y148.7543 I-2.2248 J11.4206
G3 X46.7436 Y156.7075 I-5.8176 J10.0765
G1 X92.5409
G1 X93.0378
G1 X104.544
G1 X105.0409
G1 X106.7947
G3 X124.0522 Y148.7543 I11.4399 J2.1232
G3 X129.6745 Y156.7075 I-5.8176 J10.0765
G1 X140.9025
G1 X141.3994
G1 X157.5946
G3 X166.8351 Y147.4052 I11.4399 J2.1232
G1 Y76.2597
G3 X166.6438 Y74.2996 I9.9464 J-1.9601
G3 X176.7815 Y64.1619 I10.1377 J0.0
G3 X181.4604 Y65.3062 I0.0 J10.1377
G1 X205.4041 Y54.1411
G1 X194.1825 Y30.0758
G3 X188.365 Y40.2055 I-11.6352 J0.0532
G3 X170.912 Y30.129 I-5.8176 J-10.0765
G3 X188.365 Y20.0526 I11.6353 J0.0
G3 X190.0672 Y21.2503 I-5.8176 J10.0765
G1 X186.954 Y14.5741
G1 X142.3007 Y35.3925
G3 X136.8284 Y48.2827 I-11.2899 J2.8138
G3 X121.5973 Y45.0448 I-5.8176 J-10.0765
G1 X112.3521 Y49.3552
G3 X110.6764 Y49.9074 I-3.1692 J-6.7975
G1 F300.0 X110.4374 Y48.7315
G3 F2500.0 X109.183 Y48.8576 I-1.2545 J-6.1738
G1 X42.4559
G1 X42.4058 Y48.9077
G3 X39.8863 Y64.9472 I-7.7371 J7.0023
G3 X36.3285 Y66.2125 I-5.2176 J-9.0372
G1 Y148.4459
G3 X40.5213 Y149.7935 I-1.0248 J10.3848
G3 X45.698 Y157.9075 I-5.2176 J9.0372
G1 X92.5409
G1 X93.0378
G1 X104.544
G1 X105.0409
G1 X107.8402
G3 X123.4522 Y149.7935 I10.3944 J0.9232
G3 X128.629 Y157.9075 I-5.2176 J9.0372
G1 X140.9025
G1 X141.3994
G1 X158.5697
G1 X158.6402
G3 X168.0351 Y148.4434 I10.3944 J0.9232
G1 Y76.1388
G3 X167.8438 Y74.2996 I8.7464 J-1.8392
G3 X176.7815 Y65.3619 I8.9377 J0.0
G3 X181.41 Y66.6537 I0.0 J8.9377
G1 X206.9988 Y54.7216
G1 X187.5345 Y12.9794
G1 X140.8545 Y34.7427
G3 X136.2284 Y47.2435 I-9.8437 J3.4635
G3 X122.0294 Y43.5194 I-5.2176 J-9.0372
G1 X111.8451 Y48.2676
G3 X110.4374 Y48.7315 I-2.6621 J-5.7099
G1 F300.0 X110.1985 Y47.5555
G3 F2500.0 X109.183 Y47.6576 I-1.0155 J-4.9979
G1 X41.9589
G1 X40.7002 Y48.9163
G3 X39.2863 Y63.908 I-6.0315 J6.9937
G3 X35.1285 Y65.1338 I-4.6176 J-7.998
G1 Y149.5971
G3 X39.9213 Y150.8327 I0.1752 J9.2336
G3 X44.5348 Y159.1075 I-4.6176 J7.998
G1 X92.5409
G1 X93.0378
G1 X104.544
G1 X105.0409
G1 X109.0035
G3 X108.9993 Y158.8307 I9.2311 J-0.2768
G3 X122.8522 Y150.8327 I9.2353 J0.0
G3 X127.4657 Y159.1075 I-4.6176 J7.998
G1 X140.9025
G1 X141.3994
G1 X158.5697
G1 X159.0667
G1 X159.8034
G3 X159.7993 Y158.8307 I9.2311 J-0.2768
G3 X169.2351 Y149.5976 I9.2353 J0.0
G1 Y76.0095
G3 X169.0438 Y74.2996 I7.5464 J-1.7099
G3 X176.7815 Y66.5619 I7.7377 J0.0
G3 X181.3091 Y68.0248 I0.0 J7.7377
G1 X208.1581 Y55.5051
G1 X208.3906 Y54.8668
G1 X188.3177 Y11.8195
G1 X187.6799 Y11.5876
G1 X139.3036 Y34.1418
G3 X135.6284 Y46.2042 I-8.2928 J4.0645
G3 X122.5662 Y41.9451 I-4.6176 J-7.998
G1 X111.338 Y47.18
G3 X110.1985 Y47.5555 I-2.155 J-4.6223
G1 F300.0 X109.9596 Y46.3795
G3 F2500.0 X109.183 Y46.4576 I-0.7766 J-3.8219
G1 X41.4618
G1 X38.8631 Y49.0563
G3 X38.6863 Y62.8688 I-4.1944 J6.8537
G3 X33.9285 Y63.9111 I-4.0176 J-6.9588
G1 Y150.914
G3 X39.3213 Y151.8719 I1.3752 J7.9167
G3 X43.2021 Y160.3075 I-4.0176 J6.9588
G1 X92.5409
G1 X93.0378
G1 X104.544
G1 X105.0409
G1 X110.3362
G3 X110.1993 Y158.8307 I7.8984 J-1.4768
G3 X122.2522 Y151.8719 I8.0353 J0.0
G3 X126.133 Y160.3075 I-4.0176 J6.9588
G1 X140.9025
G1 X141.3994
G1 X158.5697
G1 X159.0667
G1 X161.1361
G3 X160.9993 Y158.8307 I7.8984 J-1.4768
G3 X170.4351 Y150.9184 I8.0353 J0.0
G1 Y75.8695
G3 X170.2438 Y74.2996 I6.3464 J-1.5699
G3 X176.7815 Y67.7619 I6.5377 J0.0
G3 X181.1408 Y69.4274 I0.0 J6.5377
G1 X209.1156 Y56.3826
G1 X209.6883 Y54.8103
G1 X189.1951 Y10.8617
G1 X187.6231 Y10.2901
G1 X137.6023 Y33.6109
G3 X135.0284 Y45.165 I-6.5916 J4.5953
G3 X123.2533 Y40.3008 I-4.0176 J-6.9588
G1 X110.8309 Y46.0923
G3 X109.9596 Y46.3795 I-1.648 J-3.5347
G1 F300.0 X109.7206 Y45.2036
G3 F2500.0 X109.183 Y45.2576 I-0.5376 J-2.6459
G1 X40.9647
G1 X36.8052 Y49.4172
G3 X38.0863 Y49.9905 I-2.1365 J6.4928
G3 Y61.8295 I-3.4176 J5.9195
G3 X32.7285 Y62.4642 I-3.4176 J-5.9195
G1 Y152.4991
G3 X38.7213 Y152.9112 I2.5752 J6.3316
G3 X41.593 Y161.5075 I-3.4176 J5.9195
G1 X92.5409
G1 X93.0378
G1 X104.544
G1 X105.0409
G1 X111.9452
G3 X111.3993 Y158.8307 I6.2893 J-2.6768
G3 X121.6522 Y152.9112 I6.8353 J0.0
G3 X124.5239 Y161.5075 I-3.4176 J5.9195
G1 X140.9025
G1 X141.3994
G1 X158.5697
G1 X159.0667
G1 X162.7452
G3 X162.1993 Y158.8307 I6.2893 J-2.6768
G3 X171.6351 Y152.5095 I6.8353 J0.0
G1 Y75.7157
G3 X171.4438 Y74.2996 I5.1464 J-1.4161
G3 X176.7815 Y68.9619 I5.3377 J0.0
G3 X180.8758 Y70.875 I0.0 J5.3377
G1 X210.073 Y57.2602
G1 X210.986 Y54.7538
G1 X190.0725 Y9.9039
G1 X187.5663 Y8.9926
G1 X135.6577 Y33.1935
G3 X134.4284 Y44.1258 I-4.6469 J5.0127
G3 X124.1838 Y38.5429 I-3.4176 J-5.9195
G1 X110.3239 Y45.0047
G3 X109.7206 Y45.2036 I-1.1409 J-2.4471
G1 F300.0 X109.4817 Y44.0276
G3 F2500.0 X109.183 Y44.0576 I-0.2987 J-1.47
G1 X40.4677
G1 X34.2364 Y50.2889
G3 X37.4875 Y51.0276 I0.4323 J5.6211
G3 Y60.7924 I-2.8188 J4.8824
G3 X31.5285 Y60.5922 I-2.8188 J-4.8824
G1 Y154.6437
G3 X38.1225 Y153.9483 I3.7752 J4.187
G3 X39.3968 Y162.7075 I-2.8188 J4.8824
G1 X92.5409
G1 X93.0378
G1 X104.544
G1 X105.0409
G1 X114.1414
G3 X112.5969 Y158.8307 I4.0932 J-3.8768
G3 X121.0534 Y153.9483 I5.6377 J0.0
G3 X122.3277 Y162.7075 I-2.8188 J4.8824
G1 X140.9025
G1 X141.3994
G1 X158.5697
G1 X159.0667
G1 X164.9414
G3 X163.3969 Y158.8307 I4.0932 J-3.8768
G3 X171.8534 Y153.9483 I5.6377 J0.0
G3 X172.8351 Y154.6667 I-2.8188 J4.8824
G1 Y75.5431
G3 X172.6438 Y74.2996 I3.9464 J-1.2435
G3 X176.7815 Y70.1619 I4.1377 J0.0
G3 X180.4549 Y72.3953 I0.0 J4.1377
G1 X211.0305 Y58.1378
G1 X212.2837 Y54.6973
G1 X190.95 Y8.9461
G1 X187.5095 Y7.695
G1 X133.2049 Y33.0131
G3 X133.8296 Y33.3239 I-2.1942 J5.1932
G3 Y43.0886 I-2.8188 J4.8824
G3 X125.3731 Y38.2062 I-2.8188 J-4.8824
G3 X125.6224 Y36.5482 I5.6377 J0.0
G1 X109.8168 Y43.9171
G3 X109.4817 Y44.0276 I-0.6338 J-1.3595
G0 Z3.0
G0 X134.3399 Y81.5137
G0 Z-2.0
G1 F300.0 Z-6.0
G3 F2500.0 X135.0351 Y82.6771 I-36.9333 J22.8594
G1 Y81.4547
G3 X134.3399 Y81.5137 I-4.0244 J-43.2485
G1 F300.0 X134.294 Y80.9155
G3 F2500.0 X133.2906 Y80.9808 I-3.2832 J-42.7093
G3 X135.6351 Y85.0485 I-35.884 J23.3924
G1 Y80.7912
G3 X134.294 Y80.9155 I-4.6244 J-42.5849
G1 F300.0 X134.202 Y79.719
G3 F2500.0 X131.0473 Y79.8415 I-3.1912 J-41.5128
G3 X136.8351 Y90.9982 I-33.6407 J24.5317
G1 Y79.4321
G3 X134.202 Y79.719 I-5.8244 J-41.2259
G0 Z3.0
G0 X136.8351 Y117.7481
G0 Z-2.0
G1 F300.0 Z-6.0
G3 F2500.0 X135.5853 Y120.983 I-39.4285 J-13.3749
G3 X136.8351 Y121.5813 I-17.3507 J37.8477
G1 Y117.7481
G1 F300.0 X138.0351
G1 F2500.0 Y78.1545
G3 X138.0228 Y78.0289 I38.7464 J-3.8549
G3 X128.5351 Y78.5657 I-7.0121 J-39.8226
G3 X133.9924 Y121.5922 I-31.1285 J25.8075
G3 X138.0351 Y123.5752 I-15.7578 J37.2385
G1 Y117.7481
G1 F300.0 X139.2351
G1 F2500.0 Y78.0944
G3 X139.1138 Y76.5957 I37.5464 J-3.7948
G3 X125.5773 Y77.0635 I-8.103 J-38.3894
G3 X132.3472 Y122.2214 I-28.1707 J27.3097
G3 X137.8522 Y124.852 I-14.1127 J36.6093
G3 X139.2351 Y125.6888 I-19.6176 J33.9788
G1 Y117.7481
G1 F300.0 X140.4351
G1 F2500.0 Y78.0335
G3 X140.2526 Y75.1016 I36.3464 J-3.7339
G3 X121.6608 Y75.0744 I-9.2419 J-36.8954
G3 X130.6387 Y122.8749 I-24.2542 J29.2988
G3 X137.2522 Y125.8912 I-12.4041 J35.9558
G3 X140.4351 Y127.9467 I-19.0176 J32.9395
G1 Y117.7481
G1 F300.0 X141.6351
G1 F2500.0 Y77.9715
G3 X141.4438 Y74.2996 I35.1464 J-3.6719
G3 X141.4522 Y73.5307 I35.3377 J0.0
G3 X120.0894 Y73.3852 I-10.4414 J-35.3244
G3 X118.2225 Y73.9834 I-10.9064 J-30.8276
G3 X128.8512 Y123.5585 I-20.8158 J30.3898
G3 X136.6522 Y126.9304 I-10.6166 J35.2722
G3 X141.6351 Y130.3833 I-18.4176 J31.9003
G1 Y117.7481
G1 F300.0 X142.8351
G1 F2500.0 Y77.9084
G3 X142.6438 Y74.2996 I33.9464 J-3.6088
G3 X142.7312 Y71.859 I34.1377 J0.0
G3 X120.0642 Y72.1186 I-11.7204 J-33.6527
G3 X115.1734 Y73.4828 I-10.8812 J-29.5609
G3 X115.2243 Y73.5121 I-17.7668 J30.8904
G3 X126.9626 Y124.2808 I-17.8176 J30.8611
G3 X136.0522 Y127.9696 I-8.728 J34.5499
G3 X142.472 Y132.7075 I-17.8176 J30.8611
G1 X142.8351
G1 Y117.7481
G1 F300.0 X144.0351
G1 F2500.0 Y77.8442
G3 X143.8438 Y74.2996 I32.7464 J-3.5446
G3 X144.1193 Y70.0489 I32.9377 J0.0
G3 X120.038 Y70.8465 I-13.1085 J-31.8427
G3 X111.1388 Y72.7944 I-10.855 J-28.2889
G3 X114.6243 Y74.5513 I-13.7322 J31.5787
G3 X124.9397 Y125.0545 I-17.2176 J29.8218
G3 X135.4522 Y129.0089 I-6.7051 J33.7762
G3 X141.9964 Y133.9075 I-17.2176 J29.8218
G1 X144.0351
G1 Y117.7481
G1 F300.0 X145.2351
G1 F2500.0 Y77.7789
G3 X145.0438 Y74.2996 I31.5464 J-3.4793
G3 X145.6683 Y68.0348 I31.7377 J0.0
G3 X120.0105 Y69.5683 I-14.6575 J-29.8285
G3 X109.183 Y71.6576 I-10.8275 J-27.0106
G1 X103.2614
G3 X114.0243 Y75.5906 I-5.8547 J32.7155
G3 X122.7277 Y125.9005 I-16.6176 J28.7826
G3 X134.8522 Y130.0481 I-4.4931 J32.9302
G3 X141.5111 Y135.1075 I-16.6176 J28.7826
G1 X145.2351
G1 Y117.7481
G0 Z3.0
G0 X159.1259 Y50.8693
G0 Z-2.0
G1 F300.0 Z-6.0
G3 F2500.0 X159.4881 Y50.6007 I17.6556 J23.4303
G3 X159.3256 Y50.4162 I23.0592 J-20.4716
G3 X159.1259 Y50.8693 I-28.3149 J-12.21
G0 Z3.0
G0 X183.8239 Y17.3574
G0 Z-2.0
G1 F300.0 Z-6.0
G3 F2500.0 X187.329 Y18.2177 I-1.2766 J12.7716
G1 X186.3736 Y16.1687
G1 X183.8239 Y17.3574
G0 Z3.0
G0 X68.6718 Y77.6576
G0 Z-2.0
G1 F300.0 Z-6.0
G1 F2500.0 X67.3252
G3 X65.1285 Y80.6407 I-32.6565 J-21.7476
G1 Y82.0678
G3 X68.6718 Y77.6576 I32.2781 J22.3054
G1 F300.0 X69.5507 Y78.4747
G3 F2500.0 X71.5724 Y76.4576 I27.8559 J25.8984
G1 X66.6762
G3 X63.9285 Y80.2112 I-32.0075 J-20.5476
G1 Y86.3205
G3 X69.5507 Y78.4747 I33.4781 J18.0526
G1 F300.0 X70.4295 Y79.2918
G3 F2500.0 X74.8428 Y75.2576 I26.9771 J25.0814
G1 X66.0137
G3 X62.7285 Y79.7739 I-31.345 J-19.3476
G1 Y91.9528
G3 X70.4295 Y79.2918 I34.6781 J12.4204
G0 Z3.0
G0 X65.1285 Y126.6785
G0 Z-2.0
G1 F300.0 Z-6.0
G1 F2500.0 Y129.1075
G1 X66.9498
G3 X65.1285 Y126.6785 I30.4569 J-24.7343
G1 F300.0 X66.1157 Y125.9963
G3 F2500.0 X63.9285 Y122.4258 I31.2909 J-21.6232
G1 Y130.3075
G1 X69.5841
G3 X66.1157 Y125.9963 I27.8225 J-25.9343
G1 F300.0 X67.1029 Y125.3141
G3 F2500.0 X62.7285 Y116.7935 I30.3037 J-20.941
G1 Y131.5075
G1 X72.4955
G3 X67.1029 Y125.3141 I24.9112 J-27.1343
G1 F300.0 X68.0901 Y124.6319
G3 F2500.0 X61.7713 Y104.3732 I29.3165 J-20.2588
G3 X78.6758 Y74.0576 I35.6353 J0.0
G1 X65.3369
G3 X61.5285 Y79.3285 I-30.6682 J-18.1476
G1 Y132.7075
G1 X75.7955
G3 X68.0901 Y124.6319 I21.6111 J-28.3343
G1 F300.0 X69.0774 Y123.9497
G3 F2500.0 X62.9713 Y104.3732 I28.3293 J-19.5766
G3 X83.53 Y72.8576 I34.4353 J0.0
G1 X64.6448
G3 X60.3285 Y78.8744 I-29.9761 J-16.9476
G1 Y133.9075
G1 X79.7003
G3 X69.0774 Y123.9497 I17.7063 J-29.5343
G1 F300.0 X70.0646 Y123.2675
G3 F2500.0 X64.1713 Y104.3732 I27.342 J-18.8944
G3 X91.5519 Y71.6576 I33.2353 J0.0
G1 X63.9364
G3 X59.1285 Y78.4112 I-29.2677 J-15.7476
G1 Y135.1075
G1 X84.7581
G3 X70.0646 Y123.2675 I12.6485 J-30.7343
G1 F300.0 X71.0518 Y122.5853
G3 F2500.0 X65.3713 Y104.3732 I26.3548 J-18.2122
G3 X113.4243 Y76.6298 I32.0353 J0.0
G3 X120.2259 Y126.8574 I-16.0176 J27.7434
G3 X134.2522 Y131.0873 I-1.9913 J31.9733
G3 X141.0154 Y136.3075 I-16.0176 J27.7434
G1 X141.3994
G1 X146.2537
G3 X146.4351 Y136.1255 I22.7808 J22.5232
G1 Y77.7123
G3 X146.2438 Y74.2996 I30.3464 J-3.4127
G3 X147.4854 Y65.6807 I30.5377 J0.0
G3 X147.0284 Y65.9496 I-16.4746 J-27.4745
G3 X119.9816 Y68.2831 I-16.0176 J-27.7434
G3 X109.183 Y70.4576 I-10.7986 J-25.7255
G1 X63.2103
G3 X57.9285 Y77.9382 I-28.5417 J-14.5476
G1 Y136.1508
G3 X58.0845 Y136.3075 I-22.6248 J22.6799
G1 X92.5409
G1 X93.0378
G1 X94.8654
G3 X71.0518 Y122.5853 I2.5412 J-31.9343
G1 F300.0 X72.039 Y121.9031
G3 F2500.0 X66.5713 Y104.3732 I25.3676 J-17.53
G3 X112.8243 Y77.669 I30.8353 J0.0
G3 X117.2054 Y128.0126 I-15.4176 J26.7041
G3 X133.6522 Y132.1266 I1.0292 J30.8181
G3 X140.5087 Y137.5075 I-15.4176 J26.7041
G1 X140.9025
G1 X141.3994
G1 X146.7604
G3 X147.6351 Y136.6298 I22.2741 J21.3232
G1 Y77.6443
G3 X147.4438 Y74.2996 I29.1464 J-3.3447
G3 X149.8803 Y62.5938 I29.3377 J0.0
G3 X146.4284 Y64.9104 I-18.8695 J-24.3876
G3 X119.9512 Y66.9899 I-15.4176 J-26.7041
G3 X109.183 Y69.2576 I-10.7682 J-24.4323
G1 X62.4654
G3 X56.7285 Y77.4548 I-27.7967 J-13.3476
G1 Y136.6543
G3 X57.5778 Y137.5075 I-21.4248 J22.1764
G1 X92.5409
G1 X93.0378
G1 X95.9605
G3 X98.4358 Y135.1913 I22.2741 J21.3232
G3 X72.039 Y121.9031 I-1.0292 J-30.8181
G1 F300.0 X73.0262 Y121.2209
G3 F2500.0 X67.7713 Y104.3732 I24.3804 J-16.8478
G3 X112.2243 Y78.7083 I29.6353 J0.0
G3 X112.7975 Y129.6984 I-14.8176 J25.6649
G3 X133.0522 Y133.1658 I5.4371 J29.1323
G3 X139.9902 Y138.7075 I-14.8176 J25.6649
G1 X140.9025
G1 X141.3994
G1 X147.2789
G3 X148.8351 Y137.1458 I21.7556 J20.1232
G1 Y77.575
G3 X148.6438 Y74.2996 I27.9464 J-3.2754
G3 X161.3092 Y50.7977 I28.1377 J0.0
G3 X158.9575 Y48.0669 I21.2381 J-20.6687
G3 X145.8284 Y63.8711 I-27.9467 J-9.8607
G3 X119.9189 Y65.6875 I-14.8176 J-25.6649
G3 X109.183 Y68.0576 I-10.7359 J-23.1299
G1 X61.6999
G3 X55.5285 Y76.9604 I-27.0312 J-12.1476
G1 Y137.1695
G3 X57.0593 Y138.7075 I-20.2248 J21.6612
G1 X92.5409
G1 X93.0378
G1 X96.479
G3 X102.8437 Y133.5054 I21.7556 J20.1232
G3 X73.0262 Y121.2209 I-5.4371 J-29.1323
G0 Z3.0
G0 X91.7834 Y108.259
G0 Z-2.0
G1 F300.0 Z-6.0
G3 F2500.0 X90.5713 Y104.3732 I5.6233 J-3.8859
G3 X100.8243 Y98.4536 I6.8353 J0.0
G3 Y110.2927 I-3.4176 J5.9195
G3 X91.7834 Y108.259 I-3.4176 J-5.9195
G1 F300.0 X92.7686 Y107.5782
G3 F2500.0 X91.7689 Y104.3732 I4.638 J-3.205
G3 X100.2255 Y99.4908 I5.6377 J0.0
G3 Y109.2555 I-2.8188 J4.8824
G3 X92.7686 Y107.5782 I-2.8188 J-4.8824
G0 Z3.0
G0 X90.7961 Y108.9412
G0 Z-2.0
G1 F300.0 Z-6.0
G2 F2500.0 X101.4243 Y111.3319 I6.6105 J-4.5681
G2 Y97.4144 I-4.0176 J-6.9588
G2 X89.3713 Y104.3732 I-4.0176 J6.9588
G2 X90.7961 Y108.9412 I8.0353 J0.0
G1 F300.0 X89.8089 Y109.6235
G2 F2500.0 X102.0243 Y112.3712 I7.5977 J-5.2503
G2 Y96.3752 I-4.6176 J-7.998
G2 X88.1713 Y104.3732 I-4.6176 J7.998
G2 X89.8089 Y109.6235 I9.2353 J0.0
G1 F300.0 X88.8217 Y110.3057
G2 F2500.0 X102.6243 Y113.4104 I8.5849 J-5.9325
G2 Y95.3359 I-5.2176 J-9.0372
G2 X86.9713 Y104.3732 I-5.2176 J9.0372
G2 X88.8217 Y110.3057 I10.4353 J0.0
G1 F300.0 X87.8345 Y110.9879
G2 F2500.0 X103.2243 Y114.4496 I9.5721 J-6.6147
G2 Y94.2967 I-5.8176 J-10.0765
G2 X85.7713 Y104.3732 I-5.8176 J10.0765
G2 X87.8345 Y110.9879 I11.6353 J0.0
G1 F300.0 X86.8473 Y111.6701
G2 F2500.0 X103.8243 Y115.4888 I10.5593 J-7.2969
G2 Y93.2575 I-6.4176 J-11.1157
G2 X84.5713 Y104.3732 I-6.4176 J11.1157
G2 X86.8473 Y111.6701 I12.8353 J0.0
G1 F300.0 X85.8601 Y112.3523
G2 F2500.0 X104.4243 Y116.5281 I11.5466 J-7.9791
G2 Y92.2183 I-7.0176 J-12.1549
G2 X83.3713 Y104.3732 I-7.0176 J12.1549
G2 X85.8601 Y112.3523 I14.0353 J0.0
G1 F300.0 X84.8728 Y113.0345
G2 F2500.0 X105.0243 Y117.5673 I12.5338 J-8.6613
G2 Y91.179 I-7.6176 J-13.1941
G2 X82.1713 Y104.3732 I-7.6176 J13.1941
G2 X84.8728 Y113.0345 I15.2353 J0.0
G1 F300.0 X83.8856 Y113.7167
G2 F2500.0 X105.6243 Y118.6065 I13.521 J-9.3435
G2 Y90.1398 I-8.2176 J-14.2334
G2 X80.9713 Y104.3732 I-8.2176 J14.2334
G2 X83.8856 Y113.7167 I16.4353 J0.0
G1 F300.0 X82.8984 Y114.3989
G2 F2500.0 X106.2243 Y119.6458 I14.5082 J-10.0257
G2 Y89.1006 I-8.8176 J-15.2726
G2 X79.7713 Y104.3732 I-8.8176 J15.2726
G2 X82.8984 Y114.3989 I17.6353 J0.0
G1 F300.0 X81.9112 Y115.0811
G2 F2500.0 X106.8243 Y120.685 I15.4954 J-10.7079
G2 Y88.0613 I-9.4176 J-16.3118
G2 X78.5713 Y104.3732 I-9.4176 J16.3118
G2 X81.9112 Y115.0811 I18.8353 J0.0
G1 F300.0 X80.924 Y115.7633
G2 F2500.0 X107.4243 Y121.7242 I16.4826 J-11.3901
G2 Y87.0221 I-10.0176 J-17.3511
G2 X77.3713 Y104.3732 I-10.0176 J17.3511
G2 X80.924 Y115.7633 I20.0353 J0.0
G1 F300.0 X79.9367 Y116.4455
G2 F2500.0 X108.0243 Y122.7635 I17.4699 J-12.0723
G2 Y85.9829 I-10.6176 J-18.3903
G2 X76.1713 Y104.3732 I-10.6176 J18.3903
G2 X79.9367 Y116.4455 I21.2353 J0.0
G1 F300.0 X78.9495 Y117.1277
G2 F2500.0 X108.6243 Y123.8027 I18.4571 J-12.7545
G2 Y84.9436 I-11.2176 J-19.4295
G2 X74.9713 Y104.3732 I-11.2176 J19.4295
G2 X78.9495 Y117.1277 I22.4353 J0.0
G1 F300.0 X77.9623 Y117.8099
G2 F2500.0 X109.2243 Y124.8419 I19.4443 J-13.4367
G2 Y83.9044 I-11.8176 J-20.4688
G2 X73.7713 Y104.3732 I-11.8176 J20.4688
G2 X77.9623 Y117.8099 I23.6353 J0.0
G1 F300.0 X76.9751 Y118.4921
G2 F2500.0 X109.8243 Y125.8812 I20.4315 J-14.1189
G2 Y82.8652 I-12.4176 J-21.508
G2 X72.5713 Y104.3732 I-12.4176 J21.508
G2 X76.9751 Y118.4921 I24.8353 J0.0
G1 F300.0 X75.9879 Y119.1743
G2 F2500.0 X110.4243 Y126.9204 I21.4187 J-14.8011
G2 Y81.8259 I-13.0176 J-22.5472
G2 X71.3713 Y104.3732 I-13.0176 J22.5472
G2 X75.9879 Y119.1743 I26.0353 J0.0
G1 F300.0 X75.0007 Y119.8565
G2 F2500.0 X111.0243 Y127.9596 I22.406 J-15.4833
G2 Y80.7867 I-13.6176 J-23.5864
G2 X70.1713 Y104.3732 I-13.6176 J23.5864
G2 X75.0007 Y119.8565 I27.2353 J0.0
G1 F300.0 X74.0134 Y120.5387
G2 F2500.0 X111.6243 Y128.9988 I23.3932 J-16.1655
G2 Y79.7475 I-14.2176 J-24.6257
G2 X68.9713 Y104.3732 I-14.2176 J24.6257
G2 X74.0134 Y120.5387 I28.4353 J0.0
G0 Z3.0
G0 Y139.9075
G0 Z-2.0
G1 F300.0 Z-6.0
G1 F2500.0 X92.5409
G1 X93.0378
G1 X97.0101
G3 X132.4522 Y134.205 I21.2245 J18.9232
G3 X139.459 Y139.9075 I-14.2176 J24.6257
G1 X140.9025
G1 X141.3994
G1 X147.8101
G3 X150.0351 Y137.6744 I21.2245 J18.9232
G1 Y77.5041
G3 X149.8438 Y74.2996 I26.7464 J-3.2045
G3 X163.2455 Y51.0098 I26.9377 J0.0
G3 X159.038 Y46.1253 I19.3018 J-20.8807
G1 X158.2056 Y46.5134
G3 X145.2284 Y62.8319 I-27.1948 J-8.3072
G3 X119.8903 Y64.3768 I-14.2176 J-24.6257
G1 X119.4511 Y64.5816
G3 X109.183 Y66.8576 I-10.2681 J-22.024
G1 X60.9121
G3 X54.3285 Y76.4541 I-26.2434 J-10.9476
G1 Y137.6973
G3 X56.5281 Y139.9075 I-19.0248 J21.1334
G1 X74.0134
G1 F300.0 Y141.1075
G1 F2500.0 X92.5409
G1 X93.0378
G1 X97.5549
G3 X131.8522 Y135.2443 I20.6797 J17.7232
G3 X138.9143 Y141.1075 I-13.6176 J23.5864
G1 X140.9025
G1 X141.3994
G1 X148.3549
G3 X151.2351 Y138.2166 I20.6797 J17.7232
G1 Y77.4317
G3 X151.0438 Y74.2996 I25.5464 J-3.1321
G3 X165.3438 Y51.243 I25.7377 J0.0
G3 X159.4735 Y44.5983 I17.2035 J-21.114
G1 X157.2078 Y45.6546
G3 X144.6284 Y61.7927 I-26.197 J-7.4483
G3 X119.874 Y63.0605 I-13.6176 J-23.5864
G1 X118.944 Y63.494
G3 X109.183 Y65.6576 I-9.761 J-20.9364
G1 X60.0999
G3 X53.1285 Y75.9349 I-25.4312 J-9.7476
G1 Y138.2385
G3 X55.9834 Y141.1075 I-17.8248 J20.5922
G1 X74.0134
G1 F300.0 Y142.3075
G1 F2500.0 X92.5409
G1 X93.0378
G1 X98.1145
G3 X131.2522 Y136.2835 I20.1201 J16.5232
G3 X138.3547 Y142.3075 I-13.0176 J22.5472
G1 X140.9025
G1 X141.3994
G1 X148.9144
G3 X152.4351 Y138.7734 I20.1201 J16.5232
G1 Y77.3575
G3 X152.2438 Y74.2996 I24.3464 J-3.0579
G3 X167.6895 Y51.5085 I24.5377 J0.0
G3 X159.9466 Y43.0537 I14.8578 J-21.3795
G1 X156.1967 Y44.8019
G3 X144.0284 Y60.7535 I-25.186 J-6.5957
G3 X119.8709 Y61.7379 I-13.0176 J-22.5472
G1 X118.4369 Y62.4064
G3 X109.183 Y64.4576 I-9.254 J-19.8488
G1 X59.2608
G3 X51.9285 Y75.4019 I-24.5922 J-8.5476
G1 Y138.7944
G3 X55.4238 Y142.3075 I-16.6248 J20.0363
G1 X74.0134
G1 F300.0 Y143.5075
G1 F2500.0 X92.5409
G1 X93.0378
G1 X98.69
G3 X130.6522 Y137.3227 I19.5446 J15.3232
G3 X137.7792 Y143.5075 I-12.4176 J21.508
G1 X140.9025
G1 X141.3994
G1 X149.49
G3 X153.6351 Y139.3461 I19.5446 J15.3232
G1 Y77.2815
G3 X153.4438 Y74.2996 I23.1464 J-2.9819
G3 X170.4719 Y51.831 I23.3377 J0.0
G3 X160.4625 Y41.4891 I12.0754 J-21.702
G1 X155.1713 Y43.956
G3 X143.4284 Y59.7142 I-24.1605 J-5.7498
G3 X119.8822 Y60.4086 I-12.4176 J-21.508
G1 X117.9299 Y61.3188
G3 X109.183 Y63.2576 I-8.7469 J-18.7612
G1 X58.3922
G3 X50.7285 Y74.854 I-23.7235 J-7.3476
G1 Y139.3662
G3 X54.8483 Y143.5075 I-15.4248 J19.4645
G1 X74.0134
G1 F300.0 Y144.7075
G1 F2500.0 X92.5409
G1 X93.0378
G1 X99.283
G3 X130.0522 Y138.3619 I18.9516 J14.1232
G3 X137.1862 Y144.7075 I-11.8176 J20.4688
G1 X140.9025
G1 X141.3994
G1 X150.083
G3 X154.8351 Y139.9362 I18.9516 J14.1232
G1 Y77.2035
G3 X154.6438 Y74.2996 I21.9464 J-2.9039
G3 X174.347 Y52.2962 I22.1377 J0.0
G3 X161.0271 Y39.9019 I8.2003 J-22.1671
G1 X154.1302 Y43.1174
G3 X142.8284 Y58.675 I-23.1194 J-4.9112
G3 X119.9092 Y59.072 I-11.8176 J-20.4688
G1 X117.4228 Y60.2312
G3 X109.183 Y62.0576 I-8.2398 J-17.6736
G1 X57.4905
G3 X49.5285 Y74.2897 I-22.8218 J-6.1476
G1 Y139.9553
G3 X54.2552 Y144.7075 I-14.2248 J18.8754
G1 X74.0134
G1 F300.0 Y145.9075
G1 F2500.0 X92.5409
G1 X93.0378
G1 X99.8952
G3 X129.4522 Y139.4012 I18.3394 J12.9232
G3 X136.574 Y145.9075 I-11.2176 J19.4295
G1 X140.9025
G1 X141.3994
G1 X150.6952
G3 X156.0351 Y140.5453 I18.3394 J12.9232
G1 Y77.1234
G3 X155.8438 Y74.2996 I20.7464 J-2.8238
G3 X176.7815 Y53.3619 I20.9377 J0.0
G3 X180.7189 Y53.7355 I0.0 J20.9377
G1 X183.2544 Y52.5532
G3 X161.6483 Y38.2883 I-0.7071 J-22.4241
G1 X153.0718 Y42.2868
G3 X142.2284 Y57.6358 I-22.0611 J-4.0806
G3 X119.9534 Y57.7274 I-11.2176 J-19.4295
G1 X116.9157 Y59.1436
G3 X109.183 Y60.8576 I-7.7328 J-16.586
G1 X56.5516
G3 X48.3285 Y73.7075 I-21.8829 J-4.9476
G1 Y140.5633
G3 X53.6431 Y145.9075 I-13.0248 J18.2674
G1 X74.0134
G1 F300.0 Y147.1075
G1 F2500.0 X92.5409
G1 X93.0378
G1 X100.5286
G3 X128.8522 Y140.4404 I17.706 J11.7232
G3 X135.9406 Y147.1075 I-10.6176 J18.3903
G1 X140.9025
G1 X141.3994
G1 X151.3285
G3 X157.2351 Y141.1754 I17.706 J11.7232
G1 Y77.0409
G3 X157.0438 Y74.2996 I19.5464 J-2.7413
G3 X176.7815 Y54.5619 I19.7377 J0.0
G3 X180.8686 Y54.9897 I0.0 J19.7377
G1 X192.6465 Y49.4977
G1 X192.3892 Y48.9459
G3 X162.336 Y36.6436 I-9.8419 J-18.8169
G1 X151.9945 Y41.4651
G3 X141.6284 Y56.5965 I-20.9837 J-3.2588
G3 X120.0166 Y56.3739 I-10.6176 J-18.3903
G1 X116.4087 Y58.056
G3 X109.183 Y59.6576 I-7.2257 J-15.4984
G1 X55.5707
G3 X47.1285 Y73.1057 I-20.902 J-3.7476
G1 Y141.1924
G3 X53.0097 Y147.1075 I-11.8248 J17.6383
G1 X74.0134
G1 F300.0 Y148.3075
G1 F2500.0 X92.5409
G1 X93.0378
G1 X101.1854
G3 X128.2522 Y141.4796 I17.0492 J10.5232
G3 X135.2838 Y148.3075 I-10.0176 J17.3511
G1 X140.9025
G1 X141.3994
G1 X151.9853
G3 X158.4351 Y141.8288 I17.0492 J10.5232
G1 Y76.9558
G3 X158.2438 Y74.2996 I18.3464 J-2.6562
G3 X176.7815 Y55.7619 I18.5377 J0.0
G3 X181.006 Y56.2497 I0.0 J18.5377
G1 X194.2412 Y50.0781
G1 X192.9293 Y47.2646
G3 X192.565 Y47.4801 I-10.3819 J-17.1356
G3 X163.1036 Y34.9617 I-10.0176 J-17.3511
G1 X150.8961 Y40.6532
G3 X141.0284 Y55.5573 I-19.8853 J-2.4469
G3 X120.1009 Y55.0106 I-10.0176 J-17.3511
G1 X115.9016 Y56.9684
G3 X109.183 Y58.4576 I-6.7186 J-14.4108
G1 X54.5413
G3 X45.9285 Y72.482 I-19.8727 J-2.5476
G1 Y141.8446
G3 X52.3529 Y148.3075 I-10.6248 J16.9861
G1 X74.0134
G1 F300.0 Y149.5075
G1 F2500.0 X92.5409
G1 X93.0378
G1 X101.8686
G3 X127.6522 Y142.5189 I16.366 J9.3232
G3 X134.6006 Y149.5075 I-9.4176 J16.3118
G1 X140.9025
G1 X141.3994
G1 X152.6685
G3 X159.6351 Y142.5084 I16.366 J9.3232
G1 Y76.8679
G3 X159.4438 Y74.2996 I17.1464 J-2.5683
G3 X176.7815 Y56.9619 I17.3377 J0.0
G3 X181.1298 Y57.516 I0.0 J17.3377
G1 X195.8359 Y50.6585
G1 X193.4311 Y45.5014
G3 X191.965 Y46.4409 I-10.8838 J-15.3724
G3 X163.9697 Y33.2339 I-9.4176 J-16.3118
G1 X149.774 Y39.8523
G3 X140.4284 Y54.5181 I-18.7632 J-1.6461
G3 X120.2088 Y53.6363 I-9.4176 J-16.3118
G1 X115.3945 Y55.8808
G3 X109.183 Y57.2576 I-6.2116 J-13.3232
G1 X53.4557
G3 X44.7285 Y71.8338 I-18.787 J-1.3476
G1 Y142.523
G3 X51.6697 Y149.5075 I-9.4248 J16.3077
G1 X74.0134
G1 F300.0 Y150.7075
G1 F2500.0 X92.5409
G1 X93.0378
G1 X102.5816
G3 X127.0522 Y143.5581 I15.653 J8.1232
G3 X133.8876 Y150.7075 I-8.8176 J15.2726
G1 X140.9025
G1 X141.3994
G1 X153.3815
G3 X160.8351 Y143.2175 I15.653 J8.1232
G1 Y76.7769
G3 X160.6438 Y74.2996 I15.9464 J-2.4774
G3 X176.7815 Y58.1619 I16.1377 J0.0
G3 X181.2382 Y58.7895 I0.0 J16.1377
G1 X197.4306 Y51.239
G1 X193.8855 Y43.6364
G3 X191.365 Y45.4016 I-11.3382 J-13.5073
G3 X164.9614 Y31.4476 I-8.8176 J-15.2726
G1 X148.6252 Y39.0639
G3 X139.8284 Y53.4788 I-17.6144 J-0.8577
G3 X120.3435 Y52.2495 I-8.8176 J-15.2726
G1 X114.8875 Y54.7932
G3 X109.183 Y56.0576 I-5.7045 J-12.2356
G1 X52.3033
G3 X43.5285 Y71.1582 I-17.6347 J-0.1476
G1 Y143.2308
G3 X44.1213 Y143.5581 I-8.2248 J15.5999
G3 X50.9567 Y150.7075 I-8.8176 J15.2726
G1 X74.0134
G1 F300.0 Y151.9075
G1 F2500.0 X92.5409
G1 X93.0378
G1 X103.3286
G3 X126.4522 Y144.5973 I14.906 J6.9232
G3 X133.1406 Y151.9075 I-8.2176 J14.2334
G1 X140.9025
G1 X141.3994
G1 X154.1286
G3 X162.0351 Y143.9604 I14.906 J6.9232
G1 Y76.6825
G3 X161.8438 Y74.2996 I14.7464 J-2.3829
G3 X176.7815 Y59.3619 I14.9377 J0.0
G3 X181.3294 Y60.0711 I0.0 J14.9377
G1 X199.0253 Y51.8194
G1 X194.2786 Y41.6398
G3 X190.765 Y44.3624 I-11.7312 J-11.5107
G3 X166.112 Y30.129 I-8.2176 J-14.2334
G3 X166.1211 Y29.5829 I16.4353 J0.0
G1 X147.4458 Y38.2897
G3 X139.2284 Y52.4396 I-16.4351 J-0.0835
G3 X120.5087 Y50.8484 I-8.2176 J-14.2334
G1 X114.3804 Y53.7056
G3 X109.183 Y54.8576 I-5.1974 J-11.1479
G1 X51.0702
G3 X42.8863 Y70.1434 I-16.4016 J1.0524
G3 X42.3285 Y70.4512 I-8.2176 J-14.2334
G1 Y143.9724
G3 X43.5213 Y144.5973 I-7.0248 J14.8584
G3 X50.2096 Y151.9075 I-8.2176 J14.2334
G1 X74.0134
G1 F300.0 Y153.1075
G1 F2500.0 X92.5409
G1 X93.0378
G1 X104.1151
G3 X125.8522 Y145.6366 I14.1194 J5.7232
G3 X132.354 Y153.1075 I-7.6176 J13.1941
G1 X140.9025
G1 X141.3994
G1 X154.9151
G3 X163.2351 Y144.7424 I14.1194 J5.7232
G1 Y76.5841
G3 X163.0438 Y74.2996 I13.5464 J-2.2845
G3 X176.7815 Y60.5619 I13.7377 J0.0
G3 X181.4008 Y61.3618 I0.0 J13.7377
G1 X200.62 Y52.3998
G1 X194.5879 Y39.4638
G3 X190.165 Y43.3232 I-12.0406 J-9.3347
G3 X167.312 Y30.129 I-7.6176 J-13.1941
G3 X167.5225 Y27.6055 I15.2353 J0.0
G1 X146.2311 Y37.532
G3 X138.6284 Y51.4004 I-15.2204 J0.6742
G3 X120.7093 Y49.4309 I-7.6176 J-13.1941
G1 X113.8733 Y52.618
G3 X109.183 Y53.6576 I-4.6904 J-10.0603
G1 X49.7366
G3 X42.2863 Y69.1042 I-15.0679 J2.2524
G3 X41.1285 Y69.708 I-7.6176 J-13.1941
G1 Y144.7529
G3 X42.9213 Y145.6366 I-5.8248 J14.0778
G3 X49.4231 Y153.1075 I-7.6176 J13.1941
G1 X74.0134
G1 F300.0 Y154.3075
G1 F2500.0 X92.5409
G1 X93.0378
G1 X104.544
G1 X104.9481
G3 X125.2522 Y146.6758 I13.2865 J4.5232
G3 X131.521 Y154.3075 I-7.0176 J12.1549
G1 X140.9025
G1 X141.3994
G1 X155.7481
G3 X164.4351 Y145.5704 I13.2865 J4.5232
G1 Y76.4813
G3 X164.2438 Y74.2996 I12.3464 J-2.1817
G3 X176.7815 Y61.7619 I12.5377 J0.0
G3 X181.4494 Y62.6632 I0.0 J12.5377
G1 X202.2147 Y52.9803
G1 X194.7734 Y37.022
G3 X189.565 Y42.284 I-12.2261 J-6.8929
G3 X168.512 Y30.129 I-7.0176 J-12.1549
G3 X169.3167 Y25.445 I14.0353 J0.0
G1 X144.9748 Y36.7938
G3 X138.0284 Y50.3611 I-13.964 J1.4125
G3 X120.9515 Y47.994 I-7.0176 J-12.1549
G1 X113.3663 Y51.5304
G3 X109.183 Y52.4576 I-4.1833 J-8.9727
G1 X48.2727
G3 X41.6863 Y68.0649 I-13.6041 J3.4524
G3 X39.9285 Y68.9225 I-7.0176 J-12.1549
G1 Y145.5793
G3 X42.3213 Y146.6758 I-4.6248 J13.2514
G3 X48.5901 Y154.3075 I-7.0176 J12.1549
G1 X74.0134
G1 F300.0 Y155.5075
G1 F2500.0 X92.5409
G1 X93.0378
G1 X104.544
G1 X105.0409
G1 X105.837
G3 X124.6522 Y147.715 I12.3976 J3.3232
G3 X130.6322 Y155.5075 I-6.4176 J11.1157
G1 X140.9025
G1 X141.3994
G1 X156.6369
G3 X165.6351 Y146.4538 I12.3976 J3.3232
G1 Y76.3735
G3 X165.4438 Y74.2996 I11.1464 J-2.0739
G3 X176.7815 Y62.9619 I11.3377 J0.0
G3 X181.471 Y63.9772 I0.0 J11.3377
G1 X203.8094 Y53.5607
G1 X194.7455 Y34.1227
G3 X188.965 Y41.2447 I-12.1982 J-3.9936
G3 X169.712 Y30.129 I-6.4176 J-11.1157
G3 X171.9441 Y22.8961 I12.8353 J0.0
G1 X143.6685 Y36.0788
G3 X137.4284 Y49.3219 I-12.6577 J2.1275
G3 X121.2436 Y46.5338 I-6.4176 J-11.1157
G1 X112.8592 Y50.4428
G3 X109.183 Y51.2576 I-3.6762 J-7.8851
G1 X46.6311
G3 X41.0863 Y67.0257 I-11.9624 J4.6524
G3 X38.7285 Y68.0863 I-6.4176 J-11.1157
G1 Y146.4608
G3 X41.7213 Y147.715 I-3.4248 J12.3699
G3 X47.7013 Y155.5075 I-6.4176 J11.1157
G1 X74.0134
G1 F300.0 Y156.7075
G1 F2500.0 X92.5409
G1 X93.0378
G1 X104.544
G1 X105.0409
G1 X106.7947
G3 X124.0522 Y148.7543 I11.4399 J2.1232
G3 X129.6745 Y156.7075 I-5.8176 J10.0765
G1 X140.9025
G1 X141.3994
G1 X157.5946
G3 X166.8351 Y147.4052 I11.4399 J2.1232
G1 Y76.2597
G3 X166.6438 Y74.2996 I9.9464 J-1.9601
G3 X176.7815 Y64.1619 I10.1377 J0.0
G3 X181.4604 Y65.3062 I0.0 J10.1377
G1 X205.4041 Y54.1411
G1 X194.1825 Y30.0758
G3 X188.365 Y40.2055 I-11.6352 J0.0532
G3 X170.912 Y30.129 I-5.8176 J-10.0765
G3 X188.365 Y20.0526 I11.6353 J0.0
G3 X190.0672 Y21.2503 I-5.8176 J10.0765
G1 X186.954 Y14.5741
G1 X142.3007 Y35.3925
G3 X136.8284 Y48.2827 I-11.2899 J2.8138
G3 X121.5973 Y45.0448 I-5.8176 J-10.0765
G1 X112.3521 Y49.3552
G3 X109.183 Y50.0576 I-3.1692 J-6.7975
G1 X44.725
G3 X40.4863 Y65.9865 I-10.0563 J5.8524
G3 X37.5285 Y67.1884 I-5.8176 J-10.0765
G1 Y147.4101
G3 X41.1213 Y148.7543 I-2.2248 J11.4206
G3 X46.7436 Y156.7075 I-5.8176 J10.0765
G1 X74.0134
G0 Z3.0
G0 X178.0981 Y35.318
G0 Z-2.0
G1 F300.0 Z-6.0
G3 F2500.0 X175.712 Y30.129 I4.4492 J-5.189
G3 X185.965 Y24.2095 I6.8353 J0.0
G3 Y36.0486 I-3.4176 J5.9195
G3 X178.0981 Y35.318 I-3.4176 J-5.9195
G1 F300.0 X178.8776 Y34.4089
G3 F2500.0 X176.9096 Y30.129 I3.6697 J-4.2798
G3 X185.3662 Y25.2467 I5.6377 J0.0
G3 Y35.0114 I-2.8188 J4.8824
G3 X178.8776 Y34.4089 I-2.8188 J-4.8824
G0 Z3.0
G0 X177.317 Y36.229
G0 Z-2.0
G1 F300.0 Z-6.0
G2 F2500.0 X186.565 Y37.0878 I5.2304 J-6.0999
G2 Y23.1703 I-4.0176 J-6.9588
G2 X174.512 Y30.129 I-4.0176 J6.9588
G2 X177.317 Y36.229 I8.0353 J0.0
G1 F300.0 X176.5359 Y37.14
G2 F2500.0 X187.165 Y38.127 I6.0115 J-7.0109
G2 Y22.1311 I-4.6176 J-7.998
G2 X173.312 Y30.129 I-4.6176 J7.998
G2 X176.5359 Y37.14 I9.2353 J0.0
G1 F300.0 X175.7548 Y38.0509
G2 F2500.0 X187.765 Y39.1663 I6.7926 J-7.9219
G2 Y21.0918 I-5.2176 J-9.0372
G2 X172.112 Y30.129 I-5.2176 J9.0372
G2 X175.7548 Y38.0509 I10.4353 J0.0
G0 Z3.0
G0 X168.2562 Y21.9674
G0 Z-2.0
G1 F300.0 Z-6.0
G1 F2500.0 X140.8545 Y34.7427
G3 X136.2284 Y47.2435 I-9.8437 J3.4635
G3 X122.0294 Y43.5194 I-5.2176 J-9.0372
G1 X111.8451 Y48.2676
G3 X109.183 Y48.8576 I-2.6621 J-5.7099
G1 X42.4559
G1 X42.4058 Y48.9077
G3 X39.8863 Y64.9472 I-7.7371 J7.0023
G3 X36.3285 Y66.2125 I-5.2176 J-9.0372
G1 Y148.4459
G3 X40.5213 Y149.7935 I-1.0248 J10.3848
G3 X45.698 Y157.9075 I-5.2176 J9.0372
G1 X92.5409
G1 X93.0378
G1 X104.544
G1 X105.0409
G1 X107.8402
G3 X123.4522 Y149.7935 I10.3944 J0.9232
G3 X128.629 Y157.9075 I-5.2176 J9.0372
G1 X140.9025
G1 X141.3994
G1 X158.5697
G1 X158.6402
G3 X168.0351 Y148.4434 I10.3944 J0.9232
G1 Y76.1388
G3 X167.8438 Y74.2996 I8.7464 J-1.8392
G3 X176.7815 Y65.3619 I8.9377 J0.0
G3 X181.41 Y66.6537 I0.0 J8.9377
G1 X206.9988 Y54.7216
G1 X187.5345 Y12.9794
G1 X168.2562 Y21.9674
G1 F300.0 X167.7492 Y20.8798
G1 F2500.0 X139.3036 Y34.1418
G3 X135.6284 Y46.2042 I-8.2928 J4.0645
G3 X122.5662 Y41.9451 I-4.6176 J-7.998
G1 X111.338 Y47.18
G3 X109.183 Y47.6576 I-2.155 J-4.6223
G1 X41.9589
G1 X40.7002 Y48.9163
G3 X39.2863 Y63.908 I-6.0315 J6.9937
G3 X35.1285 Y65.1338 I-4.6176 J-7.998
G1 Y149.5971
G3 X39.9213 Y150.8327 I0.1752 J9.2336
G3 X44.5348 Y159.1075 I-4.6176 J7.998
G1 X92.5409
G1 X93.0378
G1 X104.544
G1 X105.0409
G1 X109.0035
G3 X108.9993 Y158.8307 I9.2311 J-0.2768
G3 X122.8522 Y150.8327 I9.2353 J0.0
G3 X127.4657 Y159.1075 I-4.6176 J7.998
G1 X140.9025
G1 X141.3994
G1 X158.5697
G1 X159.0667
G1 X159.8034
G3 X159.7993 Y158.8307 I9.2311 J-0.2768
G3 X169.2351 Y149.5976 I9.2353 J0.0
G1 Y76.0095
G3 X169.0438 Y74.2996 I7.5464 J-1.7099
G3 X176.7815 Y66.5619 I7.7377 J0.0
G3 X181.3091 Y68.0248 I0.0 J7.7377
G1 X208.1581 Y55.5051
G1 X208.3906 Y54.8668
G1 X188.3177 Y11.8195
G1 X187.6799 Y11.5876
G1 X167.7492 Y20.8798
G1 F300.0 X167.2421 Y19.7922
G1 F2500.0 X137.6023 Y33.6109
G3 X135.0284 Y45.165 I-6.5916 J4.5953
G3 X123.2533 Y40.3008 I-4.0176 J-6.9588
G1 X110.8309 Y46.0923
G3 X109.183 Y46.4576 I-1.648 J-3.5347
G1 X41.4618
G1 X38.8631 Y49.0563
G3 X38.6863 Y62.8688 I-4.1944 J6.8537
G3 X33.9285 Y63.9111 I-4.0176 J-6.9588
G1 Y150.914
G3 X39.3213 Y151.8719 I1.3752 J7.9167
G3 X43.2021 Y160.3075 I-4.0176 J6.9588
G1 X92.5409
G1 X93.0378
G1 X104.544
G1 X105.0409
G1 X110.3362
G3 X110.1993 Y158.8307 I7.8984 J-1.4768
G3 X122.2522 Y151.8719 I8.0353 J0.0
G3 X126.133 Y160.3075 I-4.0176 J6.9588
G1 X140.9025
G1 X141.3994
G1 X158.5697
G1 X159.0667
G1 X161.1361
G3 X160.9993 Y158.8307 I7.8984 J-1.4768
G3 X170.4351 Y150.9184 I8.0353 J0.0
G1 Y75.8695
G3 X170.2438 Y74.2996 I6.3464 J-1.5699
G3 X176.7815 Y67.7619 I6.5377 J0.0
G3 X181.1408 Y69.4274 I0.0 J6.5377
G1 X209.1156 Y56.3826
G1 X209.6883 Y54.8103
G1 X189.1951 Y10.8617
G1 X187.6231 Y10.2901
G1 X167.2421 Y19.7922
G1 F300.0 X166.735 Y18.7046
G1 F2500.0 X135.6577 Y33.1935
G3 X134.4284 Y44.1258 I-4.6469 J5.0127
G3 X124.1838 Y38.5429 I-3.4176 J-5.9195
G1 X110.3239 Y45.0047
G3 X109.183 Y45.2576 I-1.1409 J-2.4471
G1 X40.9647
G1 X36.8052 Y49.4172
G3 X38.0863 Y49.9905 I-2.1365 J6.4928
G3 Y61.8295 I-3.4176 J5.9195
G3 X32.7285 Y62.4642 I-3.4176 J-5.9195
G1 Y152.4991
G3 X38.7213 Y152.9112 I2.5752 J6.3316
G3 X41.593 Y161.5075 I-3.4176 J5.9195
G1 X92.5409
G1 X93.0378
G1 X104.544
G1 X105.0409
G1 X111.9452
G3 X111.3993 Y158.8307 I6.2893 J-2.6768
G3 X121.6522 Y152.9112 I6.8353 J0.0
G3 X124.5239 Y161.5075 I-3.4176 J5.9195
G1 X140.9025
G1 X141.3994
G1 X158.5697
G1 X159.0667
G1 X162.7452
G3 X162.1993 Y158.8307 I6.2893 J-2.6768
G3 X171.6351 Y152.5095 I6.8353 J0.0
G1 Y75.7157
G3 X171.4438 Y74.2996 I5.1464 J-1.4161
G3 X176.7815 Y68.9619 I5.3377 J0.0
G3 X180.8758 Y70.875 I0.0 J5.3377
G1 X210.073 Y57.2602
G1 X210.986 Y54.7538
G1 X190.0725 Y9.9039
G1 X187.5663 Y8.9926
G1 X166.735 Y18.7046
G1 F300.0 X166.228 Y17.617
G1 F2500.0 X133.2049 Y33.0131
G3 X133.8296 Y33.3239 I-2.1942 J5.1932
G3 Y43.0886 I-2.8188 J4.8824
G3 X125.3731 Y38.2062 I-2.8188 J-4.8824
G3 X125.6224 Y36.5482 I5.6377 J0.0
G1 X109.8168 Y43.9171
G3 X109.183 Y44.0576 I-0.6338 J-1.3595
G1 X40.4677
G1 X34.2364 Y50.2889
G3 X37.4875 Y51.0276 I0.4323 J5.6211
G3 Y60.7924 I-2.8188 J4.8824
G3 X31.5285 Y60.5922 I-2.8188 J-4.8824
G1 Y154.6437
G3 X38.1225 Y153.9483 I3.7752 J4.187
G3 X39.3968 Y162.7075 I-2.8188 J4.8824
G1 X92.5409
G1 X93.0378
G1 X104.544
G1 X105.0409
G1 X114.1414
G3 X112.5969 Y158.8307 I4.0932 J-3.8768
G3 X121.0534 Y153.9483 I5.6377 J0.0
G3 X122.3277 Y162.7075 I-2.8188 J4.8824
G1 X140.9025
G1 X141.3994
G1 X158.5697
G1 X159.0667
G1 X164.9414
G3 X163.3969 Y158.8307 I4.0932 J-3.8768
G3 X171.8534 Y153.9483 I5.6377 J0.0
G3 X172.8351 Y154.6667 I-2.8188 J4.8824
G1 Y75.5431
G3 X172.6438 Y74.2996 I3.9464 J-1.2435
G3 X176.7815 Y70.1619 I4.1377 J0.0
G3 X180.4549 Y72.3953 I0.0 J4.1377
G1 X211.0305 Y58.1378
G1 X212.2837 Y54.6973
G1 X190.95 Y8.9461
G1 X187.5095 Y7.695
G1 X166.228 Y17.617
( Internal Space Profile )
G0 Z3.0
( T1 : 1.0 )
T1 M6
M3 S1000
G0 X92.5409 Y163.7075
G0 Z1.0
G1 F300.0 Z-4.0
G1 F2000.0 X93.0378
G1 X104.544
G1 X105.0409
G1 X140.9025
G1 X141.3994
G1 X158.5697
G1 X159.0667
G1 X170.6347
G1 X173.8351 Y160.5325
G1 Y75.3784
G3 X173.6438 Y74.2996 I2.9464 J-1.0788
G3 X176.7815 Y71.1619 I3.1377 J0.0
G3 X179.8741 Y73.7695 I0.0 J3.1377
G1 X211.8284 Y58.8691
G1 X213.3651 Y54.6502
G1 X191.6811 Y8.1479
G1 X187.4622 Y6.6138
G1 X109.3942 Y43.0108
G3 X109.183 Y43.0576 I-0.2113 J-0.4532
G1 X40.0535
G1 X30.5285 Y52.5826
G1 Y160.5325
G1 X33.7035 Y163.7075
G1 X92.5409
( Internal Cutout )
G0 Z3.0
( T2 : 2.0 )
T2 M6
M3 S1000
G0 X31.5286 Y207.1114
G0 Z1.0
G1 F300.0 Z-4.0
G1 F2000.0 Y281.8194
G1 X38.4408
G3 X40.9648 Y284.3434 I0.0 J2.524
G1 Y300.8534
G2 X40.9808 Y300.8694 I0.016 J0.0
G1 X77.5568
G2 X77.5728 Y300.8534 I0.0 J-0.016
G1 Y300.2184
G3 X80.0968 Y297.6944 I2.524 J0.0
G1 X96.7921
G2 X96.807 Y297.6844 I0.0 J-0.016
G3 X99.1468 Y296.1069 I2.3398 J0.9465
G1 X114.6408
G3 X116.9806 Y297.6844 I0.0 J2.524
G2 X116.9954 Y297.6944 I0.0148 J-0.006
G1 X134.7068
G2 X134.7228 Y297.6784 I0.0 J-0.016
G1 Y282.4384
G3 X137.2468 Y279.9144 I2.524 J0.0
G1 X151.7279
G3 X154.0154 Y283.5051 I0.0 J2.524
G1 X139.4152 Y314.8154
G2 X139.4229 Y314.8367 I0.0145 J0.0068
G1 X189.8372 Y338.3452
G2 X189.8584 Y338.3375 I0.0068 J-0.0145
G1 X213.367 Y287.9232
G2 X213.3593 Y287.902 I-0.0145 J-0.0068
G1 X180.2101 Y272.4443
G2 X180.1889 Y272.452 I-0.0068 J0.0145
G1 X173.2115 Y287.4151
G3 X169.8573 Y288.636 I-2.2875 J-1.0667
G1 X159.3954 Y283.7575
G3 X160.2474 Y279.9144 I0.852 J-1.8271
G1 X172.8068
G2 X172.8228 Y279.8984 I0.0 J-0.016
G1 Y205.2226
G2 X172.8066 Y205.2064 I-0.0162 J0.0
G1 X137.2468
G3 X135.0609 Y203.9444 I0.0 J-2.524
G2 X135.0471 Y203.9364 I-0.0139 J0.008
G1 X118.1968
G3 X115.857 Y202.3589 I0.0 J-2.524
G2 X115.8421 Y202.3489 I-0.0148 J0.006
G1 X97.9454
G2 X97.9306 Y202.3589 I0.0 J0.016
G3 X95.5908 Y203.9364 I-2.3398 J-0.9465
G1 X79.0808
G2 X79.0648 Y203.9524 I0.0 J0.016
G1 Y204.5874
G3 X76.5408 Y207.1114 I-2.524 J0.0
G1 X31.5286
G1 F300.0 Z-8.0
G1 F2000.0 Y281.8194
G1 X38.4408
G3 X40.9648 Y284.3434 I0.0 J2.524
G1 Y300.8534
G2 X40.9808 Y300.8694 I0.016 J0.0
G1 X77.5568
G2 X77.5728 Y300.8534 I0.0 J-0.016
G1 Y300.2184
G3 X80.0968 Y297.6944 I2.524 J0.0
G1 X96.7921
G2 X96.807 Y297.6844 I0.0 J-0.016
G3 X99.1468 Y296.1069 I2.3398 J0.9465
G1 X114.6408
G3 X116.9806 Y297.6844 I0.0 J2.524
G2 X116.9954 Y297.6944 I0.0148 J-0.006
G1 X134.7068
G2 X134.7228 Y297.6784 I0.0 J-0.016
G1 Y282.4384
G3 X137.2468 Y279.9144 I2.524 J0.0
G1 X151.7279
G3 X154.0154 Y283.5051 I0.0 J2.524
G1 X139.4152 Y314.8154
G2 X139.4229 Y314.8367 I0.0145 J0.0068
G1 X189.8372 Y338.3452
G2 X189.8584 Y338.3375 I0.0068 J-0.0145
G1 X213.367 Y287.9232
G2 X213.3593 Y287.902 I-0.0145 J-0.0068
G1 X180.2101 Y272.4443
G2 X180.1889 Y272.452 I-0.0068 J0.0145
G1 X173.2115 Y287.4151
G3 X169.8573 Y288.636 I-2.2875 J-1.0667
G1 X159.3954 Y283.7575
G3 X160.2474 Y279.9144 I0.852 J-1.8271
G1 X172.8068
G2 X172.8228 Y279.8984 I0.0 J-0.016
G1 Y205.2226
G2 X172.8066 Y205.2064 I-0.0162 J0.0
G1 X137.2468
G3 X135.0609 Y203.9444 I0.0 J-2.524
G2 X135.0471 Y203.9364 I-0.0139 J0.008
G1 X118.1968
G3 X115.857 Y202.3589 I0.0 J-2.524
G2 X115.8421 Y202.3489 I-0.0148 J0.006
G1 X97.9454
G2 X97.9306 Y202.3589 I0.0 J0.016
G3 X95.5908 Y203.9364 I-2.3398 J-0.9465
G1 X79.0808
G2 X79.0648 Y203.9524 I0.0 J0.016
G1 Y204.5874
G3 X76.5408 Y207.1114 I-2.524 J0.0
G1 X31.5286
( Connector Cutouts )
G0 Z3.0
( T3 : 3.0 )
T3 M6
M3 S1000
G0 X157.7032 Y165.1258
G0 Z1.0
G1 F300.0 Z-4.0
G1 F1200.0 X142.3225
G0 Z3.0
G0 Y179.79
G0 Z1.0
G1 F300.0 Z-4.0
G1 F1200.0 X157.7032
G0 Z3.0
G0 X103.6494
G0 Z1.0
G1 F300.0 Z-4.0
G1 F1200.0 X93.9043
G0 Z3.0
G0 Y165.1258
G0 Z1.0
G1 F300.0 Z-4.0
G1 F1200.0 X103.6494
( PCB Stands )
S1000
G0 Z3.0
G0 X187.0473 Y30.129
G0 Z1.0
G1 F300.0 Z-4.0
G3 F2000.0 X180.2973 Y34.0262 I-4.5 J0.0
G3 Y26.2319 I2.25 J-3.8971
G3 X187.0473 Y30.129 I2.25 J3.8971
G0 Z3.0
G0 X135.4647 Y37.5642
G0 Z1.0
G1 F300.0 Z-4.0
G3 F2000.0 X135.5108 Y38.2062 I-4.454 J0.642
G3 X128.7608 Y42.1034 I-4.5 J0.0
G3 Y34.3091 I2.25 J-3.8971
G3 X135.4647 Y37.5642 I2.25 J3.8971
G0 Z3.0
G0 X99.634 Y100.4631
G0 Z1.0
G1 F300.0 Z-4.0
G3 F2000.0 X101.9066 Y104.3732 I-2.2274 J3.9101
G3 X95.1566 Y108.2703 I-4.5 J0.0
G3 Y100.476 I2.25 J-3.8971
G3 X99.634 Y100.4631 I2.25 J3.8971
G0 Z3.0
G0 X116.8682 Y154.5432
G0 Z1.0
G1 F300.0 Z-4.0
G3 F2000.0 X122.7346 Y158.8307 I1.3664 J4.2875
G3 X115.9846 Y162.7278 I-4.5 J0.0
G3 Y154.9336 I2.25 J-3.8971
G3 X116.8682 Y154.5432 I2.25 J3.8971
G0 Z3.0
G0 X164.5497 Y158.4621
G0 Z1.0
G1 F300.0 Z-4.0
G3 F2000.0 X166.7845 Y154.9336 I4.4849 J0.3686
G3 X173.5345 Y158.8307 I2.25 J3.8971
G3 X166.7845 Y162.7278 I-4.5 J0.0
G3 X164.5497 Y158.4621 I2.25 J-3.8971
G0 Z3.0
G0 X39.8037 Y158.8179
G0 Z1.0
G1 F300.0 Z-4.0
G3 F2000.0 Y158.8307 I-4.5 J0.0128
G3 X33.0537 Y162.7278 I-4.5 J0.0
G3 Y154.9336 I2.25 J-3.8971
G3 X39.8037 Y158.8179 I2.25 J3.8971
G0 Z3.0
G0 X34.8929 Y60.4044
G0 Z1.0
G1 F300.0 Z-4.0
G3 F2000.0 X32.4187 Y59.8071 I-0.2243 J-4.4944
G3 Y52.0129 I2.25 J-3.8971
G3 X39.1687 Y55.91 I2.25 J3.8971
G3 X34.8929 Y60.4044 I-4.5 J0.0
( Cutout Roughing Shallow )
S1000
G0 Z3.0
G0 X160.614 Y169.2075
G0 Z1.0
G1 F300.0 Z-3.0
G1 F1200.0 X160.5574
G3 X160.4922 Y169.2069 I0.0 J-3.5
G3 X157.0067 Y167.7075 I0.0935 J-5.0183
G1 X143.019
G3 X139.3886 Y169.2075 I-3.579 J-3.5189
G1 X106.5316
G3 X102.9529 Y167.7075 I0.0 J-5.0191
G1 X94.6009
G3 X90.9705 Y169.2075 I-3.579 J-3.5189
G1 X33.7764
G3 X25.0285 Y160.4924 I-0.2052 J-8.542
G1 Y52.6372
G3 X40.1081 Y37.5576 I14.6517 J-0.4279
G1 X108.0747
G1 X185.0242 Y1.682
G3 X185.1223 Y1.6338 I1.5928 J3.1165
G3 X196.6692 Y5.8307 I3.6936 J7.8207
G1 X218.3467 Y52.319
G3 X214.1456 Y63.8572 I-7.8248 J3.6848
G1 X181.0617 Y79.2843
G1 X179.3351 Y80.0894
G1 Y160.4924
G3 X170.5872 Y169.2075 I-8.5427 J0.1731
G1 X160.614
G1 F300.0 Z-6.0
G1 F1200.0 X160.5574
G3 X160.4922 Y169.2069 I0.0 J-3.5
G3 X157.0067 Y167.7075 I0.0935 J-5.0183
G1 X143.019
G3 X139.3886 Y169.2075 I-3.579 J-3.5189
G1 X106.5316
G3 X102.9529 Y167.7075 I0.0 J-5.0191
G1 X94.6009
G3 X90.9705 Y169.2075 I-3.579 J-3.5189
G1 X33.7764
G3 X25.0285 Y160.4924 I-0.2052 J-8.542
G1 Y52.6372
G3 X40.1081 Y37.5576 I14.6517 J-0.4279
G1 X108.0747
G1 X185.0242 Y1.682
G3 X185.1223 Y1.6338 I1.5928 J3.1165
G3 X196.6692 Y5.8307 I3.6936 J7.8207
G1 X218.3467 Y52.319
G3 X214.1456 Y63.8572 I-7.8248 J3.6848
G1 X181.0617 Y79.2843
G1 X179.3351 Y80.0894
G1 Y160.4924
G3 X170.5872 Y169.2075 I-8.5427 J0.1731
G1 X160.614
G0 Z3.0
G0 Y175.7084
G0 Z1.0
G1 F300.0 Z-3.0
G1 F1200.0 X170.5872
G3 X179.3351 Y184.4235 I0.2052 J8.542
G1 Y264.8265
G1 X181.0617 Y265.6316
G1 X214.1456 Y281.0587
G3 X218.3467 Y292.5969 I-3.6238 J7.8533
G1 X196.6692 Y339.0852
G3 X185.1223 Y343.2821 I-7.8533 J-3.6238
G3 X185.0242 Y343.2338 I1.4947 J-3.1648
G1 X108.0747 Y307.3583
G1 X40.1081
G3 X25.0285 Y292.2787 I-0.4279 J-14.6517
G1 Y184.4235
G3 X33.7764 Y175.7084 I8.5427 J-0.1731
G1 X90.9705
G3 X94.6009 Y177.2084 I0.0514 J5.0189
G1 X102.9529
G3 X106.5316 Y175.7084 I3.5787 J3.5191
G1 X139.3886
G3 X143.019 Y177.2084 I0.0514 J5.0189
G1 X157.0067
G3 X160.4922 Y175.709 I3.579 J3.5189
G3 X160.5574 Y175.7084 I0.0652 J3.4994
G1 X160.614
G1 F300.0 Z-6.0
G1 F1200.0 X170.5872
G3 X179.3351 Y184.4235 I0.2052 J8.542
G1 Y264.8265
G1 X181.0617 Y265.6316
G1 X214.1456 Y281.0587
G3 X218.3467 Y292.5969 I-3.6238 J7.8533
G1 X196.6692 Y339.0852
G3 X185.1223 Y343.2821 I-7.8533 J-3.6238
G3 X185.0242 Y343.2338 I1.4947 J-3.1648
G1 X108.0747 Y307.3583
G1 X40.1081
G3 X25.0285 Y292.2787 I-0.4279 J-14.6517
G1 Y184.4235
G3 X33.7764 Y175.7084 I8.5427 J-0.1731
G1 X90.9705
G3 X94.6009 Y177.2084 I0.0514 J5.0189
G1 X102.9529
G3 X106.5316 Y175.7084 I3.5787 J3.5191
G1 X139.3886
G3 X143.019 Y177.2084 I0.0514 J5.0189
G1 X157.0067
G3 X160.4922 Y175.709 I3.579 J3.5189
G3 X160.5574 Y175.7084 I0.0652 J3.4994
G1 X160.614
( Cutout Roughing Deep )
S1000
G0 Z3.0
G0 Y169.2075
G0 Z-5.0
G1 F300.0 Z-7.0
G1 F600.0 X156.2724
G1 X154.7724 Z-6.0
G1 X151.7724
G1 X150.2724 Z-7.0
G1 X136.2724
G1 X134.7724 Z-6.0
G1 X131.7724
G1 X130.2724 Z-7.0
G1 X116.2724
G1 X114.7724 Z-6.0
G1 X111.7724
G1 X110.2724 Z-7.0
G1 X96.2724
G1 X94.7724 Z-6.0
G1 X91.7724
G1 X90.9788 Z-6.529
G1 X90.2724 Z-7.0
G1 X76.2724
G1 X74.7724 Z-6.0
G1 X71.7724
G1 X70.2724 Z-7.0
G1 X56.2724
G1 X54.7724 Z-6.0
G1 X51.7724
G1 X50.2724 Z-7.0
G1 X36.2114
G1 X34.71 Z-6.0
G1 X33.7764
G3 X31.7159 Y169.0061 I-0.2052 J-8.542
G3 X30.2347 Y168.5316 Z-7.0 I1.8554 J-8.3406
G3 X25.0285 Y160.4924 I3.3366 J-7.8661
G1 Y154.4321
G1 Y152.9321 Z-6.0
G1 Y149.9321
G1 Y148.4321 Z-7.0
G1 Y134.4321
G1 Y132.9321 Z-6.0
G1 Y129.9321
G1 Y128.4321 Z-7.0
G1 Y114.4321
G1 Y112.9321 Z-6.0
G1 Y109.9321
G1 Y108.4321 Z-7.0
G1 Y94.4321
G1 Y92.9321 Z-6.0
G1 Y89.9321
G1 Y88.4321 Z-7.0
G1 Y74.4321
G1 Y72.9321 Z-6.0
G1 Y69.9321
G1 Y68.4321 Z-7.0
G1 Y54.3482
G1 Y52.8456 Z-6.0
G1 Y52.6372
G3 X25.2132 Y49.8513 I14.6517 J-0.4279
G3 X25.5346 Y48.3676 Z-7.0 I14.467 J2.358
G3 X36.7988 Y37.8374 I14.1455 J3.8416
G3 X38.3007 Y37.6164 Z-6.0 I2.8814 J14.3719
G3 X40.1081 Y37.5576 I1.3795 J14.5929
G1 X41.3013
G1 X42.8013 Z-7.0
G1 X56.7888
G1 X58.2888 Z-6.0
G1 X61.2888
G1 X62.7888 Z-7.0
G1 X76.7888
G1 X78.2888 Z-6.0
G1 X81.2888
G1 X82.7888 Z-7.0
G1 X96.7888
G1 X98.2888 Z-6.0
G1 X101.2888
G1 X102.7888 Z-7.0
G1 X108.0747
G1 X115.3699 Y34.1564
G1 X116.7294 Y33.5226 Z-6.0
G1 X119.4484 Y32.2549
G1 X120.8079 Y31.6211 Z-7.0
G1 X133.4967 Y25.7053
G1 X134.8562 Y25.0715 Z-6.0
G1 X137.5752 Y23.8038
G1 X138.9347 Y23.17 Z-7.0
G1 X151.6234 Y17.2542
G1 X152.9829 Y16.6204 Z-6.0
G1 X155.7019 Y15.3527
G1 X157.0614 Y14.7189 Z-7.0
G1 X169.7502 Y8.8031
G1 X171.1097 Y8.1693 Z-6.0
G1 X173.8287 Y6.9016
G1 X175.1882 Y6.2678 Z-7.0
G1 X185.0242 Y1.682
G3 X185.1223 Y1.6338 I1.5928 J3.1165
G3 X189.2319 Y0.8155 I3.6936 J7.8207
G3 X190.7711 Y1.0293 Z-6.0 I-0.416 J8.639
G3 X193.5315 Y2.2041 I-1.9552 J8.4251
G3 X194.7528 Y3.1649 Z-7.0 I-4.7156 J7.2504
G3 X196.6385 Y5.7648 I-5.9369 J6.2896
G3 X196.6413 Y5.7708 I-1.3567 J0.6399
G1 X196.6679 Y5.8279
G1 X201.627 Y16.4629
G1 X202.2609 Y17.8224 Z-6.0
G1 X203.5288 Y20.5413
G1 X204.1627 Y21.9008 Z-7.0
G1 X210.0792 Y34.5892
G1 X210.7132 Y35.9486 Z-6.0
G1 X211.981 Y38.6676
G1 X212.6149 Y40.027 Z-7.0
G1 X218.3479 Y52.3217
G1 X218.3731 Y52.3757
G3 X218.3757 Y52.3814 I-1.3595 J0.6339
G3 X218.7471 Y53.3299 I-7.8539 J3.6225
G3 X219.0929 Y54.8449 Z-6.0 I-8.2253 J2.674
G3 X218.9732 Y57.8425 I-8.571 J1.159
G3 X218.5078 Y59.3251 Z-7.0 I-8.4514 J-1.8386
G3 X214.2116 Y63.8264 I-7.9859 J-3.3212
G3 X214.2056 Y63.8292 I-0.6399 J-1.3567
G1 X214.1485 Y63.8558
G1 X205.8617 Y67.72
G1 X204.5023 Y68.3539 Z-6.0
G1 X201.7833 Y69.6217
G1 X200.4239 Y70.2557 Z-7.0
G1 X187.7355 Y76.1723
G1 X186.3761 Y76.8062 Z-6.0
G1 X183.6571 Y78.074
G1 X182.2977 Y78.708 Z-7.0
G1 X181.0617 Y79.2843
G1 X179.3351 Y80.0894
G1 Y88.9094
G1 Y90.4094 Z-6.0
G1 Y93.4094
G1 Y94.9094 Z-7.0
G1 Y108.9094
G1 Y110.4094 Z-6.0
G1 Y113.4094
G1 Y114.9094 Z-7.0
G1 Y128.9094
G1 Y130.4094 Z-6.0
G1 Y133.4094
G1 Y134.9094 Z-7.0
G1 Y148.9094
G1 Y150.4094 Z-6.0
G1 Y153.4094
G1 Y154.9094 Z-7.0
G1 Y160.4924
G3 X173.5888 Y168.7394 I-8.5427 J0.1731
G3 X172.0789 Y169.1126 Z-6.0 I-2.7964 J-8.0739
G3 X170.5872 Y169.2075 I-1.2865 J-8.4471
G1 X169.0755
G1 X167.575 Z-7.0
G1 X160.614
G1 F300.0 Z-8.0
G1 F600.0 X156.2724
G1 X154.7724 Z-6.0
G1 X151.7724
G1 X150.2724 Z-8.0
G1 X136.2724
G1 X134.7724 Z-6.0
G1 X131.7724
G1 X130.2724 Z-8.0
G1 X116.2724
G1 X114.7724 Z-6.0
G1 X111.7724
G1 X110.2724 Z-8.0
G1 X96.2724
G1 X94.7724 Z-6.0
G1 X91.7724
G1 X90.9788 Z-7.0581
G1 X90.2724 Z-8.0
G1 X76.2724
G1 X74.7724 Z-6.0
G1 X71.7724
G1 X70.2724 Z-8.0
G1 X56.2724
G1 X54.7724 Z-6.0
G1 X51.7724
G1 X50.2724 Z-8.0
G1 X36.2114
G1 X34.71 Z-6.0
G1 X33.7764
G3 X31.7159 Y169.0061 I-0.2052 J-8.542
G3 X30.2347 Y168.5316 Z-8.0 I1.8554 J-8.3406
G3 X25.0285 Y160.4924 I3.3366 J-7.8661
G1 Y154.4321
G1 Y152.9321 Z-6.0
G1 Y149.9321
G1 Y148.4321 Z-8.0
G1 Y134.4321
G1 Y132.9321 Z-6.0
G1 Y129.9321
G1 Y128.4321 Z-8.0
G1 Y114.4321
G1 Y112.9321 Z-6.0
G1 Y109.9321
G1 Y108.4321 Z-8.0
G1 Y94.4321
G1 Y92.9321 Z-6.0
G1 Y89.9321
G1 Y88.4321 Z-8.0
G1 Y74.4321
G1 Y72.9321 Z-6.0
G1 Y69.9321
G1 Y68.4321 Z-8.0
G1 Y54.3482
G1 Y52.8456 Z-6.0
G1 Y52.6372
G3 X25.2132 Y49.8513 I14.6517 J-0.4279
G3 X25.5346 Y48.3676 Z-8.0 I14.467 J2.358
G3 X36.7988 Y37.8374 I14.1455 J3.8416
G3 X38.3007 Y37.6164 Z-6.0 I2.8814 J14.3719
G3 X40.1081 Y37.5576 I1.3795 J14.5929
G1 X41.3013
G1 X42.8013 Z-8.0
G1 X56.7888
G1 X58.2888 Z-6.0
G1 X61.2888
G1 X62.7888 Z-8.0
G1 X76.7888
G1 X78.2888 Z-6.0
G1 X81.2888
G1 X82.7888 Z-8.0
G1 X96.7888
G1 X98.2888 Z-6.0
G1 X101.2888
G1 X102.7888 Z-8.0
G1 X108.0747
G1 X115.3699 Y34.1564
G1 X116.7294 Y33.5226 Z-6.0
G1 X119.4484 Y32.2549
G1 X120.8079 Y31.6211 Z-8.0
G1 X133.4967 Y25.7053
G1 X134.8562 Y25.0715 Z-6.0
G1 X137.5752 Y23.8038
G1 X138.9347 Y23.17 Z-8.0
G1 X151.6234 Y17.2542
G1 X152.9829 Y16.6204 Z-6.0
G1 X155.7019 Y15.3527
G1 X157.0614 Y14.7189 Z-8.0
G1 X169.7502 Y8.8031
G1 X171.1097 Y8.1693 Z-6.0
G1 X173.8287 Y6.9016
G1 X175.1882 Y6.2678 Z-8.0
G1 X185.0242 Y1.682
G3 X185.1223 Y1.6338 I1.5928 J3.1165
G3 X189.2319 Y0.8155 I3.6936 J7.8207
G3 X190.7711 Y1.0293 Z-6.0 I-0.416 J8.639
G3 X193.5315 Y2.2041 I-1.9552 J8.4251
G3 X194.7528 Y3.1649 Z-8.0 I-4.7156 J7.2504
G3 X196.6385 Y5.7648 I-5.9369 J6.2896
G3 X196.6413 Y5.7708 I-1.3567 J0.6399
G1 X196.6679 Y5.8279
G1 X201.627 Y16.4629
G1 X202.2609 Y17.8224 Z-6.0
G1 X203.5288 Y20.5413
G1 X204.1627 Y21.9008 Z-8.0
G1 X210.0792 Y34.5892
G1 X210.7132 Y35.9486 Z-6.0
G1 X211.981 Y38.6676
G1 X212.6149 Y40.027 Z-8.0
G1 X218.3479 Y52.3217
G1 X218.3731 Y52.3757
G3 X218.3757 Y52.3814 I-1.3595 J0.6339
G3 X218.7471 Y53.3299 I-7.8539 J3.6225
G3 X219.0929 Y54.8449 Z-6.0 I-8.2253 J2.674
G3 X218.9732 Y57.8425 I-8.571 J1.159
G3 X218.5078 Y59.3251 Z-8.0 I-8.4514 J-1.8386
G3 X214.2116 Y63.8264 I-7.9859 J-3.3212
G3 X214.2056 Y63.8292 I-0.6399 J-1.3567
G1 X214.1485 Y63.8558
G1 X205.8617 Y67.72
G1 X204.5023 Y68.3539 Z-6.0
G1 X201.7833 Y69.6217
G1 X200.4239 Y70.2557 Z-8.0
G1 X187.7355 Y76.1723
G1 X186.3761 Y76.8062 Z-6.0
G1 X183.6571 Y78.074
G1 X182.2977 Y78.708 Z-8.0
G1 X181.0617 Y79.2843
G1 X179.3351 Y80.0894
G1 Y88.9094
G1 Y90.4094 Z-6.0
G1 Y93.4094
G1 Y94.9094 Z-8.0
G1 Y108.9094
G1 Y110.4094 Z-6.0
G1 Y113.4094
G1 Y114.9094 Z-8.0
G1 Y128.9094
G1 Y130.4094 Z-6.0
G1 Y133.4094
G1 Y134.9094 Z-8.0
G1 Y148.9094
G1 Y150.4094 Z-6.0
G1 Y153.4094
G1 Y154.9094 Z-8.0
G1 Y160.4924
G3 X173.5888 Y168.7394 I-8.5427 J0.1731
G3 X172.0789 Y169.1126 Z-6.0 I-2.7964 J-8.0739
G3 X170.5872 Y169.2075 I-1.2865 J-8.4471
G1 X169.0755
G1 X167.575 Z-8.0
G1 X160.614
G0 Z3.0
G0 Y175.7084
G0 Z-5.0
G1 F300.0 Z-7.0
G1 F600.0 X167.575
G1 X169.0755 Z-6.0
G1 X170.5872
G3 X172.0789 Y175.8033 I0.2052 J8.542
G3 X173.5888 Y176.1765 Z-7.0 I-1.2865 J8.4471
G3 X179.3351 Y184.4235 I-2.7964 J8.0739
G1 Y190.0065
G1 Y191.5065 Z-6.0
G1 Y194.5065
G1 Y196.0065 Z-7.0
G1 Y210.0065
G1 Y211.5065 Z-6.0
G1 Y214.5065
G1 Y216.0065 Z-7.0
G1 Y230.0065
G1 Y231.5065 Z-6.0
G1 Y234.5065
G1 Y236.0065 Z-7.0
G1 Y250.0065
G1 Y251.5065 Z-6.0
G1 Y254.5065
G1 Y256.0065 Z-7.0
G1 Y264.8265
G1 X181.0617 Y265.6316
G1 X182.2977 Y266.2079
G1 X183.6571 Y266.8419 Z-6.0
G1 X186.3761 Y268.1097
G1 X187.7355 Y268.7436 Z-7.0
G1 X200.4239 Y274.6602
G1 X201.7833 Y275.2942 Z-6.0
G1 X204.5023 Y276.562
G1 X205.8617 Y277.1959 Z-7.0
G1 X214.1485 Y281.0601
G1 X214.2056 Y281.0867
G3 X214.2116 Y281.0895 I-0.6339 J1.3595
G3 X218.5078 Y285.5908 I-3.6897 J7.8225
G3 X218.9732 Y287.0734 Z-6.0 I-7.9859 J3.3212
G3 X219.0929 Y290.071 I-8.4514 J1.8386
G3 X218.7471 Y291.586 Z-7.0 I-8.571 J-1.159
G3 X218.3757 Y292.5345 I-8.2253 J-2.674
G3 X218.3731 Y292.5402 I-1.3621 J-0.6282
G1 X218.3479 Y292.5942
G1 X212.6149 Y304.8889
G1 X211.981 Y306.2483 Z-6.0
G1 X210.7132 Y308.9673
G1 X210.0792 Y310.3267 Z-7.0
G1 X204.1627 Y323.0151
G1 X203.5288 Y324.3745 Z-6.0
G1 X202.2609 Y327.0935
G1 X201.627 Y328.4529 Z-7.0
G1 X196.6679 Y339.088
G1 X196.6413 Y339.1451
G3 X196.6385 Y339.1511 I-1.3595 J-0.6339
G3 X194.7528 Y341.751 I-7.8225 J-3.6897
G3 X193.5315 Y342.7118 Z-6.0 I-5.9369 J-6.2896
G3 X190.7711 Y343.8866 I-4.7156 J-7.2504
G3 X189.2319 Y344.1004 Z-7.0 I-1.9552 J-8.4251
G3 X185.1223 Y343.2821 I-0.416 J-8.639
G3 X185.0242 Y343.2338 I1.4947 J-3.1648
G1 X175.1882 Y338.6481
G1 X173.8287 Y338.0143 Z-6.0
G1 X171.1097 Y336.7466
G1 X169.7502 Y336.1128 Z-7.0
G1 X157.0614 Y330.197
G1 X155.7019 Y329.5632 Z-6.0
G1 X152.9829 Y328.2955
G1 X151.6234 Y327.6617 Z-7.0
G1 X138.9347 Y321.7459
G1 X137.5752 Y321.1121 Z-6.0
G1 X134.8562 Y319.8444
G1 X133.4967 Y319.2106 Z-7.0
G1 X120.8079 Y313.2948
G1 X119.4484 Y312.661 Z-6.0
G1 X116.7294 Y311.3933
G1 X115.3699 Y310.7595 Z-7.0
G1 X108.0747 Y307.3583
G1 X102.7888
G1 X101.2888 Z-6.0
G1 X98.2888
G1 X96.7888 Z-7.0
G1 X82.7888
G1 X81.2888 Z-6.0
G1 X78.2888
G1 X76.7888 Z-7.0
G1 X62.7888
G1 X61.2888 Z-6.0
G1 X58.2888
G1 X56.7888 Z-7.0
G1 X42.8013
G1 X41.3013 Z-6.0
G1 X40.1081
G3 X38.3007 Y307.2995 I-0.4279 J-14.6517
G3 X36.7988 Y307.0785 Z-7.0 I1.3795 J-14.5929
G3 X25.5346 Y296.5482 I2.8814 J-14.3719
G3 X25.2132 Y295.0646 Z-6.0 I14.1455 J-3.8416
G3 X25.0285 Y292.2787 I14.467 J-2.358
G1 Y292.0703
G1 Y290.5677 Z-7.0
G1 Y276.4838
G1 Y274.9838 Z-6.0
G1 Y271.9838
G1 Y270.4838 Z-7.0
G1 Y256.4838
G1 Y254.9838 Z-6.0
G1 Y251.9838
G1 Y250.4838 Z-7.0
G1 Y236.4838
G1 Y234.9838 Z-6.0
G1 Y231.9838
G1 Y230.4838 Z-7.0
G1 Y216.4838
G1 Y214.9838 Z-6.0
G1 Y211.9838
G1 Y210.4838 Z-7.0
G1 Y196.4838
G1 Y194.9838 Z-6.0
G1 Y191.9838
G1 Y190.4838 Z-7.0
G1 Y184.4235
G3 X30.2347 Y176.3843 I8.5427 J-0.1731
G3 X31.7159 Y175.9098 Z-6.0 I3.3366 J7.8661
G3 X33.7764 Y175.7084 I1.8554 J8.3406
G1 X34.71
G1 X36.2114 Z-7.0
G1 X50.2724
G1 X51.7724 Z-6.0
G1 X54.7724
G1 X56.2724 Z-7.0
G1 X70.2724
G1 X71.7724 Z-6.0
G1 X74.7724
G1 X76.2724 Z-7.0
G1 X90.2724
G1 X90.9788 Z-6.529
G1 X91.7724 Z-6.0
G1 X94.7724
G1 X96.2724 Z-7.0
G1 X110.2724
G1 X111.7724 Z-6.0
G1 X114.7724
G1 X116.2724 Z-7.0
G1 X130.2724
G1 X131.7724 Z-6.0
G1 X134.7724
G1 X136.2724 Z-7.0
G1 X150.2724
G1 X151.7724 Z-6.0
G1 X154.7724
G1 X156.2724 Z-7.0
G1 X160.614
G1 F300.0 Z-8.0
G1 F600.0 X167.575
G1 X169.0755 Z-6.0
G1 X170.5872
G3 X172.0789 Y175.8033 I0.2052 J8.542
G3 X173.5888 Y176.1765 Z-8.0 I-1.2865 J8.4471
G3 X179.3351 Y184.4235 I-2.7964 J8.0739
G1 Y190.0065
G1 Y191.5065 Z-6.0
G1 Y194.5065
G1 Y196.0065 Z-8.0
G1 Y210.0065
G1 Y211.5065 Z-6.0
G1 Y214.5065
G1 Y216.0065 Z-8.0
G1 Y230.0065
G1 Y231.5065 Z-6.0
G1 Y234.5065
G1 Y236.0065 Z-8.0
G1 Y250.0065
G1 Y251.5065 Z-6.0
G1 Y254.5065
G1 Y256.0065 Z-8.0
G1 Y264.8265
G1 X181.0617 Y265.6316
G1 X182.2977 Y266.2079
G1 X183.6571 Y266.8419 Z-6.0
G1 X186.3761 Y268.1097
G1 X187.7355 Y268.7436 Z-8.0
G1 X200.4239 Y274.6602
G1 X201.7833 Y275.2942 Z-6.0
G1 X204.5023 Y276.562
G1 X205.8617 Y277.1959 Z-8.0
G1 X214.1485 Y281.0601
G1 X214.2056 Y281.0867
G3 X214.2116 Y281.0895 I-0.6339 J1.3595
G3 X218.5078 Y285.5908 I-3.6897 J7.8225
G3 X218.9732 Y287.0734 Z-6.0 I-7.9859 J3.3212
G3 X219.0929 Y290.071 I-8.4514 J1.8386
G3 X218.7471 Y291.586 Z-8.0 I-8.571 J-1.159
G3 X218.3757 Y292.5345 I-8.2253 J-2.674
G3 X218.3731 Y292.5402 I-1.3621 J-0.6282
G1 X218.3479 Y292.5942
G1 X212.6149 Y304.8889
G1 X211.981 Y306.2483 Z-6.0
G1 X210.7132 Y308.9673
G1 X210.0792 Y310.3267 Z-8.0
G1 X204.1627 Y323.0151
G1 X203.5288 Y324.3745 Z-6.0
G1 X202.2609 Y327.0935
G1 X201.627 Y328.4529 Z-8.0
G1 X196.6679 Y339.088
G1 X196.6413 Y339.1451
G3 X196.6385 Y339.1511 I-1.3595 J-0.6339
G3 X194.7528 Y341.751 I-7.8225 J-3.6897
G3 X193.5315 Y342.7118 Z-6.0 I-5.9369 J-6.2896
G3 X190.7711 Y343.8866 I-4.7156 J-7.2504
G3 X189.2319 Y344.1004 Z-8.0 I-1.9552 J-8.4251
G3 X185.1223 Y343.2821 I-0.416 J-8.639
G3 X185.0242 Y343.2338 I1.4947 J-3.1648
G1 X175.1882 Y338.6481
G1 X173.8287 Y338.0143 Z-6.0
G1 X171.1097 Y336.7466
G1 X169.7502 Y336.1128 Z-8.0
G1 X157.0614 Y330.197
G1 X155.7019 Y329.5632 Z-6.0
G1 X152.9829 Y328.2955
G1 X151.6234 Y327.6617 Z-8.0
G1 X138.9347 Y321.7459
G1 X137.5752 Y321.1121 Z-6.0
G1 X134.8562 Y319.8444
G1 X133.4967 Y319.2106 Z-8.0
G1 X120.8079 Y313.2948
G1 X119.4484 Y312.661 Z-6.0
G1 X116.7294 Y311.3933
G1 X115.3699 Y310.7595 Z-8.0
G1 X108.0747 Y307.3583
G1 X102.7888
G1 X101.2888 Z-6.0
G1 X98.2888
G1 X96.7888 Z-8.0
G1 X82.7888
G1 X81.2888 Z-6.0
G1 X78.2888
G1 X76.7888 Z-8.0
G1 X62.7888
G1 X61.2888 Z-6.0
G1 X58.2888
G1 X56.7888 Z-8.0
G1 X42.8013
G1 X41.3013 Z-6.0
G1 X40.1081
G3 X38.3007 Y307.2995 I-0.4279 J-14.6517
G3 X36.7988 Y307.0785 Z-8.0 I1.3795 J-14.5929
G3 X25.5346 Y296.5482 I2.8814 J-14.3719
G3 X25.2132 Y295.0646 Z-6.0 I14.1455 J-3.8416
G3 X25.0285 Y292.2787 I14.467 J-2.358
G1 Y292.0703
G1 Y290.5677 Z-8.0
G1 Y276.4838
G1 Y274.9838 Z-6.0
G1 Y271.9838
G1 Y270.4838 Z-8.0
G1 Y256.4838
G1 Y254.9838 Z-6.0
G1 Y251.9838
G1 Y250.4838 Z-8.0
G1 Y236.4838
G1 Y234.9838 Z-6.0
G1 Y231.9838
G1 Y230.4838 Z-8.0
G1 Y216.4838
G1 Y214.9838 Z-6.0
G1 Y211.9838
G1 Y210.4838 Z-8.0
G1 Y196.4838
G1 Y194.9838 Z-6.0
G1 Y191.9838
G1 Y190.4838 Z-8.0
G1 Y184.4235
G3 X30.2347 Y176.3843 I8.5427 J-0.1731
G3 X31.7159 Y175.9098 Z-6.0 I3.3366 J7.8661
G3 X33.7764 Y175.7084 I1.8554 J8.3406
G1 X34.71
G1 X36.2114 Z-8.0
G1 X50.2724
G1 X51.7724 Z-6.0
G1 X54.7724
G1 X56.2724 Z-8.0
G1 X70.2724
G1 X71.7724 Z-6.0
G1 X74.7724
G1 X76.2724 Z-8.0
G1 X90.2724
G1 X90.9788 Z-7.0581
G1 X91.7724 Z-6.0
G1 X94.7724
G1 X96.2724 Z-8.0
G1 X110.2724
G1 X111.7724 Z-6.0
G1 X114.7724
G1 X116.2724 Z-8.0
G1 X130.2724
G1 X131.7724 Z-6.0
G1 X134.7724
G1 X136.2724 Z-8.0
G1 X150.2724
G1 X151.7724 Z-6.0
G1 X154.7724
G1 X156.2724 Z-8.0
G1 X160.614
( Cutout Finishing )
S1000
G0 Z3.0
G0 Y169.1075
G0 Z1.0
G1 F400.0 Z-8.0
G1 X155.1724
G1 X154.6724 Z-7.0
G1 X151.8724
G1 X151.3724 Z-8.0
G1 X135.1724
G1 X134.6724 Z-7.0
G1 X131.8724
G1 X131.3724 Z-8.0
G1 X115.1724
G1 X114.6724 Z-7.0
G1 X111.8724
G1 X111.3724 Z-8.0
G1 X95.1724
G1 X94.6724 Z-7.0
G1 X91.8724
G1 X91.3724 Z-8.0
G1 X90.9788
G1 X75.1724
G1 X74.6724 Z-7.0
G1 X71.8724
G1 X71.3724 Z-8.0
G1 X55.1724
G1 X54.6724 Z-7.0
G1 X51.8724
G1 X51.3724 Z-8.0
G1 X35.1146
G1 X34.6142 Z-7.0
G1 X33.7752
G3 X31.8193 Y168.9262 I-0.204 J-8.442
G3 X31.324 Y168.8055 Z-8.0 I1.7519 J-8.2608
G3 X25.1285 Y160.4934 I2.2472 J-8.14
G1 Y153.3321
G1 Y152.8321 Z-7.0
G1 Y150.0321
G1 Y149.5321 Z-8.0
G1 Y133.3321
G1 Y132.8321 Z-7.0
G1 Y130.0321
G1 Y129.5321 Z-8.0
G1 Y113.3321
G1 Y112.8321 Z-7.0
G1 Y110.0321
G1 Y109.5321 Z-8.0
G1 Y93.3321
G1 Y92.8321 Z-7.0
G1 Y90.0321
G1 Y89.5321 Z-8.0
G1 Y73.3321
G1 Y72.8321 Z-7.0
G1 Y70.0321
G1 Y69.5321 Z-8.0
G1 Y53.2522
G1 Y52.7513 Z-7.0
G1 Y52.6357
G3 X25.2976 Y49.9564 I14.5517 J-0.4264
G3 X25.3841 Y49.4607 Z-8.0 I14.3825 J2.2529
G3 X37.8995 Y37.7607 I14.2961 J2.7486
G3 X38.3999 Y37.7078 Z-7.0 I1.7807 J14.4486
G3 X40.1066 Y37.6576 I1.2802 J14.5015
G1 X41.2004
G1 X41.7004 Z-8.0
G1 X57.8888
G1 X58.3888 Z-7.0
G1 X61.1888
G1 X61.6888 Z-8.0
G1 X77.8888
G1 X78.3888 Z-7.0
G1 X81.1888
G1 X81.6888 Z-8.0
G1 X97.8888
G1 X98.3888 Z-7.0
G1 X101.1888
G1 X101.6888 Z-8.0
G1 X108.0968
G1 X116.4091 Y33.7823
G1 X116.8623 Y33.571 Z-7.0
G1 X119.4001 Y32.3878
G1 X119.8532 Y32.1765 Z-8.0
G1 X134.5359 Y25.3312
G1 X134.9891 Y25.1199 Z-7.0
G1 X137.5268 Y23.9367
G1 X137.98 Y23.7254 Z-8.0
G1 X152.6626 Y16.8801
G1 X153.1158 Y16.6688 Z-7.0
G1 X155.6536 Y15.4856
G1 X156.1067 Y15.2743 Z-8.0
G1 X170.7894 Y8.429
G1 X171.2426 Y8.2177 Z-7.0
G1 X173.7803 Y7.0345
G1 X174.2335 Y6.8232 Z-8.0
G1 X185.0681 Y1.7719
G3 X185.165 Y1.7242 I1.5489 J3.0267
G3 X190.3315 Y1.0409 I3.6509 J7.7303
G3 X190.8301 Y1.1461 Z-7.0 I-1.5156 J8.4136
G3 X193.4065 Y2.2425 I-2.0142 J8.3084
G3 X193.828 Y2.5288 Z-8.0 I-4.5906 J7.212
G3 X196.548 Y5.8075 I-5.0121 J6.9257
G3 X196.5506 Y5.8131 I-1.2662 J0.5972
G1 X196.5772 Y5.8701
G1 X202.0012 Y17.5021
G1 X202.2125 Y17.9553 Z-7.0
G1 X203.3959 Y20.493
G1 X203.6072 Y20.9461 Z-8.0
G1 X210.4535 Y35.6284
G1 X210.6648 Y36.0815 Z-7.0
G1 X211.8481 Y38.6192
G1 X212.0594 Y39.0723 Z-8.0
G1 X218.2573 Y52.364
G1 X218.2825 Y52.418
G3 X218.2849 Y52.4233 I-1.2688 J0.5917
G3 X218.9262 Y54.4379 I-7.7631 J3.5806
G3 X219.0046 Y54.9414 Z-7.0 I-8.4044 J1.566
G3 X218.8929 Y57.7392 I-8.4828 J1.0625
G3 X218.7746 Y58.2349 Z-8.0 I-8.3711 J-1.7353
G3 X214.1689 Y63.7359 I-8.2528 J-2.231
G3 X214.1633 Y63.7386 I-0.5972 J-1.2662
G1 X214.1062 Y63.7652
G1 X204.8225 Y68.0942
G1 X204.3694 Y68.3055 Z-7.0
G1 X201.8317 Y69.4888
G1 X201.3785 Y69.7002 Z-8.0
G1 X186.6963 Y76.5465
