( Made using CamBam - http://www.cambam.co.uk )
( Parts 11/2/2013 9:14:15 AM )
( T3 : 3.0 )
G21 G90 G64 G40
G0 Z3.0
( T3 : 3.0 )
T3 M6
( Profile2 )
G17
M3 S1000
G0 X170.5 Y125.3456
G0 Z1.0
G1 F300.0 Z-4.0
G3 F1300.0 X170.0018 Y124.2292 I1.0018 J-1.1164
G1 Y123.4532
G1 X170.4411 Y123.0139
G1 X170.0018 Y123.4532
G1 X169.7238
G3 X168.4424 Y122.733 I0.0 J-1.5
G1 X163.0419 Y122.7335
G1 X162.6019 Y122.2939
G1 X163.0419 Y122.7335
G1 X163.0428 Y124.2282
G3 X161.5428 Y125.7292 I-1.5 J0.001
G1 X160.0
G1 X159.5607 Y125.2899
G1 X160.0 Y125.7292
G1 Y135.5
G1 X159.5607 Y135.9393
G1 X160.0 Y135.5
G1 X160.5
G3 X162.0 Y137.001 I0.0 J1.5
G1 X161.999 Y138.4957
G1 X161.5591 Y138.9353
G1 X161.999 Y138.4957
G1 X168.3613 Y138.4963
G3 X169.7238 Y137.6236 I1.3625 J0.6273
G1 X170.0018
G1 X170.4411 Y138.0629
G1 X170.0018 Y137.6236
G1 Y137.0
G3 X170.5 Y135.8836 I1.5 J0.0
G1 Y133.5
G3 X172.0 Y132.0 I1.5 J0.0
G1 X173.5008
G3 X175.0008 Y133.5 I0.0 J1.5
G1 Y134.0188
G1 X180.0213 Y147.6475
G3 X180.1138 Y148.166 I-1.4075 J0.5185
G1 X180.1137 Y156.279
G1 Y156.2791
G1 Y156.2792
G3 X171.6137 Y164.779 I-8.5 J-0.0002
G1 X92.725
G2 X87.7402 Y167.9547 I0.0 J5.5
G1 X72.1621 Y201.365
G3 X60.8662 Y205.4766 I-7.7037 J-3.592
G1 X5.1849 Y179.5122
G3 X1.0732 Y168.2169 I3.5922 J-7.7036
G1 X38.1686 Y88.6489
G2 X38.6837 Y86.3249 I-4.9849 J-2.324
G1 Y9.1922
G3 X47.1837 Y0.6922 I8.5 J0.0
G1 X171.6137
G3 X175.206 Y1.4886 I0.0 J8.5
G3 X180.1137 Y9.1922 I-3.5923 J7.7036
G1 X180.1138 Y64.7016
G3 X179.9284 Y65.424 I-1.5 J0.0
G1 X175.0009 Y74.3916
G1 X175.0008 Y75.5069
G3 X173.5008 Y77.0068 I-1.5 J-0.0001
G1 X171.5018
G3 X170.0018 Y75.5068 I0.0 J-1.5
G1 Y75.0916
G1 X170.4411 Y74.6523
G1 X170.0018 Y75.0916
G1 X169.7238
G3 X168.2238 Y73.5916 I0.0 J-1.5
G1 Y26.5
G1 X151.5
G1 X151.0607 Y26.0607
G1 X151.5 Y26.5
G1 Y56.2809
G1 X151.0607 Y56.7202
G1 X151.5 Y56.2809
G1 X152.0
G3 X153.5 Y57.7809 I0.0 J1.5
G1 Y96.5
G1 X153.0607 Y96.9393
G1 X153.5 Y96.5
G1 X163.347
G1 X163.7863 Y96.9393
G1 X163.347 Y96.5
G1 Y86.0
G3 X164.847 Y84.5 I1.5 J0.0
G1 X168.3481
G3 X169.7238 Y83.5978 I1.3757 J0.5978
G1 X170.0018
G1 X170.4411 Y84.0371
G1 X170.0018 Y83.5978
G1 Y83.208
G3 X171.5018 Y81.708 I1.5 J0.0
G1 X173.5008
G3 X175.0008 Y83.2079 I0.0 J1.5
G1 X175.0009 Y84.2977
G1 X179.9285 Y93.2654
G3 X180.1139 Y93.9878 I-1.3146 J0.7224
G1 X180.1138 Y113.0632
G3 X180.0213 Y113.5817 I-1.5 J0.0
G1 X175.0008 Y127.2104
G1 Y127.5
G3 X173.5008 Y129.0 I-1.5 J0.0
G1 X172.0
G3 X170.5 Y127.5 I0.0 J-1.5
G1 Y125.3456
G0 Z3.0
G0 X191.4483 Y135.1119
G0 Z1.0
G1 F300.0 Z-4.0
G1 F1300.0 X212.7143 Y89.4972
G2 X213.2295 Y87.1732 I-4.9849 J-2.324
G1 Y10.0404
G3 X221.7295 Y1.5404 I8.5 J0.0
G1 X346.1595
G3 X354.6595 Y10.0404 I0.0 J8.5
G1 Y65.5498
G1 Y65.55
G1 Y94.836
G1 Y113.9114
G1 Y149.0142
G1 Y157.1272
G3 X346.1595 Y165.6272 I-8.5 J0.0
G1 X267.2708
G2 X262.286 Y168.8029 I0.0 J5.5
G1 X246.7079 Y202.2132
G3 X235.4119 Y206.3248 I-7.7037 J-3.592
G1 X179.7306 Y180.3604
G3 X175.619 Y169.0651 I3.5922 J-7.7036
G1 X191.4483 Y135.1119
G1 F300.0 Z-8.0
G1 F1300.0 X212.7143 Y89.4972
G2 X213.2295 Y87.1732 I-4.9849 J-2.324
G1 Y10.0404
G3 X221.7295 Y1.5404 I8.5 J0.0
G1 X346.1595
G3 X354.6595 Y10.0404 I0.0 J8.5
G1 Y65.5498
G1 Y65.55
G1 Y94.836
G1 Y113.9114
G1 Y149.0142
G1 Y157.1272
G3 X346.1595 Y165.6272 I-8.5 J0.0
G1 X267.2708
G2 X262.286 Y168.8029 I0.0 J5.5
G1 X246.7079 Y202.2132
G3 X235.4119 Y206.3248 I-7.7037 J-3.592
G1 X179.7306 Y180.3604
G3 X175.619 Y169.0651 I3.5922 J-7.7036
G1 X191.4483 Y135.1119
G0 Z3.0
G0 X177.3207 Y140.3163
G0 Z-3.0
G1 F300.0 Z-8.0
G1 F1300.0 X180.0213 Y147.6475
G3 X180.1138 Y148.166 I-1.4075 J0.5185
G1 X180.1137 Y156.279
G1 Y156.2791
G1 Y156.2792
G3 X171.6137 Y164.779 I-8.5 J-0.0002
G1 X92.725
G2 X87.7402 Y167.9547 I0.0 J5.5
G1 X72.1621 Y201.365
G3 X60.8662 Y205.4766 I-7.7037 J-3.592
G1 X5.1849 Y179.5122
G3 X1.0732 Y168.2169 I3.5922 J-7.7036
G1 X38.1686 Y88.6489
G2 X38.6837 Y86.3249 I-4.9849 J-2.324
G1 Y9.1922
G3 X47.1837 Y0.6922 I8.5 J0.0
G1 X171.6137
G3 X175.206 Y1.4886 I0.0 J8.5
G3 X180.1137 Y9.1922 I-3.5923 J7.7036
G1 X180.1138 Y64.7016
G3 X179.9284 Y65.424 I-1.5 J0.0
G1 X175.0009 Y74.3916
G1 X175.0008 Y75.5069
G3 X173.5008 Y77.0068 I-1.5 J-0.0001
G1 X171.5018
G3 X170.0018 Y75.5068 I0.0 J-1.5
G1 Y75.0916
G1 X170.4411 Y74.6523
G1 X170.0018 Y75.0916
G1 X169.7238
G3 X168.2238 Y73.5916 I0.0 J-1.5
G1 Y26.5
G1 X151.5
G1 X151.0607 Y26.0607
G1 X151.5 Y26.5
G1 Y56.2809
G1 X151.0607 Y56.7202
G1 X151.5 Y56.2809
G1 X152.0
G3 X153.5 Y57.7809 I0.0 J1.5
G1 Y96.5
G1 X153.0607 Y96.9393
G1 X153.5 Y96.5
G1 X163.347
G1 X163.7863 Y96.9393
G1 X163.347 Y96.5
G1 Y86.0
G3 X164.847 Y84.5 I1.5 J0.0
G1 X168.3481
G3 X169.7238 Y83.5978 I1.3757 J0.5978
G1 X170.0018
G1 X170.4411 Y84.0371
G1 X170.0018 Y83.5978
G1 Y83.208
G3 X171.5018 Y81.708 I1.5 J0.0
G1 X173.5008
G3 X175.0008 Y83.2079 I0.0 J1.5
G1 X175.0009 Y84.2977
G1 X179.9285 Y93.2654
G3 X180.1139 Y93.9878 I-1.3146 J0.7224
G1 X180.1138 Y113.0632
G3 X180.0213 Y113.5817 I-1.5 J0.0
G1 X175.0008 Y127.2104
G1 Y127.5
G3 X173.5008 Y129.0 I-1.5 J0.0
G1 X172.0
G3 X170.5 Y127.5 I0.0 J-1.5
G1 Y125.3456
G3 X170.0018 Y124.2292 I1.0018 J-1.1164
G1 Y123.4532
G1 X170.4411 Y123.0139
G1 X170.0018 Y123.4532
G1 X169.7238
G3 X168.4424 Y122.733 I0.0 J-1.5
G1 X163.0419 Y122.7335
G1 X162.6019 Y122.2939
G1 X163.0419 Y122.7335
G1 X163.0428 Y124.2282
G3 X161.5428 Y125.7292 I-1.5 J0.001
G1 X160.0
G1 X159.5607 Y125.2899
G1 X160.0 Y125.7292
G1 Y135.5
G1 X159.5607 Y135.9393
G1 X160.0 Y135.5
G1 X160.5
G3 X162.0 Y137.001 I0.0 J1.5
G1 X161.999 Y138.4957
G1 X161.5591 Y138.9353
G1 X161.999 Y138.4957
G1 X168.3613 Y138.4963
G3 X169.7238 Y137.6236 I1.3625 J0.6273
G1 X170.0018
G1 X170.4411 Y138.0629
G1 X170.0018 Y137.6236
G1 Y137.0
G3 X170.5 Y135.8836 I1.5 J0.0
G1 Y133.5
G3 X172.0 Y132.0 I1.5 J0.0
G1 X173.5008
G3 X175.0008 Y133.5 I0.0 J1.5
G1 Y134.0188
G1 X177.3207 Y140.3163
G0 Z3.0
G0 X214.8355 Y220.7678
G0 Z1.0
G1 F300.0 Z-4.0
G1 F1300.0 X235.7441 Y211.018
G3 X247.04 Y215.1297 I3.5922 J7.7036
G1 X262.6182 Y248.5399
G2 X267.6029 Y251.7157 I4.9848 J-2.3242
G1 X346.4916
G3 X354.9916 Y260.2157 I0.0 J8.5
G1 Y268.3287
G1 Y303.4315
G1 Y322.5069
G1 Y351.7928
G1 Y351.793
G1 Y407.3025
G3 X346.4916 Y415.8025 I-8.5 J0.0
G1 X222.0616
G3 X213.5616 Y407.3025 I0.0 J-8.5
G1 Y330.1697
G2 X213.0465 Y327.8457 I-5.5 J0.0
G1 X175.9511 Y248.2777
G3 X180.0628 Y236.9824 I7.7039 J-3.5916
G1 X214.8355 Y220.7678
G0 Z3.0
G0 X177.9278 Y254.0305
G0 Z1.0
G1 F300.0 Z-4.0
G3 F1300.0 X180.1137 Y259.7208 I-6.3141 J5.6905
G1 Y259.7209
G1 Y259.721
G1 X180.1138 Y267.834
G3 X180.0213 Y268.3525 I-1.5 J0.0
G1 X175.0008 Y281.9812
G1 Y282.5
G3 X173.5008 Y284.0 I-1.5 J0.0
G1 X172.0
G3 X170.5 Y282.5 I0.0 J-1.5
G1 Y280.1164
G3 X170.0018 Y279.0 I1.0018 J-1.1164
G1 Y278.3764
G1 X170.4411 Y277.9371
G1 X170.0018 Y278.3764
G1 X169.7238
G3 X168.3613 Y277.5037 I0.0 J-1.5
G1 X161.999 Y277.5043
G1 X161.5591 Y277.0647
G1 X161.999 Y277.5043
G1 X162.0 Y278.999
G3 X160.5 Y280.5 I-1.5 J0.001
G1 X160.0
G1 X159.5607 Y280.0607
G1 X160.0 Y280.5
G1 Y290.2708
G1 X159.5607 Y290.7101
G1 X160.0 Y290.2708
G1 X161.5428
G3 X163.0428 Y291.7718 I0.0 J1.5
G1 X163.0419 Y293.2665
G1 X162.6019 Y293.7061
G1 X163.0419 Y293.2665
G1 X168.4424 Y293.267
G3 X169.7238 Y292.5468 I1.2814 J0.7798
G1 X170.0018
G1 X170.4411 Y292.9861
G1 X170.0018 Y292.5468
G1 Y291.7708
G3 X170.5 Y290.6544 I1.5 J0.0
G1 Y288.5
G3 X172.0 Y287.0 I1.5 J0.0
G1 X173.5008
G3 X175.0008 Y288.5 I0.0 J1.5
G1 Y288.7896
G1 X180.0213 Y302.4183
G3 X180.1138 Y302.9368 I-1.4075 J0.5185
G1 X180.1139 Y322.0122
G3 X179.9285 Y322.7346 I-1.5 J0.0
G1 X175.0009 Y331.7023
G1 X175.0008 Y332.7921
G3 X173.5008 Y334.292 I-1.5 J-0.0001
G1 X171.5018
G3 X170.0018 Y332.792 I0.0 J-1.5
G1 Y332.4022
G1 X170.4411 Y331.9629
G1 X170.0018 Y332.4022
G1 X169.7238
G3 X168.3481 Y331.5 I0.0 J-1.5
G1 X164.847
G3 X163.347 Y330.0 I0.0 J-1.5
G1 Y319.5
G1 X163.7863 Y319.0607
G1 X163.347 Y319.5
G1 X153.5
G1 X153.0607 Y319.0607
G1 X153.5 Y319.5
G1 Y358.2191
G3 X152.0 Y359.7191 I-1.5 J0.0
G1 X151.5
G1 X151.0607 Y359.2798
G1 X151.5 Y359.7191
G1 Y389.5
G1 X151.0607 Y389.9393
G1 X151.5 Y389.5
G1 X168.2238
G1 Y342.4084
G3 X169.7238 Y340.9084 I1.5 J0.0
G1 X170.0018
G1 X170.4411 Y341.3477
G1 X170.0018 Y340.9084
G1 Y340.4932
G3 X171.5018 Y338.9932 I1.5 J0.0
G1 X173.5008
G3 X175.0008 Y340.4931 I0.0 J1.5
G1 X175.0009 Y341.6084
G1 X179.9284 Y350.576
G3 X180.1138 Y351.2984 I-1.3146 J0.7224
G1 X180.1137 Y406.8078
G3 X175.206 Y414.5114 I-8.5 J0.0
G3 X171.6137 Y415.3078 I-3.5923 J-7.7036
G1 X47.1837
G3 X38.6837 Y406.8078 I0.0 J-8.5
G1 Y329.6751
G2 X38.1686 Y327.3511 I-5.5 J0.0
G1 X1.0732 Y247.7831
G3 X5.1849 Y236.4878 I7.7039 J-3.5916
G1 X60.8662 Y210.5234
G3 X72.1621 Y214.635 I3.5922 J7.7036
G1 X87.7402 Y248.0453
G2 X92.725 Y251.221 I4.9848 J-2.3242
G1 X171.6137
G3 X177.9278 Y254.0305 I0.0 J8.5
G1 F300.0 Z-8.0
G3 F1300.0 X180.1137 Y259.7208 I-6.3141 J5.6905
G1 Y259.7209
G1 Y259.721
G1 X180.1138 Y267.834
G3 X180.0213 Y268.3525 I-1.5 J0.0
G1 X175.0008 Y281.9812
G1 Y282.5
G3 X173.5008 Y284.0 I-1.5 J0.0
G1 X172.0
G3 X170.5 Y282.5 I0.0 J-1.5
G1 Y280.1164
G3 X170.0018 Y279.0 I1.0018 J-1.1164
G1 Y278.3764
G1 X170.4411 Y277.9371
G1 X170.0018 Y278.3764
G1 X169.7238
G3 X168.3613 Y277.5037 I0.0 J-1.5
G1 X161.999 Y277.5043
G1 X161.5591 Y277.0647
G1 X161.999 Y277.5043
G1 X162.0 Y278.999
G3 X160.5 Y280.5 I-1.5 J0.001
G1 X160.0
G1 X159.5607 Y280.0607
G1 X160.0 Y280.5
G1 Y290.2708
G1 X159.5607 Y290.7101
G1 X160.0 Y290.2708
G1 X161.5428
G3 X163.0428 Y291.7718 I0.0 J1.5
G1 X163.0419 Y293.2665
G1 X162.6019 Y293.7061
G1 X163.0419 Y293.2665
G1 X168.4424 Y293.267
G3 X169.7238 Y292.5468 I1.2814 J0.7798
G1 X170.0018
G1 X170.4411 Y292.9861
G1 X170.0018 Y292.5468
G1 Y291.7708
G3 X170.5 Y290.6544 I1.5 J0.0
G1 Y288.5
G3 X172.0 Y287.0 I1.5 J0.0
G1 X173.5008
G3 X175.0008 Y288.5 I0.0 J1.5
G1 Y288.7896
G1 X180.0213 Y302.4183
G3 X180.1138 Y302.9368 I-1.4075 J0.5185
G1 X180.1139 Y322.0122
G3 X179.9285 Y322.7346 I-1.5 J0.0
G1 X175.0009 Y331.7023
G1 X175.0008 Y332.7921
G3 X173.5008 Y334.292 I-1.5 J-0.0001
G1 X171.5018
G3 X170.0018 Y332.792 I0.0 J-1.5
G1 Y332.4022
G1 X170.4411 Y331.9629
G1 X170.0018 Y332.4022
G1 X169.7238
G3 X168.3481 Y331.5 I0.0 J-1.5
G1 X164.847
G3 X163.347 Y330.0 I0.0 J-1.5
G1 Y319.5
G1 X163.7863 Y319.0607
G1 X163.347 Y319.5
G1 X153.5
G1 X153.0607 Y319.0607
G1 X153.5 Y319.5
G1 Y358.2191
G3 X152.0 Y359.7191 I-1.5 J0.0
G1 X151.5
G1 X151.0607 Y359.2798
G1 X151.5 Y359.7191
G1 Y389.5
G1 X151.0607 Y389.9393
G1 X151.5 Y389.5
G1 X168.2238
G1 Y342.4084
G3 X169.7238 Y340.9084 I1.5 J0.0
G1 X170.0018
G1 X170.4411 Y341.3477
G1 X170.0018 Y340.9084
G1 Y340.4932
G3 X171.5018 Y338.9932 I1.5 J0.0
G1 X173.5008
G3 X175.0008 Y340.4931 I0.0 J1.5
G1 X175.0009 Y341.6084
G1 X179.9284 Y350.576
G3 X180.1138 Y351.2984 I-1.3146 J0.7224
G1 X180.1137 Y406.8078
G3 X175.206 Y414.5114 I-8.5 J0.0
G3 X171.6137 Y415.3078 I-3.5923 J-7.7036
G1 X47.1837
G3 X38.6837 Y406.8078 I0.0 J-8.5
G1 Y329.6751
G2 X38.1686 Y327.3511 I-5.5 J0.0
G1 X1.0732 Y247.7831
G3 X5.1849 Y236.4878 I7.7039 J-3.5916
G1 X60.8662 Y210.5234
G3 X72.1621 Y214.635 I3.5922 J7.7036
G1 X87.7402 Y248.0453
G2 X92.725 Y251.221 I4.9848 J-2.3242
G1 X171.6137
G3 X177.9278 Y254.0305 I0.0 J8.5
G1 F300.0 X178.5072 Y253.7604
G1 F1300.0 X175.9511 Y248.2777
G3 X180.0628 Y236.9824 I7.7039 J-3.5916
G1 X235.7441 Y211.018
G3 X247.04 Y215.1297 I3.5922 J7.7036
G1 X262.6182 Y248.5399
G2 X267.6029 Y251.7157 I4.9848 J-2.3242
G1 X346.4916
G3 X354.9916 Y260.2157 I0.0 J8.5
G1 Y268.3287
G1 Y303.4315
G1 Y322.5069
G1 Y351.7928
G1 Y351.793
G1 Y407.3025
G3 X346.4916 Y415.8025 I-8.5 J0.0
G1 X222.0616
G3 X213.5616 Y407.3025 I0.0 J-8.5
G1 Y330.1697
G2 X213.0465 Y327.8457 I-5.5 J0.0
G1 X178.5072 Y253.7604
G0 Z3.0
M5
M30
