( Made using CamBam - http://www.cambam.co.uk )
( Parts 11/2/2013 9:14:01 AM )
( T1 : 1.0 )
G21 G90 G64 G40
G0 Z3.0
( T1 : 1.0 )
T1 M6
( Profile3 )
G17
M3 S1000
G0 X87.0087 Y74.895
G0 Z-4.0
G1 F300.0 Z-7.0
G1 F800.0 X87.4891
G1 X87.6356 Y75.0414
G1 X87.4891 Y74.895
G1 Y61.925
G1 X87.6356 Y61.7786
G1 X87.4891 Y61.925
G1 X87.0087
G3 X86.5087 Y61.425 I0.0 J-0.5
G1 Y61.1122
G1 X86.6551 Y60.9658
G1 X86.5087 Y61.1122
G1 X84.0086
G1 X83.8621 Y60.9658
G1 X84.0086 Y61.1122
G1 Y61.425
G3 X83.5086 Y61.925 I-0.5 J0.0
G1 X78.4997
G3 X77.9997 Y61.425 I0.0 J-0.5
G1 Y61.1122
G1 X78.1461 Y60.9658
G1 X77.9997 Y61.1122
G1 X75.4996
G1 X75.3531 Y60.9658
G1 X75.4996 Y61.1122
G1 Y61.425
G3 X74.9996 Y61.925 I-0.5 J0.0
G1 X74.5191
G1 X74.3727 Y61.7786
G1 X74.5191 Y61.925
G1 Y74.895
G1 X74.3727 Y75.0414
G1 X74.5191 Y74.895
G1 X74.9996
G3 X75.4996 Y75.395 I0.0 J0.5
G1 Y75.7078
G1 X75.3531 Y75.8542
G1 X75.4996 Y75.7078
G1 X77.9997
G1 X78.1461 Y75.8542
G1 X77.9997 Y75.7078
G1 Y75.395
G3 X78.4997 Y74.895 I0.5 J0.0
G1 X83.5086
G3 X84.0086 Y75.395 I0.0 J0.5
G1 Y75.7078
G1 X83.8621 Y75.8542
G1 X84.0086 Y75.7078
G1 X86.5087
G1 X86.6551 Y75.8542
G1 X86.5087 Y75.7078
G1 Y75.395
G3 X87.0087 Y74.895 I0.5 J0.0
G1 F300.0 Z-8.0
G1 F800.0 X87.4891
G1 X87.6356 Y75.0414
G1 X87.4891 Y74.895
G1 Y61.925
G1 X87.6356 Y61.7786
G1 X87.4891 Y61.925
G1 X87.0087
G3 X86.5087 Y61.425 I0.0 J-0.5
G1 Y61.1122
G1 X86.6551 Y60.9658
G1 X86.5087 Y61.1122
G1 X84.0086
G1 X83.8621 Y60.9658
G1 X84.0086 Y61.1122
G1 Y61.425
G3 X83.5086 Y61.925 I-0.5 J0.0
G1 X78.4997
G3 X77.9997 Y61.425 I0.0 J-0.5
G1 Y61.1122
G1 X78.1461 Y60.9658
G1 X77.9997 Y61.1122
G1 X75.4996
G1 X75.3531 Y60.9658
G1 X75.4996 Y61.1122
G1 Y61.425
G3 X74.9996 Y61.925 I-0.5 J0.0
G1 X74.5191
G1 X74.3727 Y61.7786
G1 X74.5191 Y61.925
G1 Y74.895
G1 X74.3727 Y75.0414
G1 X74.5191 Y74.895
G1 X74.9996
G3 X75.4996 Y75.395 I0.0 J0.5
G1 Y75.7078
G1 X75.3531 Y75.8542
G1 X75.4996 Y75.7078
G1 X77.9997
G1 X78.1461 Y75.8542
G1 X77.9997 Y75.7078
G1 Y75.395
G3 X78.4997 Y74.895 I0.5 J0.0
G1 X83.5086
G3 X84.0086 Y75.395 I0.0 J0.5
G1 Y75.7078
G1 X83.8621 Y75.8542
G1 X84.0086 Y75.7078
G1 X86.5087
G1 X86.6551 Y75.8542
G1 X86.5087 Y75.7078
G1 Y75.395
G3 X87.0087 Y74.895 I0.5 J0.0
G0 Z3.0
G0 Y80.1622
G0 Z-4.0
G1 F300.0 Z-7.0
G1 F800.0 X85.6062
G1 X85.4598 Y80.0158
G1 X85.6062 Y80.1622
G1 Y80.475
G3 X85.1062 Y80.975 I-0.5 J0.0
G1 X80.0974
G3 X79.5974 Y80.475 I0.0 J-0.5
G1 Y80.1622
G1 X79.7438 Y80.0158
G1 X79.5974 Y80.1622
G1 X77.0972
G1 X76.9508 Y80.0158
G1 X77.0972 Y80.1622
G1 Y80.475
G3 X76.5972 Y80.975 I-0.5 J0.0
G1 X76.1168
G1 X75.9704 Y80.8286
G1 X76.1168 Y80.975
G1 Y93.945
G1 X75.9704 Y94.0914
G1 X76.1168 Y93.945
G1 X76.5972
G3 X77.0972 Y94.445 I0.0 J0.5
G1 Y94.7578
G1 X76.9508 Y94.9042
G1 X77.0972 Y94.7578
G1 X79.5974
G1 X79.7438 Y94.9042
G1 X79.5974 Y94.7578
G1 Y94.445
G3 X80.0974 Y93.945 I0.5 J0.0
G1 X85.1062
G3 X85.6062 Y94.445 I0.0 J0.5
G1 Y94.7578
G1 X85.4598 Y94.9042
G1 X85.6062 Y94.7578
G1 X88.1064
G1 X88.2528 Y94.9042
G1 X88.1064 Y94.7578
G1 Y94.445
G3 X88.6064 Y93.945 I0.5 J0.0
G1 X89.0868
G1 X89.2332 Y94.0914
G1 X89.0868 Y93.945
G1 Y80.975
G1 X89.2332 Y80.8286
G1 X89.0868 Y80.975
G1 X88.6064
G3 X88.1064 Y80.475 I0.0 J-0.5
G1 Y80.1622
G1 X88.2528 Y80.0158
G1 X88.1064 Y80.1622
G1 X87.0087
G1 F300.0 Z-8.0
G1 F800.0 X85.6062
G1 X85.4598 Y80.0158
G1 X85.6062 Y80.1622
G1 Y80.475
G3 X85.1062 Y80.975 I-0.5 J0.0
G1 X80.0974
G3 X79.5974 Y80.475 I0.0 J-0.5
G1 Y80.1622
G1 X79.7438 Y80.0158
G1 X79.5974 Y80.1622
G1 X77.0972
G1 X76.9508 Y80.0158
G1 X77.0972 Y80.1622
G1 Y80.475
G3 X76.5972 Y80.975 I-0.5 J0.0
G1 X76.1168
G1 X75.9704 Y80.8286
G1 X76.1168 Y80.975
G1 Y93.945
G1 X75.9704 Y94.0914
G1 X76.1168 Y93.945
G1 X76.5972
G3 X77.0972 Y94.445 I0.0 J0.5
G1 Y94.7578
G1 X76.9508 Y94.9042
G1 X77.0972 Y94.7578
G1 X79.5974
G1 X79.7438 Y94.9042
G1 X79.5974 Y94.7578
G1 Y94.445
G3 X80.0974 Y93.945 I0.5 J0.0
G1 X85.1062
G3 X85.6062 Y94.445 I0.0 J0.5
G1 Y94.7578
G1 X85.4598 Y94.9042
G1 X85.6062 Y94.7578
G1 X88.1064
G1 X88.2528 Y94.9042
G1 X88.1064 Y94.7578
G1 Y94.445
G3 X88.6064 Y93.945 I0.5 J0.0
G1 X89.0868
G1 X89.2332 Y94.0914
G1 X89.0868 Y93.945
G1 Y80.975
G1 X89.2332 Y80.8286
G1 X89.0868 Y80.975
G1 X88.6064
G3 X88.1064 Y80.475 I0.0 J-0.5
G1 Y80.1622
G1 X88.2528 Y80.0158
G1 X88.1064 Y80.1622
G1 X87.0087
G0 Z3.0
G0 X95.0204 Y80.8286
G0 Z-4.0
G1 F300.0 Z-7.0
G1 F800.0 X95.1668 Y80.975
G1 Y93.945
G1 X95.0204 Y94.0914
G1 X95.1668 Y93.945
G1 X95.6472
G3 X96.1472 Y94.445 I0.0 J0.5
G1 Y94.7578
G1 X96.0008 Y94.9042
G1 X96.1472 Y94.7578
G1 X98.6474
G1 X98.7938 Y94.9042
G1 X98.6474 Y94.7578
G1 Y94.445
G3 X99.1474 Y93.945 I0.5 J0.0
G1 X104.1562
G3 X104.6562 Y94.445 I0.0 J0.5
G1 Y94.7578
G1 X104.5098 Y94.9042
G1 X104.6562 Y94.7578
G1 X107.1564
G1 X107.3028 Y94.9042
G1 X107.1564 Y94.7578
G1 Y94.445
G3 X107.6564 Y93.945 I0.5 J0.0
G1 X108.1368
G1 X108.2832 Y94.0914
G1 X108.1368 Y93.945
G1 Y80.975
G1 X108.2832 Y80.8286
G1 X108.1368 Y80.975
G1 X107.6564
G3 X107.1564 Y80.475 I0.0 J-0.5
G1 Y80.1622
G1 X107.3028 Y80.0158
G1 X107.1564 Y80.1622
G1 X104.6562
G1 X104.5098 Y80.0158
G1 X104.6562 Y80.1622
G1 Y80.475
G3 X104.1562 Y80.975 I-0.5 J0.0
G1 X99.1474
G3 X98.6474 Y80.475 I0.0 J-0.5
G1 Y80.1622
G1 X98.7938 Y80.0158
G1 X98.6474 Y80.1622
G1 X96.1472
G1 X96.0008 Y80.0158
G1 X96.1472 Y80.1622
G1 Y80.475
G3 X95.6472 Y80.975 I-0.5 J0.0
G1 X95.1668
G1 X95.0204 Y80.8286
G1 F300.0 Z-8.0
G1 F800.0 X95.1668 Y80.975
G1 Y93.945
G1 X95.0204 Y94.0914
G1 X95.1668 Y93.945
G1 X95.6472
G3 X96.1472 Y94.445 I0.0 J0.5
G1 Y94.7578
G1 X96.0008 Y94.9042
G1 X96.1472 Y94.7578
G1 X98.6474
G1 X98.7938 Y94.9042
G1 X98.6474 Y94.7578
G1 Y94.445
G3 X99.1474 Y93.945 I0.5 J0.0
G1 X104.1562
G3 X104.6562 Y94.445 I0.0 J0.5
G1 Y94.7578
G1 X104.5098 Y94.9042
G1 X104.6562 Y94.7578
G1 X107.1564
G1 X107.3028 Y94.9042
G1 X107.1564 Y94.7578
G1 Y94.445
G3 X107.6564 Y93.945 I0.5 J0.0
G1 X108.1368
G1 X108.2832 Y94.0914
G1 X108.1368 Y93.945
G1 Y80.975
G1 X108.2832 Y80.8286
G1 X108.1368 Y80.975
G1 X107.6564
G3 X107.1564 Y80.475 I0.0 J-0.5
G1 Y80.1622
G1 X107.3028 Y80.0158
G1 X107.1564 Y80.1622
G1 X104.6562
G1 X104.5098 Y80.0158
G1 X104.6562 Y80.1622
G1 Y80.475
G3 X104.1562 Y80.975 I-0.5 J0.0
G1 X99.1474
G3 X98.6474 Y80.475 I0.0 J-0.5
G1 Y80.1622
G1 X98.7938 Y80.0158
G1 X98.6474 Y80.1622
G1 X96.1472
G1 X96.0008 Y80.0158
G1 X96.1472 Y80.1622
G1 Y80.475
G3 X95.6472 Y80.975 I-0.5 J0.0
G1 X95.1668
G1 X95.0204 Y80.8286
G0 Z3.0
G0 X94.4031 Y75.8542
G0 Z-4.0
G1 F300.0 Z-7.0
G1 F800.0 X94.5496 Y75.7078
G1 X97.0497
G1 X97.1961 Y75.8542
G1 X97.0497 Y75.7078
G1 Y75.395
G3 X97.5497 Y74.895 I0.5 J0.0
G1 X102.5586
G3 X103.0586 Y75.395 I0.0 J0.5
G1 Y75.7078
G1 X102.9121 Y75.8542
G1 X103.0586 Y75.7078
G1 X105.5587
G1 X105.7051 Y75.8542
G1 X105.5587 Y75.7078
G1 Y75.395
G3 X106.0587 Y74.895 I0.5 J0.0
G1 X106.5391
G1 X106.6856 Y75.0414
G1 X106.5391 Y74.895
G1 Y61.925
G1 X106.6856 Y61.7786
G1 X106.5391 Y61.925
G1 X106.0587
G3 X105.5587 Y61.425 I0.0 J-0.5
G1 Y61.1122
G1 X105.7051 Y60.9658
G1 X105.5587 Y61.1122
G1 X103.0586
G1 X102.9121 Y60.9658
G1 X103.0586 Y61.1122
G1 Y61.425
G3 X102.5586 Y61.925 I-0.5 J0.0
G1 X97.5497
G3 X97.0497 Y61.425 I0.0 J-0.5
G1 Y61.1122
G1 X97.1961 Y60.9658
G1 X97.0497 Y61.1122
G1 X94.5496
G1 X94.4031 Y60.9658
G1 X94.5496 Y61.1122
G1 Y61.425
G3 X94.0496 Y61.925 I-0.5 J0.0
G1 X93.5691
G1 X93.4227 Y61.7786
G1 X93.5691 Y61.925
G1 Y74.895
G1 X93.4227 Y75.0414
G1 X93.5691 Y74.895
G1 X94.0496
G3 X94.5496 Y75.395 I0.0 J0.5
G1 Y75.7078
G1 X94.4031 Y75.8542
G1 F300.0 Z-8.0
G1 F800.0 X94.5496 Y75.7078
G1 X97.0497
G1 X97.1961 Y75.8542
G1 X97.0497 Y75.7078
G1 Y75.395
G3 X97.5497 Y74.895 I0.5 J0.0
G1 X102.5586
G3 X103.0586 Y75.395 I0.0 J0.5
G1 Y75.7078
G1 X102.9121 Y75.8542
G1 X103.0586 Y75.7078
G1 X105.5587
G1 X105.7051 Y75.8542
G1 X105.5587 Y75.7078
G1 Y75.395
G3 X106.0587 Y74.895 I0.5 J0.0
G1 X106.5391
G1 X106.6856 Y75.0414
G1 X106.5391 Y74.895
G1 Y61.925
G1 X106.6856 Y61.7786
G1 X106.5391 Y61.925
G1 X106.0587
G3 X105.5587 Y61.425 I0.0 J-0.5
G1 Y61.1122
G1 X105.7051 Y60.9658
G1 X105.5587 Y61.1122
G1 X103.0586
G1 X102.9121 Y60.9658
G1 X103.0586 Y61.1122
G1 Y61.425
G3 X102.5586 Y61.925 I-0.5 J0.0
G1 X97.5497
G3 X97.0497 Y61.425 I0.0 J-0.5
G1 Y61.1122
G1 X97.1961 Y60.9658
G1 X97.0497 Y61.1122
G1 X94.5496
G1 X94.4031 Y60.9658
G1 X94.5496 Y61.1122
G1 Y61.425
G3 X94.0496 Y61.925 I-0.5 J0.0
G1 X93.5691
G1 X93.4227 Y61.7786
G1 X93.5691 Y61.925
G1 Y74.895
G1 X93.4227 Y75.0414
G1 X93.5691 Y74.895
G1 X94.0496
G3 X94.5496 Y75.395 I0.0 J0.5
G1 Y75.7078
G1 X94.4031 Y75.8542
G0 Z3.0
G0 X112.4727 Y75.0414
G0 Z-4.0
G1 F300.0 Z-7.0
G1 F800.0 X112.6191 Y74.895
G1 X113.0996
G3 X113.5996 Y75.395 I0.0 J0.5
G1 Y75.7078
G1 X113.4531 Y75.8542
G1 X113.5996 Y75.7078
G1 X116.0997
G1 X116.2461 Y75.8542
G1 X116.0997 Y75.7078
G1 Y75.395
G3 X116.5997 Y74.895 I0.5 J0.0
G1 X121.6086
G3 X122.1086 Y75.395 I0.0 J0.5
G1 Y75.7078
G1 X121.9621 Y75.8542
G1 X122.1086 Y75.7078
G1 X124.6087
G1 X124.7551 Y75.8542
G1 X124.6087 Y75.7078
G1 Y75.395
G3 X125.1087 Y74.895 I0.5 J0.0
G1 X125.5891
G1 X125.7356 Y75.0414
G1 X125.5891 Y74.895
G1 Y61.925
G1 X125.7356 Y61.7786
G1 X125.5891 Y61.925
G1 X125.1087
G3 X124.6087 Y61.425 I0.0 J-0.5
G1 Y61.1122
G1 X124.7551 Y60.9658
G1 X124.6087 Y61.1122
G1 X122.1086
G1 X121.9621 Y60.9658
G1 X122.1086 Y61.1122
G1 Y61.425
G3 X121.6086 Y61.925 I-0.5 J0.0
G1 X116.5997
G3 X116.0997 Y61.425 I0.0 J-0.5
G1 Y61.1122
G1 X116.2461 Y60.9658
G1 X116.0997 Y61.1122
G1 X113.5996
G1 X113.4531 Y60.9658
G1 X113.5996 Y61.1122
G1 Y61.425
G3 X113.0996 Y61.925 I-0.5 J0.0
G1 X112.6191
G1 X112.4727 Y61.7786
G1 X112.6191 Y61.925
G1 Y74.895
G1 X112.4727 Y75.0414
G1 F300.0 Z-8.0
G1 F800.0 X112.6191 Y74.895
G1 X113.0996
G3 X113.5996 Y75.395 I0.0 J0.5
G1 Y75.7078
G1 X113.4531 Y75.8542
G1 X113.5996 Y75.7078
G1 X116.0997
G1 X116.2461 Y75.8542
G1 X116.0997 Y75.7078
G1 Y75.395
G3 X116.5997 Y74.895 I0.5 J0.0
G1 X121.6086
G3 X122.1086 Y75.395 I0.0 J0.5
G1 Y75.7078
G1 X121.9621 Y75.8542
G1 X122.1086 Y75.7078
G1 X124.6087
G1 X124.7551 Y75.8542
G1 X124.6087 Y75.7078
G1 Y75.395
G3 X125.1087 Y74.895 I0.5 J0.0
G1 X125.5891
G1 X125.7356 Y75.0414
G1 X125.5891 Y74.895
G1 Y61.925
G1 X125.7356 Y61.7786
G1 X125.5891 Y61.925
G1 X125.1087
G3 X124.6087 Y61.425 I0.0 J-0.5
G1 Y61.1122
G1 X124.7551 Y60.9658
G1 X124.6087 Y61.1122
G1 X122.1086
G1 X121.9621 Y60.9658
G1 X122.1086 Y61.1122
G1 Y61.425
G3 X121.6086 Y61.925 I-0.5 J0.0
G1 X116.5997
G3 X116.0997 Y61.425 I0.0 J-0.5
G1 Y61.1122
G1 X116.2461 Y60.9658
G1 X116.0997 Y61.1122
G1 X113.5996
G1 X113.4531 Y60.9658
G1 X113.5996 Y61.1122
G1 Y61.425
G3 X113.0996 Y61.925 I-0.5 J0.0
G1 X112.6191
G1 X112.4727 Y61.7786
G1 X112.6191 Y61.925
G1 Y74.895
G1 X112.4727 Y75.0414
G0 Z3.0
G0 X115.0508 Y80.0158
G0 Z-4.0
G1 F300.0 Z-7.0
G1 F800.0 X115.1972 Y80.1622
G1 Y80.475
G3 X114.6972 Y80.975 I-0.5 J0.0
G1 X114.2168
G1 X114.0704 Y80.8286
G1 X114.2168 Y80.975
G1 Y93.945
G1 X114.0704 Y94.0914
G1 X114.2168 Y93.945
G1 X114.6972
G3 X115.1972 Y94.445 I0.0 J0.5
G1 Y94.7578
G1 X115.0508 Y94.9042
G1 X115.1972 Y94.7578
G1 X117.6974
G1 X117.8438 Y94.9042
G1 X117.6974 Y94.7578
G1 Y94.445
G3 X118.1974 Y93.945 I0.5 J0.0
G1 X123.2062
G3 X123.7062 Y94.445 I0.0 J0.5
G1 Y94.7578
G1 X123.5598 Y94.9042
G1 X123.7062 Y94.7578
G1 X126.2064
G1 X126.3528 Y94.9042
G1 X126.2064 Y94.7578
G1 Y94.445
G3 X126.7064 Y93.945 I0.5 J0.0
G1 X127.1868
G1 X127.3332 Y94.0914
G1 X127.1868 Y93.945
G1 Y80.975
G1 X127.3332 Y80.8286
G1 X127.1868 Y80.975
G1 X126.7064
G3 X126.2064 Y80.475 I0.0 J-0.5
G1 Y80.1622
G1 X126.3528 Y80.0158
G1 X126.2064 Y80.1622
G1 X123.7062
G1 X123.5598 Y80.0158
G1 X123.7062 Y80.1622
G1 Y80.475
G3 X123.2062 Y80.975 I-0.5 J0.0
G1 X118.1974
G3 X117.6974 Y80.475 I0.0 J-0.5
G1 Y80.1622
G1 X117.8438 Y80.0158
G1 X117.6974 Y80.1622
G1 X115.1972
G1 X115.0508 Y80.0158
G1 F300.0 Z-8.0
G1 F800.0 X115.1972 Y80.1622
G1 Y80.475
G3 X114.6972 Y80.975 I-0.5 J0.0
G1 X114.2168
G1 X114.0704 Y80.8286
G1 X114.2168 Y80.975
G1 Y93.945
G1 X114.0704 Y94.0914
G1 X114.2168 Y93.945
G1 X114.6972
G3 X115.1972 Y94.445 I0.0 J0.5
G1 Y94.7578
G1 X115.0508 Y94.9042
G1 X115.1972 Y94.7578
G1 X117.6974
G1 X117.8438 Y94.9042
G1 X117.6974 Y94.7578
G1 Y94.445
G3 X118.1974 Y93.945 I0.5 J0.0
G1 X123.2062
G3 X123.7062 Y94.445 I0.0 J0.5
G1 Y94.7578
G1 X123.5598 Y94.9042
G1 X123.7062 Y94.7578
G1 X126.2064
G1 X126.3528 Y94.9042
G1 X126.2064 Y94.7578
G1 Y94.445
G3 X126.7064 Y93.945 I0.5 J0.0
G1 X127.1868
G1 X127.3332 Y94.0914
G1 X127.1868 Y93.945
G1 Y80.975
G1 X127.3332 Y80.8286
G1 X127.1868 Y80.975
G1 X126.7064
G3 X126.2064 Y80.475 I0.0 J-0.5
G1 Y80.1622
G1 X126.3528 Y80.0158
G1 X126.2064 Y80.1622
G1 X123.7062
G1 X123.5598 Y80.0158
G1 X123.7062 Y80.1622
G1 Y80.475
G3 X123.2062 Y80.975 I-0.5 J0.0
G1 X118.1974
G3 X117.6974 Y80.475 I0.0 J-0.5
G1 Y80.1622
G1 X117.8438 Y80.0158
G1 X117.6974 Y80.1622
G1 X115.1972
G1 X115.0508 Y80.0158
G0 Z3.0
G0 X131.5227 Y75.0414
G0 Z-4.0
G1 F300.0 Z-7.0
G1 F800.0 X131.6691 Y74.895
G1 X132.1496
G3 X132.6496 Y75.395 I0.0 J0.5
G1 Y75.7078
G1 X132.5031 Y75.8542
G1 X132.6496 Y75.7078
G1 X135.1497
G1 X135.2961 Y75.8542
G1 X135.1497 Y75.7078
G1 Y75.395
G3 X135.6497 Y74.895 I0.5 J0.0
G1 X140.6586
G3 X141.1586 Y75.395 I0.0 J0.5
G1 Y75.7078
G1 X141.0121 Y75.8542
G1 X141.1586 Y75.7078
G1 X143.6587
G1 X143.8051 Y75.8542
G1 X143.6587 Y75.7078
G1 Y75.395
G3 X144.1587 Y74.895 I0.5 J0.0
G1 X144.6391
G1 X144.7856 Y75.0414
G1 X144.6391 Y74.895
G1 Y61.925
G1 X144.7856 Y61.7786
G1 X144.6391 Y61.925
G1 X144.1587
G3 X143.6587 Y61.425 I0.0 J-0.5
G1 Y61.1122
G1 X143.8051 Y60.9658
G1 X143.6587 Y61.1122
G1 X141.1586
G1 X141.0121 Y60.9658
G1 X141.1586 Y61.1122
G1 Y61.425
G3 X140.6586 Y61.925 I-0.5 J0.0
G1 X135.6497
G3 X135.1497 Y61.425 I0.0 J-0.5
G1 Y61.1122
G1 X135.2961 Y60.9658
G1 X135.1497 Y61.1122
G1 X132.6496
G1 X132.5031 Y60.9658
G1 X132.6496 Y61.1122
G1 Y61.425
G3 X132.1496 Y61.925 I-0.5 J0.0
G1 X131.6691
G1 X131.5227 Y61.7786
G1 X131.6691 Y61.925
G1 Y74.895
G1 X131.5227 Y75.0414
G1 F300.0 Z-8.0
G1 F800.0 X131.6691 Y74.895
G1 X132.1496
G3 X132.6496 Y75.395 I0.0 J0.5
G1 Y75.7078
G1 X132.5031 Y75.8542
G1 X132.6496 Y75.7078
G1 X135.1497
G1 X135.2961 Y75.8542
G1 X135.1497 Y75.7078
G1 Y75.395
G3 X135.6497 Y74.895 I0.5 J0.0
G1 X140.6586
G3 X141.1586 Y75.395 I0.0 J0.5
G1 Y75.7078
G1 X141.0121 Y75.8542
G1 X141.1586 Y75.7078
G1 X143.6587
G1 X143.8051 Y75.8542
G1 X143.6587 Y75.7078
G1 Y75.395
G3 X144.1587 Y74.895 I0.5 J0.0
G1 X144.6391
G1 X144.7856 Y75.0414
G1 X144.6391 Y74.895
G1 Y61.925
G1 X144.7856 Y61.7786
G1 X144.6391 Y61.925
G1 X144.1587
G3 X143.6587 Y61.425 I0.0 J-0.5
G1 Y61.1122
G1 X143.8051 Y60.9658
G1 X143.6587 Y61.1122
G1 X141.1586
G1 X141.0121 Y60.9658
G1 X141.1586 Y61.1122
G1 Y61.425
G3 X140.6586 Y61.925 I-0.5 J0.0
G1 X135.6497
G3 X135.1497 Y61.425 I0.0 J-0.5
G1 Y61.1122
G1 X135.2961 Y60.9658
G1 X135.1497 Y61.1122
G1 X132.6496
G1 X132.5031 Y60.9658
G1 X132.6496 Y61.1122
G1 Y61.425
G3 X132.1496 Y61.925 I-0.5 J0.0
G1 X131.6691
G1 X131.5227 Y61.7786
G1 X131.6691 Y61.925
G1 Y74.895
G1 X131.5227 Y75.0414
G0 Z3.0
G0 X134.1008 Y80.0158
G0 Z-4.0
G1 F300.0 Z-7.0
G1 F800.0 X134.2472 Y80.1622
G1 Y80.475
G3 X133.7472 Y80.975 I-0.5 J0.0
G1 X133.2668
G1 X133.1204 Y80.8286
G1 X133.2668 Y80.975
G1 Y93.945
G1 X133.1204 Y94.0914
G1 X133.2668 Y93.945
G1 X133.7472
G3 X134.2472 Y94.445 I0.0 J0.5
G1 Y94.7578
G1 X134.1008 Y94.9042
G1 X134.2472 Y94.7578
G1 X136.7474
G1 X136.8938 Y94.9042
G1 X136.7474 Y94.7578
G1 Y94.445
G3 X137.2474 Y93.945 I0.5 J0.0
G1 X142.2562
G3 X142.7562 Y94.445 I0.0 J0.5
G1 Y94.7578
G1 X142.6098 Y94.9042
G1 X142.7562 Y94.7578
G1 X145.2564
G1 X145.4028 Y94.9042
G1 X145.2564 Y94.7578
G1 Y94.445
G3 X145.7564 Y93.945 I0.5 J0.0
G1 X146.2368
G1 X146.3832 Y94.0914
G1 X146.2368 Y93.945
G1 Y80.975
G1 X146.3832 Y80.8286
G1 X146.2368 Y80.975
G1 X145.7564
G3 X145.2564 Y80.475 I0.0 J-0.5
G1 Y80.1622
G1 X145.4028 Y80.0158
G1 X145.2564 Y80.1622
G1 X142.7562
G1 X142.6098 Y80.0158
G1 X142.7562 Y80.1622
G1 Y80.475
G3 X142.2562 Y80.975 I-0.5 J0.0
G1 X137.2474
G3 X136.7474 Y80.475 I0.0 J-0.5
G1 Y80.1622
G1 X136.8938 Y80.0158
G1 X136.7474 Y80.1622
G1 X134.2472
G1 X134.1008 Y80.0158
G1 F300.0 Z-8.0
G1 F800.0 X134.2472 Y80.1622
G1 Y80.475
G3 X133.7472 Y80.975 I-0.5 J0.0
G1 X133.2668
G1 X133.1204 Y80.8286
G1 X133.2668 Y80.975
G1 Y93.945
G1 X133.1204 Y94.0914
G1 X133.2668 Y93.945
G1 X133.7472
G3 X134.2472 Y94.445 I0.0 J0.5
G1 Y94.7578
G1 X134.1008 Y94.9042
G1 X134.2472 Y94.7578
G1 X136.7474
G1 X136.8938 Y94.9042
G1 X136.7474 Y94.7578
G1 Y94.445
G3 X137.2474 Y93.945 I0.5 J0.0
G1 X142.2562
G3 X142.7562 Y94.445 I0.0 J0.5
G1 Y94.7578
G1 X142.6098 Y94.9042
G1 X142.7562 Y94.7578
G1 X145.2564
G1 X145.4028 Y94.9042
G1 X145.2564 Y94.7578
G1 Y94.445
G3 X145.7564 Y93.945 I0.5 J0.0
G1 X146.2368
G1 X146.3832 Y94.0914
G1 X146.2368 Y93.945
G1 Y80.975
G1 X146.3832 Y80.8286
G1 X146.2368 Y80.975
G1 X145.7564
G3 X145.2564 Y80.475 I0.0 J-0.5
G1 Y80.1622
G1 X145.4028 Y80.0158
G1 X145.2564 Y80.1622
G1 X142.7562
G1 X142.6098 Y80.0158
G1 X142.7562 Y80.1622
G1 Y80.475
G3 X142.2562 Y80.975 I-0.5 J0.0
G1 X137.2474
G3 X136.7474 Y80.475 I0.0 J-0.5
G1 Y80.1622
G1 X136.8938 Y80.0158
G1 X136.7474 Y80.1622
G1 X134.2472
G1 X134.1008 Y80.0158
G0 Z3.0
G0 X135.2961 Y99.0658
G0 Z-4.0
G1 F300.0 Z-7.0
G1 F800.0 X135.1497 Y99.2122
G1 X132.6496
G1 X132.5031 Y99.0658
G1 X132.6496 Y99.2122
G1 Y99.525
G3 X132.1496 Y100.025 I-0.5 J0.0
G1 X131.6691
G1 X131.5227 Y99.8786
G1 X131.6691 Y100.025
G1 Y112.995
G1 X131.5227 Y113.1414
G1 X131.6691 Y112.995
G1 X132.1496
G3 X132.6496 Y113.495 I0.0 J0.5
G1 Y113.8078
G1 X132.5031 Y113.9542
G1 X132.6496 Y113.8078
G1 X135.1497
G1 X135.2961 Y113.9542
G1 X135.1497 Y113.8078
G1 Y113.495
G3 X135.6497 Y112.995 I0.5 J0.0
G1 X140.6586
G3 X141.1586 Y113.495 I0.0 J0.5
G1 Y113.8078
G1 X141.0121 Y113.9542
G1 X141.1586 Y113.8078
G1 X143.6587
G1 X143.8051 Y113.9542
G1 X143.6587 Y113.8078
G1 Y113.495
G3 X144.1587 Y112.995 I0.5 J0.0
G1 X144.6391
G1 X144.7856 Y113.1414
G1 X144.6391 Y112.995
G1 Y100.025
G1 X144.7856 Y99.8786
G1 X144.6391 Y100.025
G1 X144.1587
G3 X143.6587 Y99.525 I0.0 J-0.5
G1 Y99.2122
G1 X143.8051 Y99.0658
G1 X143.6587 Y99.2122
G1 X141.1586
G1 X141.0121 Y99.0658
G1 X141.1586 Y99.2122
G1 Y99.525
G3 X140.6586 Y100.025 I-0.5 J0.0
G1 X135.6497
G3 X135.1497 Y99.525 I0.0 J-0.5
G1 Y99.2122
G1 X135.2961 Y99.0658
G1 F300.0 Z-8.0
G1 F800.0 X135.1497 Y99.2122
G1 X132.6496
G1 X132.5031 Y99.0658
G1 X132.6496 Y99.2122
G1 Y99.525
G3 X132.1496 Y100.025 I-0.5 J0.0
G1 X131.6691
G1 X131.5227 Y99.8786
G1 X131.6691 Y100.025
G1 Y112.995
G1 X131.5227 Y113.1414
G1 X131.6691 Y112.995
G1 X132.1496
G3 X132.6496 Y113.495 I0.0 J0.5
G1 Y113.8078
G1 X132.5031 Y113.9542
G1 X132.6496 Y113.8078
G1 X135.1497
G1 X135.2961 Y113.9542
G1 X135.1497 Y113.8078
G1 Y113.495
G3 X135.6497 Y112.995 I0.5 J0.0
G1 X140.6586
G3 X141.1586 Y113.495 I0.0 J0.5
G1 Y113.8078
G1 X141.0121 Y113.9542
G1 X141.1586 Y113.8078
G1 X143.6587
G1 X143.8051 Y113.9542
G1 X143.6587 Y113.8078
G1 Y113.495
G3 X144.1587 Y112.995 I0.5 J0.0
G1 X144.6391
G1 X144.7856 Y113.1414
G1 X144.6391 Y112.995
G1 Y100.025
G1 X144.7856 Y99.8786
G1 X144.6391 Y100.025
G1 X144.1587
G3 X143.6587 Y99.525 I0.0 J-0.5
G1 Y99.2122
G1 X143.8051 Y99.0658
G1 X143.6587 Y99.2122
G1 X141.1586
G1 X141.0121 Y99.0658
G1 X141.1586 Y99.2122
G1 Y99.525
G3 X140.6586 Y100.025 I-0.5 J0.0
G1 X135.6497
G3 X135.1497 Y99.525 I0.0 J-0.5
G1 Y99.2122
G1 X135.2961 Y99.0658
G0 Z3.0
G0 X125.7356 Y99.8786
G0 Z-4.0
G1 F300.0 Z-7.0
G1 F800.0 X125.5891 Y100.025
G1 X125.1087
G3 X124.6087 Y99.525 I0.0 J-0.5
G1 Y99.2122
G1 X124.7551 Y99.0658
G1 X124.6087 Y99.2122
G1 X122.1086
G1 X121.9621 Y99.0658
G1 X122.1086 Y99.2122
G1 Y99.525
G3 X121.6086 Y100.025 I-0.5 J0.0
G1 X116.5997
G3 X116.0997 Y99.525 I0.0 J-0.5
G1 Y99.2122
G1 X116.2461 Y99.0658
G1 X116.0997 Y99.2122
G1 X113.5996
G1 X113.4531 Y99.0658
G1 X113.5996 Y99.2122
G1 Y99.525
G3 X113.0996 Y100.025 I-0.5 J0.0
G1 X112.6191
G1 X112.4727 Y99.8786
G1 X112.6191 Y100.025
G1 Y112.995
G1 X112.4727 Y113.1414
G1 X112.6191 Y112.995
G1 X113.0996
G3 X113.5996 Y113.495 I0.0 J0.5
G1 Y113.8078
G1 X113.4531 Y113.9542
G1 X113.5996 Y113.8078
G1 X116.0997
G1 X116.2461 Y113.9542
G1 X116.0997 Y113.8078
G1 Y113.495
G3 X116.5997 Y112.995 I0.5 J0.0
G1 X121.6086
G3 X122.1086 Y113.495 I0.0 J0.5
G1 Y113.8078
G1 X121.9621 Y113.9542
G1 X122.1086 Y113.8078
G1 X124.6087
G1 X124.7551 Y113.9542
G1 X124.6087 Y113.8078
G1 Y113.495
G3 X125.1087 Y112.995 I0.5 J0.0
G1 X125.5891
G1 X125.7356 Y113.1414
G1 X125.5891 Y112.995
G1 Y100.025
G1 X125.7356 Y99.8786
G1 F300.0 Z-8.0
G1 F800.0 X125.5891 Y100.025
G1 X125.1087
G3 X124.6087 Y99.525 I0.0 J-0.5
G1 Y99.2122
G1 X124.7551 Y99.0658
G1 X124.6087 Y99.2122
G1 X122.1086
G1 X121.9621 Y99.0658
G1 X122.1086 Y99.2122
G1 Y99.525
G3 X121.6086 Y100.025 I-0.5 J0.0
G1 X116.5997
G3 X116.0997 Y99.525 I0.0 J-0.5
G1 Y99.2122
G1 X116.2461 Y99.0658
G1 X116.0997 Y99.2122
G1 X113.5996
G1 X113.4531 Y99.0658
G1 X113.5996 Y99.2122
G1 Y99.525
G3 X113.0996 Y100.025 I-0.5 J0.0
G1 X112.6191
G1 X112.4727 Y99.8786
G1 X112.6191 Y100.025
G1 Y112.995
G1 X112.4727 Y113.1414
G1 X112.6191 Y112.995
G1 X113.0996
G3 X113.5996 Y113.495 I0.0 J0.5
G1 Y113.8078
G1 X113.4531 Y113.9542
G1 X113.5996 Y113.8078
G1 X116.0997
G1 X116.2461 Y113.9542
G1 X116.0997 Y113.8078
G1 Y113.495
G3 X116.5997 Y112.995 I0.5 J0.0
G1 X121.6086
G3 X122.1086 Y113.495 I0.0 J0.5
G1 Y113.8078
G1 X121.9621 Y113.9542
G1 X122.1086 Y113.8078
G1 X124.6087
G1 X124.7551 Y113.9542
G1 X124.6087 Y113.8078
G1 Y113.495
G3 X125.1087 Y112.995 I0.5 J0.0
G1 X125.5891
G1 X125.7356 Y113.1414
G1 X125.5891 Y112.995
G1 Y100.025
G1 X125.7356 Y99.8786
G0 Z3.0
G0 X123.4851 Y118.1158
G0 Z-4.0
G1 F300.0 Z-7.0
G1 F800.0 X123.3387 Y118.2622
G1 X120.8386
G1 X120.6921 Y118.1158
G1 X120.8386 Y118.2622
G1 Y118.575
G3 X120.3386 Y119.075 I-0.5 J0.0
G1 X115.3297
G3 X114.8297 Y118.575 I0.0 J-0.5
G1 Y118.2622
G1 X114.9761 Y118.1158
G1 X114.8297 Y118.2622
G1 X112.3296
G1 X112.1831 Y118.1158
G1 X112.3296 Y118.2622
G1 Y118.575
G3 X111.8296 Y119.075 I-0.5 J0.0
G1 X111.3491
G1 X111.2027 Y118.9286
G1 X111.3491 Y119.075
G1 Y132.045
G1 X111.2027 Y132.1914
G1 X111.3491 Y132.045
G1 X111.8296
G3 X112.3296 Y132.545 I0.0 J0.5
G1 Y132.8578
G1 X112.1831 Y133.0042
G1 X112.3296 Y132.8578
G1 X114.8297
G1 X114.9761 Y133.0042
G1 X114.8297 Y132.8578
G1 Y132.545
G3 X115.3297 Y132.045 I0.5 J0.0
G1 X120.3386
G3 X120.8386 Y132.545 I0.0 J0.5
G1 Y132.8578
G1 X120.6921 Y133.0042
G1 X120.8386 Y132.8578
G1 X123.3387
G1 X123.4851 Y133.0042
G1 X123.3387 Y132.8578
G1 Y132.545
G3 X123.8387 Y132.045 I0.5 J0.0
G1 X124.3191
G1 X124.4656 Y132.1914
G1 X124.3191 Y132.045
G1 Y119.075
G1 X124.4656 Y118.9286
G1 X124.3191 Y119.075
G1 X123.8387
G3 X123.3387 Y118.575 I0.0 J-0.5
G1 Y118.2622
G1 X123.4851 Y118.1158
G1 F300.0 Z-8.0
G1 F800.0 X123.3387 Y118.2622
G1 X120.8386
G1 X120.6921 Y118.1158
G1 X120.8386 Y118.2622
G1 Y118.575
G3 X120.3386 Y119.075 I-0.5 J0.0
G1 X115.3297
G3 X114.8297 Y118.575 I0.0 J-0.5
G1 Y118.2622
G1 X114.9761 Y118.1158
G1 X114.8297 Y118.2622
G1 X112.3296
G1 X112.1831 Y118.1158
G1 X112.3296 Y118.2622
G1 Y118.575
G3 X111.8296 Y119.075 I-0.5 J0.0
G1 X111.3491
G1 X111.2027 Y118.9286
G1 X111.3491 Y119.075
G1 Y132.045
G1 X111.2027 Y132.1914
G1 X111.3491 Y132.045
G1 X111.8296
G3 X112.3296 Y132.545 I0.0 J0.5
G1 Y132.8578
G1 X112.1831 Y133.0042
G1 X112.3296 Y132.8578
G1 X114.8297
G1 X114.9761 Y133.0042
G1 X114.8297 Y132.8578
G1 Y132.545
G3 X115.3297 Y132.045 I0.5 J0.0
G1 X120.3386
G3 X120.8386 Y132.545 I0.0 J0.5
G1 Y132.8578
G1 X120.6921 Y133.0042
G1 X120.8386 Y132.8578
G1 X123.3387
G1 X123.4851 Y133.0042
G1 X123.3387 Y132.8578
G1 Y132.545
G3 X123.8387 Y132.045 I0.5 J0.0
G1 X124.3191
G1 X124.4656 Y132.1914
G1 X124.3191 Y132.045
G1 Y119.075
G1 X124.4656 Y118.9286
G1 X124.3191 Y119.075
G1 X123.8387
G3 X123.3387 Y118.575 I0.0 J-0.5
G1 Y118.2622
G1 X123.4851 Y118.1158
G0 Z3.0
G0 X130.2502 Y118.9286
G0 Z-4.0
G1 F300.0 Z-7.0
G1 F800.0 X130.3966 Y119.075
G1 Y132.045
G1 X130.2502 Y132.1914
G1 X130.3966 Y132.045
G1 X130.877
G3 X131.377 Y132.545 I0.0 J0.5
G1 Y132.8578
G1 X131.2306 Y133.0042
G1 X131.377 Y132.8578
G1 X133.8772
G1 X134.0236 Y133.0042
G1 X133.8772 Y132.8578
G1 Y132.545
G3 X134.3772 Y132.045 I0.5 J0.0
G1 X139.386
G3 X139.886 Y132.545 I0.0 J0.5
G1 Y132.8578
G1 X139.7396 Y133.0042
G1 X139.886 Y132.8578
G1 X142.3862
G1 X142.5326 Y133.0042
G1 X142.3862 Y132.8578
G1 Y132.545
G3 X142.8862 Y132.045 I0.5 J0.0
G1 X143.3666
G1 X143.513 Y132.1914
G1 X143.3666 Y132.045
G1 Y119.075
G1 X143.513 Y118.9286
G1 X143.3666 Y119.075
G1 X142.8862
G3 X142.3862 Y118.575 I0.0 J-0.5
G1 Y118.2622
G1 X142.5326 Y118.1158
G1 X142.3862 Y118.2622
G1 X139.886
G1 X139.7396 Y118.1158
G1 X139.886 Y118.2622
G1 Y118.575
G3 X139.386 Y119.075 I-0.5 J0.0
G1 X134.3772
G3 X133.8772 Y118.575 I0.0 J-0.5
G1 Y118.2622
G1 X134.0236 Y118.1158
G1 X133.8772 Y118.2622
G1 X131.377
G1 X131.2306 Y118.1158
G1 X131.377 Y118.2622
G1 Y118.575
G3 X130.877 Y119.075 I-0.5 J0.0
G1 X130.3966
G1 X130.2502 Y118.9286
G1 F300.0 Z-8.0
G1 F800.0 X130.3966 Y119.075
G1 Y132.045
G1 X130.2502 Y132.1914
G1 X130.3966 Y132.045
G1 X130.877
G3 X131.377 Y132.545 I0.0 J0.5
G1 Y132.8578
G1 X131.2306 Y133.0042
G1 X131.377 Y132.8578
G1 X133.8772
G1 X134.0236 Y133.0042
G1 X133.8772 Y132.8578
G1 Y132.545
G3 X134.3772 Y132.045 I0.5 J0.0
G1 X139.386
G3 X139.886 Y132.545 I0.0 J0.5
G1 Y132.8578
G1 X139.7396 Y133.0042
G1 X139.886 Y132.8578
G1 X142.3862
G1 X142.5326 Y133.0042
G1 X142.3862 Y132.8578
G1 Y132.545
G3 X142.8862 Y132.045 I0.5 J0.0
G1 X143.3666
G1 X143.513 Y132.1914
G1 X143.3666 Y132.045
G1 Y119.075
G1 X143.513 Y118.9286
G1 X143.3666 Y119.075
G1 X142.8862
G3 X142.3862 Y118.575 I0.0 J-0.5
G1 Y118.2622
G1 X142.5326 Y118.1158
G1 X142.3862 Y118.2622
G1 X139.886
G1 X139.7396 Y118.1158
G1 X139.886 Y118.2622
G1 Y118.575
G3 X139.386 Y119.075 I-0.5 J0.0
G1 X134.3772
G3 X133.8772 Y118.575 I0.0 J-0.5
G1 Y118.2622
G1 X134.0236 Y118.1158
G1 X133.8772 Y118.2622
G1 X131.377
G1 X131.2306 Y118.1158
G1 X131.377 Y118.2622
G1 Y118.575
G3 X130.877 Y119.075 I-0.5 J0.0
G1 X130.3966
G1 X130.2502 Y118.9286
G0 Z3.0
G0 X131.2306 Y137.1658
G0 Z-4.0
G1 F300.0 Z-7.0
G1 F800.0 X131.377 Y137.3122
G1 Y137.625
G3 X130.877 Y138.125 I-0.5 J0.0
G1 X130.3966
G1 X130.2502 Y137.9786
G1 X130.3966 Y138.125
G1 Y151.095
G1 X130.2502 Y151.2414
G1 X130.3966 Y151.095
G1 X130.877
G3 X131.377 Y151.595 I0.0 J0.5
G1 Y151.9078
G1 X131.2306 Y152.0542
G1 X131.377 Y151.9078
G1 X133.8772
G1 X134.0236 Y152.0542
G1 X133.8772 Y151.9078
G1 Y151.595
G3 X134.3772 Y151.095 I0.5 J0.0
G1 X139.386
G3 X139.886 Y151.595 I0.0 J0.5
G1 Y151.9078
G1 X139.7396 Y152.0542
G1 X139.886 Y151.9078
G1 X142.3862
G1 X142.5326 Y152.0542
G1 X142.3862 Y151.9078
G1 Y151.595
G3 X142.8862 Y151.095 I0.5 J0.0
G1 X143.3666
G1 X143.513 Y151.2414
G1 X143.3666 Y151.095
G1 Y138.125
G1 X143.513 Y137.9786
G1 X143.3666 Y138.125
G1 X142.8862
G3 X142.3862 Y137.625 I0.0 J-0.5
G1 Y137.3122
G1 X142.5326 Y137.1658
G1 X142.3862 Y137.3122
G1 X139.886
G1 X139.7396 Y137.1658
G1 X139.886 Y137.3122
G1 Y137.625
G3 X139.386 Y138.125 I-0.5 J0.0
G1 X134.3772
G3 X133.8772 Y137.625 I0.0 J-0.5
G1 Y137.3122
G1 X134.0236 Y137.1658
G1 X133.8772 Y137.3122
G1 X131.377
G1 X131.2306 Y137.1658
G1 F300.0 Z-8.0
G1 F800.0 X131.377 Y137.3122
G1 Y137.625
G3 X130.877 Y138.125 I-0.5 J0.0
G1 X130.3966
G1 X130.2502 Y137.9786
G1 X130.3966 Y138.125
G1 Y151.095
G1 X130.2502 Y151.2414
G1 X130.3966 Y151.095
G1 X130.877
G3 X131.377 Y151.595 I0.0 J0.5
G1 Y151.9078
G1 X131.2306 Y152.0542
G1 X131.377 Y151.9078
G1 X133.8772
G1 X134.0236 Y152.0542
G1 X133.8772 Y151.9078
G1 Y151.595
G3 X134.3772 Y151.095 I0.5 J0.0
G1 X139.386
G3 X139.886 Y151.595 I0.0 J0.5
G1 Y151.9078
G1 X139.7396 Y152.0542
G1 X139.886 Y151.9078
G1 X142.3862
G1 X142.5326 Y152.0542
G1 X142.3862 Y151.9078
G1 Y151.595
G3 X142.8862 Y151.095 I0.5 J0.0
G1 X143.3666
G1 X143.513 Y151.2414
G1 X143.3666 Y151.095
G1 Y138.125
G1 X143.513 Y137.9786
G1 X143.3666 Y138.125
G1 X142.8862
G3 X142.3862 Y137.625 I0.0 J-0.5
G1 Y137.3122
G1 X142.5326 Y137.1658
G1 X142.3862 Y137.3122
G1 X139.886
G1 X139.7396 Y137.1658
G1 X139.886 Y137.3122
G1 Y137.625
G3 X139.386 Y138.125 I-0.5 J0.0
G1 X134.3772
G3 X133.8772 Y137.625 I0.0 J-0.5
G1 Y137.3122
G1 X134.0236 Y137.1658
G1 X133.8772 Y137.3122
G1 X131.377
G1 X131.2306 Y137.1658
G0 Z3.0
G0 X120.5159 Y138.959
G0 Z-4.0
G1 F300.0 Z-7.0
G1 F800.0 X120.3694 Y139.1054
G1 X120.0566
G3 X119.5566 Y138.6054 I0.0 J-0.5
G1 Y138.125
G1 X119.7031 Y137.9786
G1 X119.5566 Y138.125
G1 X106.5866
G1 X106.4402 Y137.9786
G1 X106.5866 Y138.125
G1 Y138.6054
G3 X106.0866 Y139.1054 I-0.5 J0.0
G1 X105.7738
G1 X105.6274 Y138.959
G1 X105.7738 Y139.1054
G1 Y141.6056
G1 X105.6274 Y141.752
G1 X105.7738 Y141.6056
G1 X106.0866
G3 X106.5866 Y142.1056 I0.0 J0.5
G1 Y147.1144
G3 X106.0866 Y147.6144 I-0.5 J0.0
G1 X105.7738
G1 X105.6274 Y147.468
G1 X105.7738 Y147.6144
G1 Y150.1146
G1 X105.6274 Y150.261
G1 X105.7738 Y150.1146
G1 X106.0866
G3 X106.5866 Y150.6146 I0.0 J0.5
G1 Y151.095
G1 X106.4402 Y151.2414
G1 X106.5866 Y151.095
G1 X119.5566
G1 X119.7031 Y151.2414
G1 X119.5566 Y151.095
G1 Y150.6146
G3 X120.0566 Y150.1146 I0.5 J0.0
G1 X120.3694
G1 X120.5159 Y150.261
G1 X120.3694 Y150.1146
G1 Y147.6144
G1 X120.5159 Y147.468
G1 X120.3694 Y147.6144
G1 X120.0566
G3 X119.5566 Y147.1144 I0.0 J-0.5
G1 Y142.1056
G3 X120.0566 Y141.6056 I0.5 J0.0
G1 X120.3694
G1 X120.5159 Y141.752
G1 X120.3694 Y141.6056
G1 Y139.1054
G1 X120.5159 Y138.959
G1 F300.0 Z-8.0
G1 F800.0 X120.3694 Y139.1054
G1 X120.0566
G3 X119.5566 Y138.6054 I0.0 J-0.5
G1 Y138.125
G1 X119.7031 Y137.9786
G1 X119.5566 Y138.125
G1 X106.5866
G1 X106.4402 Y137.9786
G1 X106.5866 Y138.125
G1 Y138.6054
G3 X106.0866 Y139.1054 I-0.5 J0.0
G1 X105.7738
G1 X105.6274 Y138.959
G1 X105.7738 Y139.1054
G1 Y141.6056
G1 X105.6274 Y141.752
G1 X105.7738 Y141.6056
G1 X106.0866
G3 X106.5866 Y142.1056 I0.0 J0.5
G1 Y147.1144
G3 X106.0866 Y147.6144 I-0.5 J0.0
G1 X105.7738
G1 X105.6274 Y147.468
G1 X105.7738 Y147.6144
G1 Y150.1146
G1 X105.6274 Y150.261
G1 X105.7738 Y150.1146
G1 X106.0866
G3 X106.5866 Y150.6146 I0.0 J0.5
G1 Y151.095
G1 X106.4402 Y151.2414
G1 X106.5866 Y151.095
G1 X119.5566
G1 X119.7031 Y151.2414
G1 X119.5566 Y151.095
G1 Y150.6146
G3 X120.0566 Y150.1146 I0.5 J0.0
G1 X120.3694
G1 X120.5159 Y150.261
G1 X120.3694 Y150.1146
G1 Y147.6144
G1 X120.5159 Y147.468
G1 X120.3694 Y147.6144
G1 X120.0566
G3 X119.5566 Y147.1144 I0.0 J-0.5
G1 Y142.1056
G3 X120.0566 Y141.6056 I0.5 J0.0
G1 X120.3694
G1 X120.5159 Y141.752
G1 X120.3694 Y141.6056
G1 Y139.1054
G1 X120.5159 Y138.959
G0 Z3.0
G0 X105.4156 Y132.1914
G0 Z-4.0
G1 F300.0 Z-7.0
G1 F800.0 X105.2691 Y132.045
G1 Y119.075
G1 X105.4156 Y118.9286
G1 X105.2691 Y119.075
G1 X104.7887
G3 X104.2887 Y118.575 I0.0 J-0.5
G1 Y118.2622
G1 X104.4351 Y118.1158
G1 X104.2887 Y118.2622
G1 X101.7886
G1 X101.6421 Y118.1158
G1 X101.7886 Y118.2622
G1 Y118.575
G3 X101.2886 Y119.075 I-0.5 J0.0
G1 X96.2797
G3 X95.7797 Y118.575 I0.0 J-0.5
G1 Y118.2622
G1 X95.9261 Y118.1158
G1 X95.7797 Y118.2622
G1 X93.2796
G1 X93.1331 Y118.1158
G1 X93.2796 Y118.2622
G1 Y118.575
G3 X92.7796 Y119.075 I-0.5 J0.0
G1 X92.2991
G1 X92.1527 Y118.9286
G1 X92.2991 Y119.075
G1 Y132.045
G1 X92.1527 Y132.1914
G1 X92.2991 Y132.045
G1 X92.7796
G3 X93.2796 Y132.545 I0.0 J0.5
G1 Y132.8578
G1 X93.1331 Y133.0042
G1 X93.2796 Y132.8578
G1 X95.7797
G1 X95.9261 Y133.0042
G1 X95.7797 Y132.8578
G1 Y132.545
G3 X96.2797 Y132.045 I0.5 J0.0
G1 X101.2886
G3 X101.7886 Y132.545 I0.0 J0.5
G1 Y132.8578
G1 X101.6421 Y133.0042
G1 X101.7886 Y132.8578
G1 X104.2887
G1 X104.4351 Y133.0042
G1 X104.2887 Y132.8578
G1 Y132.545
G3 X104.7887 Y132.045 I0.5 J0.0
G1 X105.2691
G1 X105.4156 Y132.1914
G1 F300.0 Z-8.0
G1 F800.0 X105.2691 Y132.045
G1 Y119.075
G1 X105.4156 Y118.9286
G1 X105.2691 Y119.075
G1 X104.7887
G3 X104.2887 Y118.575 I0.0 J-0.5
G1 Y118.2622
G1 X104.4351 Y118.1158
G1 X104.2887 Y118.2622
G1 X101.7886
G1 X101.6421 Y118.1158
G1 X101.7886 Y118.2622
G1 Y118.575
G3 X101.2886 Y119.075 I-0.5 J0.0
G1 X96.2797
G3 X95.7797 Y118.575 I0.0 J-0.5
G1 Y118.2622
G1 X95.9261 Y118.1158
G1 X95.7797 Y118.2622
G1 X93.2796
G1 X93.1331 Y118.1158
G1 X93.2796 Y118.2622
G1 Y118.575
G3 X92.7796 Y119.075 I-0.5 J0.0
G1 X92.2991
G1 X92.1527 Y118.9286
G1 X92.2991 Y119.075
G1 Y132.045
G1 X92.1527 Y132.1914
G1 X92.2991 Y132.045
G1 X92.7796
G3 X93.2796 Y132.545 I0.0 J0.5
G1 Y132.8578
G1 X93.1331 Y133.0042
G1 X93.2796 Y132.8578
G1 X95.7797
G1 X95.9261 Y133.0042
G1 X95.7797 Y132.8578
G1 Y132.545
G3 X96.2797 Y132.045 I0.5 J0.0
G1 X101.2886
G3 X101.7886 Y132.545 I0.0 J0.5
G1 Y132.8578
G1 X101.6421 Y133.0042
G1 X101.7886 Y132.8578
G1 X104.2887
G1 X104.4351 Y133.0042
G1 X104.2887 Y132.8578
G1 Y132.545
G3 X104.7887 Y132.045 I0.5 J0.0
G1 X105.2691
G1 X105.4156 Y132.1914
G0 Z3.0
G0 X91.9409 Y138.959
G0 Z-4.0
G1 F300.0 Z-7.0
G1 F800.0 X91.7944 Y139.1054
G1 X91.4816
G3 X90.9816 Y138.6054 I0.0 J-0.5
G1 Y138.125
G1 X91.1281 Y137.9786
G1 X90.9816 Y138.125
G1 X78.0116
G1 X77.8652 Y137.9786
G1 X78.0116 Y138.125
G1 Y138.6054
G3 X77.5116 Y139.1054 I-0.5 J0.0
G1 X77.1988
G1 X77.0524 Y138.959
G1 X77.1988 Y139.1054
G1 Y141.6056
G1 X77.0524 Y141.752
G1 X77.1988 Y141.6056
G1 X77.5116
G3 X78.0116 Y142.1056 I0.0 J0.5
G1 Y147.1144
G3 X77.5116 Y147.6144 I-0.5 J0.0
G1 X77.1988
G1 X77.0524 Y147.468
G1 X77.1988 Y147.6144
G1 Y150.1146
G1 X77.0524 Y150.261
G1 X77.1988 Y150.1146
G1 X77.5116
G3 X78.0116 Y150.6146 I0.0 J0.5
G1 Y151.095
G1 X77.8652 Y151.2414
G1 X78.0116 Y151.095
G1 X90.9816
G1 X91.1281 Y151.2414
G1 X90.9816 Y151.095
G1 Y150.6146
G3 X91.4816 Y150.1146 I0.5 J0.0
G1 X91.7944
G1 X91.9409 Y150.261
G1 X91.7944 Y150.1146
G1 Y147.6144
G1 X91.9409 Y147.468
G1 X91.7944 Y147.6144
G1 X91.4816
G3 X90.9816 Y147.1144 I0.0 J-0.5
G1 Y142.1056
G3 X91.4816 Y141.6056 I0.5 J0.0
G1 X91.7944
G1 X91.9409 Y141.752
G1 X91.7944 Y141.6056
G1 Y139.1054
G1 X91.9409 Y138.959
G1 F300.0 Z-8.0
G1 F800.0 X91.7944 Y139.1054
G1 X91.4816
G3 X90.9816 Y138.6054 I0.0 J-0.5
G1 Y138.125
G1 X91.1281 Y137.9786
G1 X90.9816 Y138.125
G1 X78.0116
G1 X77.8652 Y137.9786
G1 X78.0116 Y138.125
G1 Y138.6054
G3 X77.5116 Y139.1054 I-0.5 J0.0
G1 X77.1988
G1 X77.0524 Y138.959
G1 X77.1988 Y139.1054
G1 Y141.6056
G1 X77.0524 Y141.752
G1 X77.1988 Y141.6056
G1 X77.5116
G3 X78.0116 Y142.1056 I0.0 J0.5
G1 Y147.1144
G3 X77.5116 Y147.6144 I-0.5 J0.0
G1 X77.1988
G1 X77.0524 Y147.468
G1 X77.1988 Y147.6144
G1 Y150.1146
G1 X77.0524 Y150.261
G1 X77.1988 Y150.1146
G1 X77.5116
G3 X78.0116 Y150.6146 I0.0 J0.5
G1 Y151.095
G1 X77.8652 Y151.2414
G1 X78.0116 Y151.095
G1 X90.9816
G1 X91.1281 Y151.2414
G1 X90.9816 Y151.095
G1 Y150.6146
G3 X91.4816 Y150.1146 I0.5 J0.0
G1 X91.7944
G1 X91.9409 Y150.261
G1 X91.7944 Y150.1146
G1 Y147.6144
G1 X91.9409 Y147.468
G1 X91.7944 Y147.6144
G1 X91.4816
G3 X90.9816 Y147.1144 I0.0 J-0.5
G1 Y142.1056
G3 X91.4816 Y141.6056 I0.5 J0.0
G1 X91.7944
G1 X91.9409 Y141.752
G1 X91.7944 Y141.6056
G1 Y139.1054
G1 X91.9409 Y138.959
G0 Z3.0
G0 X86.3656 Y132.1914
G0 Z-4.0
G1 F300.0 Z-7.0
G1 F800.0 X86.2191 Y132.045
G1 Y119.075
G1 X86.3656 Y118.9286
G1 X86.2191 Y119.075
G1 X85.7387
G3 X85.2387 Y118.575 I0.0 J-0.5
G1 Y118.2622
G1 X85.3851 Y118.1158
G1 X85.2387 Y118.2622
G1 X82.7386
G1 X82.5921 Y118.1158
G1 X82.7386 Y118.2622
G1 Y118.575
G3 X82.2386 Y119.075 I-0.5 J0.0
G1 X77.2297
G3 X76.7297 Y118.575 I0.0 J-0.5
G1 Y118.2622
G1 X76.8761 Y118.1158
G1 X76.7297 Y118.2622
G1 X74.2296
G1 X74.0831 Y118.1158
G1 X74.2296 Y118.2622
G1 Y118.575
G3 X73.7296 Y119.075 I-0.5 J0.0
G1 X73.2491
G1 X73.1027 Y118.9286
G1 X73.2491 Y119.075
G1 Y132.045
G1 X73.1027 Y132.1914
G1 X73.2491 Y132.045
G1 X73.7296
G3 X74.2296 Y132.545 I0.0 J0.5
G1 Y132.8578
G1 X74.0831 Y133.0042
G1 X74.2296 Y132.8578
G1 X76.7297
G1 X76.8761 Y133.0042
G1 X76.7297 Y132.8578
G1 Y132.545
G3 X77.2297 Y132.045 I0.5 J0.0
G1 X82.2386
G3 X82.7386 Y132.545 I0.0 J0.5
G1 Y132.8578
G1 X82.5921 Y133.0042
G1 X82.7386 Y132.8578
G1 X85.2387
G1 X85.3851 Y133.0042
G1 X85.2387 Y132.8578
G1 Y132.545
G3 X85.7387 Y132.045 I0.5 J0.0
G1 X86.2191
G1 X86.3656 Y132.1914
G1 F300.0 Z-8.0
G1 F800.0 X86.2191 Y132.045
G1 Y119.075
G1 X86.3656 Y118.9286
G1 X86.2191 Y119.075
G1 X85.7387
G3 X85.2387 Y118.575 I0.0 J-0.5
G1 Y118.2622
G1 X85.3851 Y118.1158
G1 X85.2387 Y118.2622
G1 X82.7386
G1 X82.5921 Y118.1158
G1 X82.7386 Y118.2622
G1 Y118.575
G3 X82.2386 Y119.075 I-0.5 J0.0
G1 X77.2297
G3 X76.7297 Y118.575 I0.0 J-0.5
G1 Y118.2622
G1 X76.8761 Y118.1158
G1 X76.7297 Y118.2622
G1 X74.2296
G1 X74.0831 Y118.1158
G1 X74.2296 Y118.2622
G1 Y118.575
G3 X73.7296 Y119.075 I-0.5 J0.0
G1 X73.2491
G1 X73.1027 Y118.9286
G1 X73.2491 Y119.075
G1 Y132.045
G1 X73.1027 Y132.1914
G1 X73.2491 Y132.045
G1 X73.7296
G3 X74.2296 Y132.545 I0.0 J0.5
G1 Y132.8578
G1 X74.0831 Y133.0042
G1 X74.2296 Y132.8578
G1 X76.7297
G1 X76.8761 Y133.0042
G1 X76.7297 Y132.8578
G1 Y132.545
G3 X77.2297 Y132.045 I0.5 J0.0
G1 X82.2386
G3 X82.7386 Y132.545 I0.0 J0.5
G1 Y132.8578
G1 X82.5921 Y133.0042
G1 X82.7386 Y132.8578
G1 X85.2387
G1 X85.3851 Y133.0042
G1 X85.2387 Y132.8578
G1 Y132.545
G3 X85.7387 Y132.045 I0.5 J0.0
G1 X86.2191
G1 X86.3656 Y132.1914
G0 Z3.0
G0 X86.6551 Y113.9542
G0 Z-4.0
G1 F300.0 Z-7.0
G1 F800.0 X86.5087 Y113.8078
G1 Y113.495
G3 X87.0087 Y112.995 I0.5 J0.0
G1 X87.4891
G1 X87.6356 Y113.1414
G1 X87.4891 Y112.995
G1 Y100.025
G1 X87.6356 Y99.8786
G1 X87.4891 Y100.025
G1 X87.0087
G3 X86.5087 Y99.525 I0.0 J-0.5
G1 Y99.2122
G1 X86.6551 Y99.0658
G1 X86.5087 Y99.2122
G1 X84.0086
G1 X83.8621 Y99.0658
G1 X84.0086 Y99.2122
G1 Y99.525
G3 X83.5086 Y100.025 I-0.5 J0.0
G1 X78.4997
G3 X77.9997 Y99.525 I0.0 J-0.5
G1 Y99.2122
G1 X78.1461 Y99.0658
G1 X77.9997 Y99.2122
G1 X75.4996
G1 X75.3531 Y99.0658
G1 X75.4996 Y99.2122
G1 Y99.525
G3 X74.9996 Y100.025 I-0.5 J0.0
G1 X74.5191
G1 X74.3727 Y99.8786
G1 X74.5191 Y100.025
G1 Y112.995
G1 X74.3727 Y113.1414
G1 X74.5191 Y112.995
G1 X74.9996
G3 X75.4996 Y113.495 I0.0 J0.5
G1 Y113.8078
G1 X75.3531 Y113.9542
G1 X75.4996 Y113.8078
G1 X77.9997
G1 X78.1461 Y113.9542
G1 X77.9997 Y113.8078
G1 Y113.495
G3 X78.4997 Y112.995 I0.5 J0.0
G1 X83.5086
G3 X84.0086 Y113.495 I0.0 J0.5
G1 Y113.8078
G1 X83.8621 Y113.9542
G1 X84.0086 Y113.8078
G1 X86.5087
G1 X86.6551 Y113.9542
G1 F300.0 Z-8.0
G1 F800.0 X86.5087 Y113.8078
G1 Y113.495
G3 X87.0087 Y112.995 I0.5 J0.0
G1 X87.4891
G1 X87.6356 Y113.1414
G1 X87.4891 Y112.995
G1 Y100.025
G1 X87.6356 Y99.8786
G1 X87.4891 Y100.025
G1 X87.0087
G3 X86.5087 Y99.525 I0.0 J-0.5
G1 Y99.2122
G1 X86.6551 Y99.0658
G1 X86.5087 Y99.2122
G1 X84.0086
G1 X83.8621 Y99.0658
G1 X84.0086 Y99.2122
G1 Y99.525
G3 X83.5086 Y100.025 I-0.5 J0.0
G1 X78.4997
G3 X77.9997 Y99.525 I0.0 J-0.5
G1 Y99.2122
G1 X78.1461 Y99.0658
G1 X77.9997 Y99.2122
G1 X75.4996
G1 X75.3531 Y99.0658
G1 X75.4996 Y99.2122
G1 Y99.525
G3 X74.9996 Y100.025 I-0.5 J0.0
G1 X74.5191
G1 X74.3727 Y99.8786
G1 X74.5191 Y100.025
G1 Y112.995
G1 X74.3727 Y113.1414
G1 X74.5191 Y112.995
G1 X74.9996
G3 X75.4996 Y113.495 I0.0 J0.5
G1 Y113.8078
G1 X75.3531 Y113.9542
G1 X75.4996 Y113.8078
G1 X77.9997
G1 X78.1461 Y113.9542
G1 X77.9997 Y113.8078
G1 Y113.495
G3 X78.4997 Y112.995 I0.5 J0.0
G1 X83.5086
G3 X84.0086 Y113.495 I0.0 J0.5
G1 Y113.8078
G1 X83.8621 Y113.9542
G1 X84.0086 Y113.8078
G1 X86.5087
G1 X86.6551 Y113.9542
G0 Z3.0
G0 X93.4227 Y113.1414
G0 Z-4.0
G1 F300.0 Z-7.0
G1 F800.0 X93.5691 Y112.995
G1 X94.0496
G3 X94.5496 Y113.495 I0.0 J0.5
G1 Y113.8078
G1 X94.4031 Y113.9542
G1 X94.5496 Y113.8078
G1 X97.0497
G1 X97.1961 Y113.9542
G1 X97.0497 Y113.8078
G1 Y113.495
G3 X97.5497 Y112.995 I0.5 J0.0
G1 X102.5586
G3 X103.0586 Y113.495 I0.0 J0.5
G1 Y113.8078
G1 X102.9121 Y113.9542
G1 X103.0586 Y113.8078
G1 X105.5587
G1 X105.7051 Y113.9542
G1 X105.5587 Y113.8078
G1 Y113.495
G3 X106.0587 Y112.995 I0.5 J0.0
G1 X106.5391
G1 X106.6856 Y113.1414
G1 X106.5391 Y112.995
G1 Y100.025
G1 X106.6856 Y99.8786
G1 X106.5391 Y100.025
G1 X106.0587
G3 X105.5587 Y99.525 I0.0 J-0.5
G1 Y99.2122
G1 X105.7051 Y99.0658
G1 X105.5587 Y99.2122
G1 X103.0586
G1 X102.9121 Y99.0658
G1 X103.0586 Y99.2122
G1 Y99.525
G3 X102.5586 Y100.025 I-0.5 J0.0
G1 X97.5497
G3 X97.0497 Y99.525 I0.0 J-0.5
G1 Y99.2122
G1 X97.1961 Y99.0658
G1 X97.0497 Y99.2122
G1 X94.5496
G1 X94.4031 Y99.0658
G1 X94.5496 Y99.2122
G1 Y99.525
G3 X94.0496 Y100.025 I-0.5 J0.0
G1 X93.5691
G1 X93.4227 Y99.8786
G1 X93.5691 Y100.025
G1 Y112.995
G1 X93.4227 Y113.1414
G1 F300.0 Z-8.0
G1 F800.0 X93.5691 Y112.995
G1 X94.0496
G3 X94.5496 Y113.495 I0.0 J0.5
G1 Y113.8078
G1 X94.4031 Y113.9542
G1 X94.5496 Y113.8078
G1 X97.0497
G1 X97.1961 Y113.9542
G1 X97.0497 Y113.8078
G1 Y113.495
G3 X97.5497 Y112.995 I0.5 J0.0
G1 X102.5586
G3 X103.0586 Y113.495 I0.0 J0.5
G1 Y113.8078
G1 X102.9121 Y113.9542
G1 X103.0586 Y113.8078
G1 X105.5587
G1 X105.7051 Y113.9542
G1 X105.5587 Y113.8078
G1 Y113.495
G3 X106.0587 Y112.995 I0.5 J0.0
G1 X106.5391
G1 X106.6856 Y113.1414
G1 X106.5391 Y112.995
G1 Y100.025
G1 X106.6856 Y99.8786
G1 X106.5391 Y100.025
G1 X106.0587
G3 X105.5587 Y99.525 I0.0 J-0.5
G1 Y99.2122
G1 X105.7051 Y99.0658
G1 X105.5587 Y99.2122
G1 X103.0586
G1 X102.9121 Y99.0658
G1 X103.0586 Y99.2122
G1 Y99.525
G3 X102.5586 Y100.025 I-0.5 J0.0
G1 X97.5497
G3 X97.0497 Y99.525 I0.0 J-0.5
G1 Y99.2122
G1 X97.1961 Y99.0658
G1 X97.0497 Y99.2122
G1 X94.5496
G1 X94.4031 Y99.0658
G1 X94.5496 Y99.2122
G1 Y99.525
G3 X94.0496 Y100.025 I-0.5 J0.0
G1 X93.5691
G1 X93.4227 Y99.8786
G1 X93.5691 Y100.025
G1 Y112.995
G1 X93.4227 Y113.1414
G0 Z3.0
G0 X68.5856
G0 Z-4.0
G1 F300.0 Z-7.0
G1 F800.0 X68.4391 Y112.995
G1 Y100.025
G1 X68.5856 Y99.8786
G1 X68.4391 Y100.025
G1 X67.9587
G3 X67.4587 Y99.525 I0.0 J-0.5
G1 Y99.2122
G1 X67.6051 Y99.0658
G1 X67.4587 Y99.2122
G1 X64.9586
G1 X64.8121 Y99.0658
G1 X64.9586 Y99.2122
G1 Y99.525
G3 X64.4586 Y100.025 I-0.5 J0.0
G1 X59.4497
G3 X58.9497 Y99.525 I0.0 J-0.5
G1 Y99.2122
G1 X59.0961 Y99.0658
G1 X58.9497 Y99.2122
G1 X56.4496
G1 X56.3031 Y99.0658
G1 X56.4496 Y99.2122
G1 Y99.525
G3 X55.9496 Y100.025 I-0.5 J0.0
G1 X55.4691
G1 X55.3227 Y99.8786
G1 X55.4691 Y100.025
G1 Y112.995
G1 X55.3227 Y113.1414
G1 X55.4691 Y112.995
G1 X55.9496
G3 X56.4496 Y113.495 I0.0 J0.5
G1 Y113.8078
G1 X56.3031 Y113.9542
G1 X56.4496 Y113.8078
G1 X58.9497
G1 X59.0961 Y113.9542
G1 X58.9497 Y113.8078
G1 Y113.495
G3 X59.4497 Y112.995 I0.5 J0.0
G1 X64.4586
G3 X64.9586 Y113.495 I0.0 J0.5
G1 Y113.8078
G1 X64.8121 Y113.9542
G1 X64.9586 Y113.8078
G1 X67.4587
G1 X67.6051 Y113.9542
G1 X67.4587 Y113.8078
G1 Y113.495
G3 X67.9587 Y112.995 I0.5 J0.0
G1 X68.4391
G1 X68.5856 Y113.1414
G1 F300.0 Z-8.0
G1 F800.0 X68.4391 Y112.995
G1 Y100.025
G1 X68.5856 Y99.8786
G1 X68.4391 Y100.025
G1 X67.9587
G3 X67.4587 Y99.525 I0.0 J-0.5
G1 Y99.2122
G1 X67.6051 Y99.0658
G1 X67.4587 Y99.2122
G1 X64.9586
G1 X64.8121 Y99.0658
G1 X64.9586 Y99.2122
G1 Y99.525
G3 X64.4586 Y100.025 I-0.5 J0.0
G1 X59.4497
G3 X58.9497 Y99.525 I0.0 J-0.5
G1 Y99.2122
G1 X59.0961 Y99.0658
G1 X58.9497 Y99.2122
G1 X56.4496
G1 X56.3031 Y99.0658
G1 X56.4496 Y99.2122
G1 Y99.525
G3 X55.9496 Y100.025 I-0.5 J0.0
G1 X55.4691
G1 X55.3227 Y99.8786
G1 X55.4691 Y100.025
G1 Y112.995
G1 X55.3227 Y113.1414
G1 X55.4691 Y112.995
G1 X55.9496
G3 X56.4496 Y113.495 I0.0 J0.5
G1 Y113.8078
G1 X56.3031 Y113.9542
G1 X56.4496 Y113.8078
G1 X58.9497
G1 X59.0961 Y113.9542
G1 X58.9497 Y113.8078
G1 Y113.495
G3 X59.4497 Y112.995 I0.5 J0.0
G1 X64.4586
G3 X64.9586 Y113.495 I0.0 J0.5
G1 Y113.8078
G1 X64.8121 Y113.9542
G1 X64.9586 Y113.8078
G1 X67.4587
G1 X67.6051 Y113.9542
G1 X67.4587 Y113.8078
G1 Y113.495
G3 X67.9587 Y112.995 I0.5 J0.0
G1 X68.4391
G1 X68.5856 Y113.1414
G0 Z3.0
G0 X69.2028 Y94.9042
G0 Z-4.0
G1 F300.0 Z-7.0
G1 F800.0 X69.0564 Y94.7578
G1 Y94.445
G3 X69.5564 Y93.945 I0.5 J0.0
G1 X70.0368
G1 X70.1832 Y94.0914
G1 X70.0368 Y93.945
G1 Y80.975
G1 X70.1832 Y80.8286
G1 X70.0368 Y80.975
G1 X69.5564
G3 X69.0564 Y80.475 I0.0 J-0.5
G1 Y80.1622
G1 X69.2028 Y80.0158
G1 X69.0564 Y80.1622
G1 X66.5562
G1 X66.4098 Y80.0158
G1 X66.5562 Y80.1622
G1 Y80.475
G3 X66.0562 Y80.975 I-0.5 J0.0
G1 X61.0474
G3 X60.5474 Y80.475 I0.0 J-0.5
G1 Y80.1622
G1 X60.6938 Y80.0158
G1 X60.5474 Y80.1622
G1 X58.0472
G1 X57.9008 Y80.0158
G1 X58.0472 Y80.1622
G1 Y80.475
G3 X57.5472 Y80.975 I-0.5 J0.0
G1 X57.0668
G1 X56.9204 Y80.8286
G1 X57.0668 Y80.975
G1 Y93.945
G1 X56.9204 Y94.0914
G1 X57.0668 Y93.945
G1 X57.5472
G3 X58.0472 Y94.445 I0.0 J0.5
G1 Y94.7578
G1 X57.9008 Y94.9042
G1 X58.0472 Y94.7578
G1 X60.5474
G1 X60.6938 Y94.9042
G1 X60.5474 Y94.7578
G1 Y94.445
G3 X61.0474 Y93.945 I0.5 J0.0
G1 X66.0562
G3 X66.5562 Y94.445 I0.0 J0.5
G1 Y94.7578
G1 X66.4098 Y94.9042
G1 X66.5562 Y94.7578
G1 X69.0564
G1 X69.2028 Y94.9042
G1 F300.0 Z-8.0
G1 F800.0 X69.0564 Y94.7578
G1 Y94.445
G3 X69.5564 Y93.945 I0.5 J0.0
G1 X70.0368
G1 X70.1832 Y94.0914
G1 X70.0368 Y93.945
G1 Y80.975
G1 X70.1832 Y80.8286
G1 X70.0368 Y80.975
G1 X69.5564
G3 X69.0564 Y80.475 I0.0 J-0.5
G1 Y80.1622
G1 X69.2028 Y80.0158
G1 X69.0564 Y80.1622
G1 X66.5562
G1 X66.4098 Y80.0158
G1 X66.5562 Y80.1622
G1 Y80.475
G3 X66.0562 Y80.975 I-0.5 J0.0
G1 X61.0474
G3 X60.5474 Y80.475 I0.0 J-0.5
G1 Y80.1622
G1 X60.6938 Y80.0158
G1 X60.5474 Y80.1622
G1 X58.0472
G1 X57.9008 Y80.0158
G1 X58.0472 Y80.1622
G1 Y80.475
G3 X57.5472 Y80.975 I-0.5 J0.0
G1 X57.0668
G1 X56.9204 Y80.8286
G1 X57.0668 Y80.975
G1 Y93.945
G1 X56.9204 Y94.0914
G1 X57.0668 Y93.945
G1 X57.5472
G3 X58.0472 Y94.445 I0.0 J0.5
G1 Y94.7578
G1 X57.9008 Y94.9042
G1 X58.0472 Y94.7578
G1 X60.5474
G1 X60.6938 Y94.9042
G1 X60.5474 Y94.7578
G1 Y94.445
G3 X61.0474 Y93.945 I0.5 J0.0
G1 X66.0562
G3 X66.5562 Y94.445 I0.0 J0.5
G1 Y94.7578
G1 X66.4098 Y94.9042
G1 X66.5562 Y94.7578
G1 X69.0564
G1 X69.2028 Y94.9042
G0 Z3.0
G0 X67.6051 Y75.8542
G0 Z-4.0
G1 F300.0 Z-7.0
G1 F800.0 X67.4587 Y75.7078
G1 Y75.395
G3 X67.9587 Y74.895 I0.5 J0.0
G1 X68.4391
G1 X68.5856 Y75.0414
G1 X68.4391 Y74.895
G1 Y61.925
G1 X68.5856 Y61.7786
G1 X68.4391 Y61.925
G1 X67.9587
G3 X67.4587 Y61.425 I0.0 J-0.5
G1 Y61.1122
G1 X67.6051 Y60.9658
G1 X67.4587 Y61.1122
G1 X64.9586
G1 X64.8121 Y60.9658
G1 X64.9586 Y61.1122
G1 Y61.425
G3 X64.4586 Y61.925 I-0.5 J0.0
G1 X59.4497
G3 X58.9497 Y61.425 I0.0 J-0.5
G1 Y61.1122
G1 X59.0961 Y60.9658
G1 X58.9497 Y61.1122
G1 X56.4496
G1 X56.3031 Y60.9658
G1 X56.4496 Y61.1122
G1 Y61.425
G3 X55.9496 Y61.925 I-0.5 J0.0
G1 X55.4691
G1 X55.3227 Y61.7786
G1 X55.4691 Y61.925
G1 Y74.895
G1 X55.3227 Y75.0414
G1 X55.4691 Y74.895
G1 X55.9496
G3 X56.4496 Y75.395 I0.0 J0.5
G1 Y75.7078
G1 X56.3031 Y75.8542
G1 X56.4496 Y75.7078
G1 X58.9497
G1 X59.0961 Y75.8542
G1 X58.9497 Y75.7078
G1 Y75.395
G3 X59.4497 Y74.895 I0.5 J0.0
G1 X64.4586
G3 X64.9586 Y75.395 I0.0 J0.5
G1 Y75.7078
G1 X64.8121 Y75.8542
G1 X64.9586 Y75.7078
G1 X67.4587
G1 X67.6051 Y75.8542
G1 F300.0 Z-8.0
G1 F800.0 X67.4587 Y75.7078
G1 Y75.395
G3 X67.9587 Y74.895 I0.5 J0.0
G1 X68.4391
G1 X68.5856 Y75.0414
G1 X68.4391 Y74.895
G1 Y61.925
G1 X68.5856 Y61.7786
G1 X68.4391 Y61.925
G1 X67.9587
G3 X67.4587 Y61.425 I0.0 J-0.5
G1 Y61.1122
G1 X67.6051 Y60.9658
G1 X67.4587 Y61.1122
G1 X64.9586
G1 X64.8121 Y60.9658
G1 X64.9586 Y61.1122
G1 Y61.425
G3 X64.4586 Y61.925 I-0.5 J0.0
G1 X59.4497
G3 X58.9497 Y61.425 I0.0 J-0.5
G1 Y61.1122
G1 X59.0961 Y60.9658
G1 X58.9497 Y61.1122
G1 X56.4496
G1 X56.3031 Y60.9658
G1 X56.4496 Y61.1122
G1 Y61.425
G3 X55.9496 Y61.925 I-0.5 J0.0
G1 X55.4691
G1 X55.3227 Y61.7786
G1 X55.4691 Y61.925
G1 Y74.895
G1 X55.3227 Y75.0414
G1 X55.4691 Y74.895
G1 X55.9496
G3 X56.4496 Y75.395 I0.0 J0.5
G1 Y75.7078
G1 X56.3031 Y75.8542
G1 X56.4496 Y75.7078
G1 X58.9497
G1 X59.0961 Y75.8542
G1 X58.9497 Y75.7078
G1 Y75.395
G3 X59.4497 Y74.895 I0.5 J0.0
G1 X64.4586
G3 X64.9586 Y75.395 I0.0 J0.5
G1 Y75.7078
G1 X64.8121 Y75.8542
G1 X64.9586 Y75.7078
G1 X67.4587
G1 X67.6051 Y75.8542
G0 Z3.0
G0 X64.4301 Y56.8042
G0 Z-4.0
G1 F300.0 Z-7.0
G1 F800.0 X64.2837 Y56.6578
G1 Y56.345
G3 X64.7837 Y55.845 I0.5 J0.0
G1 X65.2641
G1 X65.4106 Y55.9914
G1 X65.2641 Y55.845
G1 Y42.875
G1 X65.4106 Y42.7286
G1 X65.2641 Y42.875
G1 X64.7837
G3 X64.2837 Y42.375 I0.0 J-0.5
G1 Y42.0622
G1 X64.4301 Y41.9158
G1 X64.2837 Y42.0622
G1 X61.7836
G1 X61.6371 Y41.9158
G1 X61.7836 Y42.0622
G1 Y42.375
G3 X61.2836 Y42.875 I-0.5 J0.0
G1 X56.2747
G3 X55.7747 Y42.375 I0.0 J-0.5
G1 Y42.0622
G1 X55.9211 Y41.9158
G1 X55.7747 Y42.0622
G1 X53.2746
G1 X53.1281 Y41.9158
G1 X53.2746 Y42.0622
G1 Y42.375
G3 X52.7746 Y42.875 I-0.5 J0.0
G1 X52.2941
G1 X52.1477 Y42.7286
G1 X52.2941 Y42.875
G1 Y55.845
G1 X52.1477 Y55.9914
G1 X52.2941 Y55.845
G1 X52.7746
G3 X53.2746 Y56.345 I0.0 J0.5
G1 Y56.6578
G1 X53.1281 Y56.8042
G1 X53.2746 Y56.6578
G1 X55.7747
G1 X55.9211 Y56.8042
G1 X55.7747 Y56.6578
G1 Y56.345
G3 X56.2747 Y55.845 I0.5 J0.0
G1 X61.2836
G3 X61.7836 Y56.345 I0.0 J0.5
G1 Y56.6578
G1 X61.6371 Y56.8042
G1 X61.7836 Y56.6578
G1 X64.2837
G1 X64.4301 Y56.8042
G1 F300.0 Z-8.0
G1 F800.0 X64.2837 Y56.6578
G1 Y56.345
G3 X64.7837 Y55.845 I0.5 J0.0
G1 X65.2641
G1 X65.4106 Y55.9914
G1 X65.2641 Y55.845
G1 Y42.875
G1 X65.4106 Y42.7286
G1 X65.2641 Y42.875
G1 X64.7837
G3 X64.2837 Y42.375 I0.0 J-0.5
G1 Y42.0622
G1 X64.4301 Y41.9158
G1 X64.2837 Y42.0622
G1 X61.7836
G1 X61.6371 Y41.9158
G1 X61.7836 Y42.0622
G1 Y42.375
G3 X61.2836 Y42.875 I-0.5 J0.0
G1 X56.2747
G3 X55.7747 Y42.375 I0.0 J-0.5
G1 Y42.0622
G1 X55.9211 Y41.9158
G1 X55.7747 Y42.0622
G1 X53.2746
G1 X53.1281 Y41.9158
G1 X53.2746 Y42.0622
G1 Y42.375
G3 X52.7746 Y42.875 I-0.5 J0.0
G1 X52.2941
G1 X52.1477 Y42.7286
G1 X52.2941 Y42.875
G1 Y55.845
G1 X52.1477 Y55.9914
G1 X52.2941 Y55.845
G1 X52.7746
G3 X53.2746 Y56.345 I0.0 J0.5
G1 Y56.6578
G1 X53.1281 Y56.8042
G1 X53.2746 Y56.6578
G1 X55.7747
G1 X55.9211 Y56.8042
G1 X55.7747 Y56.6578
G1 Y56.345
G3 X56.2747 Y55.845 I0.5 J0.0
G1 X61.2836
G3 X61.7836 Y56.345 I0.0 J0.5
G1 Y56.6578
G1 X61.6371 Y56.8042
G1 X61.7836 Y56.6578
G1 X64.2837
G1 X64.4301 Y56.8042
G0 Z3.0
G0 X71.1977 Y55.9914
G0 Z-4.0
G1 F300.0 Z-7.0
G1 F800.0 X71.3441 Y55.845
G1 X71.8246
G3 X72.3246 Y56.345 I0.0 J0.5
G1 Y56.6578
G1 X72.1781 Y56.8042
G1 X72.3246 Y56.6578
G1 X74.8247
G1 X74.9711 Y56.8042
G1 X74.8247 Y56.6578
G1 Y56.345
G3 X75.3247 Y55.845 I0.5 J0.0
G1 X80.3336
G3 X80.8336 Y56.345 I0.0 J0.5
G1 Y56.6578
G1 X80.6871 Y56.8042
G1 X80.8336 Y56.6578
G1 X83.3337
G1 X83.4801 Y56.8042
G1 X83.3337 Y56.6578
G1 Y56.345
G3 X83.8337 Y55.845 I0.5 J0.0
G1 X84.3141
G1 X84.4606 Y55.9914
G1 X84.3141 Y55.845
G1 Y42.875
G1 X84.4606 Y42.7286
G1 X84.3141 Y42.875
G1 X83.8337
G3 X83.3337 Y42.375 I0.0 J-0.5
G1 Y42.0622
G1 X83.4801 Y41.9158
G1 X83.3337 Y42.0622
G1 X80.8336
G1 X80.6871 Y41.9158
G1 X80.8336 Y42.0622
G1 Y42.375
G3 X80.3336 Y42.875 I-0.5 J0.0
G1 X75.3247
G3 X74.8247 Y42.375 I0.0 J-0.5
G1 Y42.0622
G1 X74.9711 Y41.9158
G1 X74.8247 Y42.0622
G1 X72.3246
G1 X72.1781 Y41.9158
G1 X72.3246 Y42.0622
G1 Y42.375
G3 X71.8246 Y42.875 I-0.5 J0.0
G1 X71.3441
G1 X71.1977 Y42.7286
G1 X71.3441 Y42.875
G1 Y55.845
G1 X71.1977 Y55.9914
G1 F300.0 Z-8.0
G1 F800.0 X71.3441 Y55.845
G1 X71.8246
G3 X72.3246 Y56.345 I0.0 J0.5
G1 Y56.6578
G1 X72.1781 Y56.8042
G1 X72.3246 Y56.6578
G1 X74.8247
G1 X74.9711 Y56.8042
G1 X74.8247 Y56.6578
G1 Y56.345
G3 X75.3247 Y55.845 I0.5 J0.0
G1 X80.3336
G3 X80.8336 Y56.345 I0.0 J0.5
G1 Y56.6578
G1 X80.6871 Y56.8042
G1 X80.8336 Y56.6578
G1 X83.3337
G1 X83.4801 Y56.8042
G1 X83.3337 Y56.6578
G1 Y56.345
G3 X83.8337 Y55.845 I0.5 J0.0
G1 X84.3141
G1 X84.4606 Y55.9914
G1 X84.3141 Y55.845
G1 Y42.875
G1 X84.4606 Y42.7286
G1 X84.3141 Y42.875
G1 X83.8337
G3 X83.3337 Y42.375 I0.0 J-0.5
G1 Y42.0622
G1 X83.4801 Y41.9158
G1 X83.3337 Y42.0622
G1 X80.8336
G1 X80.6871 Y41.9158
G1 X80.8336 Y42.0622
G1 Y42.375
G3 X80.3336 Y42.875 I-0.5 J0.0
G1 X75.3247
G3 X74.8247 Y42.375 I0.0 J-0.5
G1 Y42.0622
G1 X74.9711 Y41.9158
G1 X74.8247 Y42.0622
G1 X72.3246
G1 X72.1781 Y41.9158
G1 X72.3246 Y42.0622
G1 Y42.375
G3 X71.8246 Y42.875 I-0.5 J0.0
G1 X71.3441
G1 X71.1977 Y42.7286
G1 X71.3441 Y42.875
G1 Y55.845
G1 X71.1977 Y55.9914
G0 Z3.0
G0 X90.2477
G0 Z-4.0
G1 F300.0 Z-7.0
G1 F800.0 X90.3941 Y55.845
G1 X90.8746
G3 X91.3746 Y56.345 I0.0 J0.5
G1 Y56.6578
G1 X91.2281 Y56.8042
G1 X91.3746 Y56.6578
G1 X93.8747
G1 X94.0211 Y56.8042
G1 X93.8747 Y56.6578
G1 Y56.345
G3 X94.3747 Y55.845 I0.5 J0.0
G1 X99.3836
G3 X99.8836 Y56.345 I0.0 J0.5
G1 Y56.6578
G1 X99.7371 Y56.8042
G1 X99.8836 Y56.6578
G1 X102.3837
G1 X102.5301 Y56.8042
G1 X102.3837 Y56.6578
G1 Y56.345
G3 X102.8837 Y55.845 I0.5 J0.0
G1 X103.3641
G1 X103.5106 Y55.9914
G1 X103.3641 Y55.845
G1 Y42.875
G1 X103.5106 Y42.7286
G1 X103.3641 Y42.875
G1 X102.8837
G3 X102.3837 Y42.375 I0.0 J-0.5
G1 Y42.0622
G1 X102.5301 Y41.9158
G1 X102.3837 Y42.0622
G1 X99.8836
G1 X99.7371 Y41.9158
G1 X99.8836 Y42.0622
G1 Y42.375
G3 X99.3836 Y42.875 I-0.5 J0.0
G1 X94.3747
G3 X93.8747 Y42.375 I0.0 J-0.5
G1 Y42.0622
G1 X94.0211 Y41.9158
G1 X93.8747 Y42.0622
G1 X91.3746
G1 X91.2281 Y41.9158
G1 X91.3746 Y42.0622
G1 Y42.375
G3 X90.8746 Y42.875 I-0.5 J0.0
G1 X90.3941
G1 X90.2477 Y42.7286
G1 X90.3941 Y42.875
G1 Y55.845
G1 X90.2477 Y55.9914
G1 F300.0 Z-8.0
G1 F800.0 X90.3941 Y55.845
G1 X90.8746
G3 X91.3746 Y56.345 I0.0 J0.5
G1 Y56.6578
G1 X91.2281 Y56.8042
G1 X91.3746 Y56.6578
G1 X93.8747
G1 X94.0211 Y56.8042
G1 X93.8747 Y56.6578
G1 Y56.345
G3 X94.3747 Y55.845 I0.5 J0.0
G1 X99.3836
G3 X99.8836 Y56.345 I0.0 J0.5
G1 Y56.6578
G1 X99.7371 Y56.8042
G1 X99.8836 Y56.6578
G1 X102.3837
G1 X102.5301 Y56.8042
G1 X102.3837 Y56.6578
G1 Y56.345
G3 X102.8837 Y55.845 I0.5 J0.0
G1 X103.3641
G1 X103.5106 Y55.9914
G1 X103.3641 Y55.845
G1 Y42.875
G1 X103.5106 Y42.7286
G1 X103.3641 Y42.875
G1 X102.8837
G3 X102.3837 Y42.375 I0.0 J-0.5
G1 Y42.0622
G1 X102.5301 Y41.9158
G1 X102.3837 Y42.0622
G1 X99.8836
G1 X99.7371 Y41.9158
G1 X99.8836 Y42.0622
G1 Y42.375
G3 X99.3836 Y42.875 I-0.5 J0.0
G1 X94.3747
G3 X93.8747 Y42.375 I0.0 J-0.5
G1 Y42.0622
G1 X94.0211 Y41.9158
G1 X93.8747 Y42.0622
G1 X91.3746
G1 X91.2281 Y41.9158
G1 X91.3746 Y42.0622
G1 Y42.375
G3 X90.8746 Y42.875 I-0.5 J0.0
G1 X90.3941
G1 X90.2477 Y42.7286
G1 X90.3941 Y42.875
G1 Y55.845
G1 X90.2477 Y55.9914
G0 Z3.0
G0 X109.2977
G0 Z-4.0
G1 F300.0 Z-7.0
G1 F800.0 X109.4441 Y55.845
G1 X109.9246
G3 X110.4246 Y56.345 I0.0 J0.5
G1 Y56.6578
G1 X110.2781 Y56.8042
G1 X110.4246 Y56.6578
G1 X112.9247
G1 X113.0711 Y56.8042
G1 X112.9247 Y56.6578
G1 Y56.345
G3 X113.4247 Y55.845 I0.5 J0.0
G1 X118.4336
G3 X118.9336 Y56.345 I0.0 J0.5
G1 Y56.6578
G1 X118.7871 Y56.8042
G1 X118.9336 Y56.6578
G1 X121.4337
G1 X121.5801 Y56.8042
G1 X121.4337 Y56.6578
G1 Y56.345
G3 X121.9337 Y55.845 I0.5 J0.0
G1 X122.4141
G1 X122.5606 Y55.9914
G1 X122.4141 Y55.845
G1 Y42.875
G1 X122.5606 Y42.7286
G1 X122.4141 Y42.875
G1 X121.9337
G3 X121.4337 Y42.375 I0.0 J-0.5
G1 Y42.0622
G1 X121.5801 Y41.9158
G1 X121.4337 Y42.0622
G1 X118.9336
G1 X118.7871 Y41.9158
G1 X118.9336 Y42.0622
G1 Y42.375
G3 X118.4336 Y42.875 I-0.5 J0.0
G1 X113.4247
G3 X112.9247 Y42.375 I0.0 J-0.5
G1 Y42.0622
G1 X113.0711 Y41.9158
G1 X112.9247 Y42.0622
G1 X110.4246
G1 X110.2781 Y41.9158
G1 X110.4246 Y42.0622
G1 Y42.375
G3 X109.9246 Y42.875 I-0.5 J0.0
G1 X109.4441
G1 X109.2977 Y42.7286
G1 X109.4441 Y42.875
G1 Y55.845
G1 X109.2977 Y55.9914
G1 F300.0 Z-8.0
G1 F800.0 X109.4441 Y55.845
G1 X109.9246
G3 X110.4246 Y56.345 I0.0 J0.5
G1 Y56.6578
G1 X110.2781 Y56.8042
G1 X110.4246 Y56.6578
G1 X112.9247
G1 X113.0711 Y56.8042
G1 X112.9247 Y56.6578
G1 Y56.345
G3 X113.4247 Y55.845 I0.5 J0.0
G1 X118.4336
G3 X118.9336 Y56.345 I0.0 J0.5
G1 Y56.6578
G1 X118.7871 Y56.8042
G1 X118.9336 Y56.6578
G1 X121.4337
G1 X121.5801 Y56.8042
G1 X121.4337 Y56.6578
G1 Y56.345
G3 X121.9337 Y55.845 I0.5 J0.0
G1 X122.4141
G1 X122.5606 Y55.9914
G1 X122.4141 Y55.845
G1 Y42.875
G1 X122.5606 Y42.7286
G1 X122.4141 Y42.875
G1 X121.9337
G3 X121.4337 Y42.375 I0.0 J-0.5
G1 Y42.0622
G1 X121.5801 Y41.9158
G1 X121.4337 Y42.0622
G1 X118.9336
G1 X118.7871 Y41.9158
G1 X118.9336 Y42.0622
G1 Y42.375
G3 X118.4336 Y42.875 I-0.5 J0.0
G1 X113.4247
G3 X112.9247 Y42.375 I0.0 J-0.5
G1 Y42.0622
G1 X113.0711 Y41.9158
G1 X112.9247 Y42.0622
G1 X110.4246
G1 X110.2781 Y41.9158
G1 X110.4246 Y42.0622
G1 Y42.375
G3 X109.9246 Y42.875 I-0.5 J0.0
G1 X109.4441
G1 X109.2977 Y42.7286
G1 X109.4441 Y42.875
G1 Y55.845
G1 X109.2977 Y55.9914
G0 Z3.0
G0 X128.3452
G0 Z-4.0
G1 F300.0 Z-7.0
G1 F800.0 X128.4916 Y55.845
G1 X128.972
G3 X129.472 Y56.345 I0.0 J0.5
G1 Y56.6578
G1 X129.3256 Y56.8042
G1 X129.472 Y56.6578
G1 X131.9722
G1 X132.1186 Y56.8042
G1 X131.9722 Y56.6578
G1 Y56.345
G3 X132.4722 Y55.845 I0.5 J0.0
G1 X137.481
G3 X137.981 Y56.345 I0.0 J0.5
G1 Y56.6578
G1 X137.8346 Y56.8042
G1 X137.981 Y56.6578
G1 X140.4812
G1 X140.6276 Y56.8042
G1 X140.4812 Y56.6578
G1 Y56.345
G3 X140.9812 Y55.845 I0.5 J0.0
G1 X141.4616
G1 X141.608 Y55.9914
G1 X141.4616 Y55.845
G1 Y42.875
G1 X141.608 Y42.7286
G1 X141.4616 Y42.875
G1 X140.9812
G3 X140.4812 Y42.375 I0.0 J-0.5
G1 Y42.0622
G1 X140.6276 Y41.9158
G1 X140.4812 Y42.0622
G1 X137.981
G1 X137.8346 Y41.9158
G1 X137.981 Y42.0622
G1 Y42.375
G3 X137.481 Y42.875 I-0.5 J0.0
G1 X132.4722
G3 X131.9722 Y42.375 I0.0 J-0.5
G1 Y42.0622
G1 X132.1186 Y41.9158
G1 X131.9722 Y42.0622
G1 X129.472
G1 X129.3256 Y41.9158
G1 X129.472 Y42.0622
G1 Y42.375
G3 X128.972 Y42.875 I-0.5 J0.0
G1 X128.4916
G1 X128.3452 Y42.7286
G1 X128.4916 Y42.875
G1 Y55.845
G1 X128.3452 Y55.9914
G1 F300.0 Z-8.0
G1 F800.0 X128.4916 Y55.845
G1 X128.972
G3 X129.472 Y56.345 I0.0 J0.5
G1 Y56.6578
G1 X129.3256 Y56.8042
G1 X129.472 Y56.6578
G1 X131.9722
G1 X132.1186 Y56.8042
G1 X131.9722 Y56.6578
G1 Y56.345
G3 X132.4722 Y55.845 I0.5 J0.0
G1 X137.481
G3 X137.981 Y56.345 I0.0 J0.5
G1 Y56.6578
G1 X137.8346 Y56.8042
G1 X137.981 Y56.6578
G1 X140.4812
G1 X140.6276 Y56.8042
G1 X140.4812 Y56.6578
G1 Y56.345
G3 X140.9812 Y55.845 I0.5 J0.0
G1 X141.4616
G1 X141.608 Y55.9914
G1 X141.4616 Y55.845
G1 Y42.875
G1 X141.608 Y42.7286
G1 X141.4616 Y42.875
G1 X140.9812
G3 X140.4812 Y42.375 I0.0 J-0.5
G1 Y42.0622
G1 X140.6276 Y41.9158
G1 X140.4812 Y42.0622
G1 X137.981
G1 X137.8346 Y41.9158
G1 X137.981 Y42.0622
G1 Y42.375
G3 X137.481 Y42.875 I-0.5 J0.0
G1 X132.4722
G3 X131.9722 Y42.375 I0.0 J-0.5
G1 Y42.0622
G1 X132.1186 Y41.9158
G1 X131.9722 Y42.0622
G1 X129.472
G1 X129.3256 Y41.9158
G1 X129.472 Y42.0622
G1 Y42.375
G3 X128.972 Y42.875 I-0.5 J0.0
G1 X128.4916
G1 X128.3452 Y42.7286
G1 X128.4916 Y42.875
G1 Y55.845
G1 X128.3452 Y55.9914
G0 Z3.0
G0 X129.3256 Y32.9917
G0 Z-4.0
G1 F300.0 Z-7.0
G1 F800.0 X129.472 Y32.8453
G1 X131.9722
G1 X132.1186 Y32.9917
G1 X131.9722 Y32.8453
G1 Y32.5325
G3 X132.4722 Y32.0325 I0.5 J0.0
G1 X137.481
G3 X137.981 Y32.5325 I0.0 J0.5
G1 Y32.8453
G1 X137.8346 Y32.9917
G1 X137.981 Y32.8453
G1 X140.4812
G1 X140.6276 Y32.9917
G1 X140.4812 Y32.8453
G1 Y32.5325
G3 X140.9812 Y32.0325 I0.5 J0.0
G1 X141.4616
G1 X141.608 Y32.1789
G1 X141.4616 Y32.0325
G1 Y19.0625
G1 X141.608 Y18.9161
G1 X141.4616 Y19.0625
G1 X140.9812
G3 X140.4812 Y18.5625 I0.0 J-0.5
G1 Y18.2497
G1 X140.6276 Y18.1033
G1 X140.4812 Y18.2497
G1 X137.981
G1 X137.8346 Y18.1033
G1 X137.981 Y18.2497
G1 Y18.5625
G3 X137.481 Y19.0625 I-0.5 J0.0
G1 X132.4722
G3 X131.9722 Y18.5625 I0.0 J-0.5
G1 Y18.2497
G1 X132.1186 Y18.1033
G1 X131.9722 Y18.2497
G1 X129.472
G1 X129.3256 Y18.1033
G1 X129.472 Y18.2497
G1 Y18.5625
G3 X128.972 Y19.0625 I-0.5 J0.0
G1 X128.4916
G1 X128.3452 Y18.9161
G1 X128.4916 Y19.0625
G1 Y32.0325
G1 X128.3452 Y32.1789
G1 X128.4916 Y32.0325
G1 X128.972
G3 X129.472 Y32.5325 I0.0 J0.5
G1 Y32.8453
G1 X129.3256 Y32.9917
G1 F300.0 Z-8.0
G1 F800.0 X129.472 Y32.8453
G1 X131.9722
G1 X132.1186 Y32.9917
G1 X131.9722 Y32.8453
G1 Y32.5325
G3 X132.4722 Y32.0325 I0.5 J0.0
G1 X137.481
G3 X137.981 Y32.5325 I0.0 J0.5
G1 Y32.8453
G1 X137.8346 Y32.9917
G1 X137.981 Y32.8453
G1 X140.4812
G1 X140.6276 Y32.9917
G1 X140.4812 Y32.8453
G1 Y32.5325
G3 X140.9812 Y32.0325 I0.5 J0.0
G1 X141.4616
G1 X141.608 Y32.1789
G1 X141.4616 Y32.0325
G1 Y19.0625
G1 X141.608 Y18.9161
G1 X141.4616 Y19.0625
G1 X140.9812
G3 X140.4812 Y18.5625 I0.0 J-0.5
G1 Y18.2497
G1 X140.6276 Y18.1033
G1 X140.4812 Y18.2497
G1 X137.981
G1 X137.8346 Y18.1033
G1 X137.981 Y18.2497
G1 Y18.5625
G3 X137.481 Y19.0625 I-0.5 J0.0
G1 X132.4722
G3 X131.9722 Y18.5625 I0.0 J-0.5
G1 Y18.2497
G1 X132.1186 Y18.1033
G1 X131.9722 Y18.2497
G1 X129.472
G1 X129.3256 Y18.1033
G1 X129.472 Y18.2497
G1 Y18.5625
G3 X128.972 Y19.0625 I-0.5 J0.0
G1 X128.4916
G1 X128.3452 Y18.9161
G1 X128.4916 Y19.0625
G1 Y32.0325
G1 X128.3452 Y32.1789
G1 X128.4916 Y32.0325
G1 X128.972
G3 X129.472 Y32.5325 I0.0 J0.5
G1 Y32.8453
G1 X129.3256 Y32.9917
G0 Z3.0
G0 X122.5606 Y32.1789
G0 Z-4.0
G1 F300.0 Z-7.0
G1 F800.0 X122.4141 Y32.0325
G1 Y19.0625
G1 X122.5606 Y18.9161
G1 X122.4141 Y19.0625
G1 X121.9337
G3 X121.4337 Y18.5625 I0.0 J-0.5
G1 Y18.2497
G1 X121.5801 Y18.1033
G1 X121.4337 Y18.2497
G1 X118.9336
G1 X118.7871 Y18.1033
G1 X118.9336 Y18.2497
G1 Y18.5625
G3 X118.4336 Y19.0625 I-0.5 J0.0
G1 X113.4247
G3 X112.9247 Y18.5625 I0.0 J-0.5
G1 Y18.2497
G1 X113.0711 Y18.1033
G1 X112.9247 Y18.2497
G1 X110.4246
G1 X110.2781 Y18.1033
G1 X110.4246 Y18.2497
G1 Y18.5625
G3 X109.9246 Y19.0625 I-0.5 J0.0
G1 X109.4441
G1 X109.2977 Y18.9161
G1 X109.4441 Y19.0625
G1 Y32.0325
G1 X109.2977 Y32.1789
G1 X109.4441 Y32.0325
G1 X109.9246
G3 X110.4246 Y32.5325 I0.0 J0.5
G1 Y32.8453
G1 X110.2781 Y32.9917
G1 X110.4246 Y32.8453
G1 X112.9247
G1 X113.0711 Y32.9917
G1 X112.9247 Y32.8453
G1 Y32.5325
G3 X113.4247 Y32.0325 I0.5 J0.0
G1 X118.4336
G3 X118.9336 Y32.5325 I0.0 J0.5
G1 Y32.8453
G1 X118.7871 Y32.9917
G1 X118.9336 Y32.8453
G1 X121.4337
G1 X121.5801 Y32.9917
G1 X121.4337 Y32.8453
G1 Y32.5325
G3 X121.9337 Y32.0325 I0.5 J0.0
G1 X122.4141
G1 X122.5606 Y32.1789
G1 F300.0 Z-8.0
G1 F800.0 X122.4141 Y32.0325
G1 Y19.0625
G1 X122.5606 Y18.9161
G1 X122.4141 Y19.0625
G1 X121.9337
G3 X121.4337 Y18.5625 I0.0 J-0.5
G1 Y18.2497
G1 X121.5801 Y18.1033
G1 X121.4337 Y18.2497
G1 X118.9336
G1 X118.7871 Y18.1033
G1 X118.9336 Y18.2497
G1 Y18.5625
G3 X118.4336 Y19.0625 I-0.5 J0.0
G1 X113.4247
G3 X112.9247 Y18.5625 I0.0 J-0.5
G1 Y18.2497
G1 X113.0711 Y18.1033
G1 X112.9247 Y18.2497
G1 X110.4246
G1 X110.2781 Y18.1033
G1 X110.4246 Y18.2497
G1 Y18.5625
G3 X109.9246 Y19.0625 I-0.5 J0.0
G1 X109.4441
G1 X109.2977 Y18.9161
G1 X109.4441 Y19.0625
G1 Y32.0325
G1 X109.2977 Y32.1789
G1 X109.4441 Y32.0325
G1 X109.9246
G3 X110.4246 Y32.5325 I0.0 J0.5
G1 Y32.8453
G1 X110.2781 Y32.9917
G1 X110.4246 Y32.8453
G1 X112.9247
G1 X113.0711 Y32.9917
G1 X112.9247 Y32.8453
G1 Y32.5325
G3 X113.4247 Y32.0325 I0.5 J0.0
G1 X118.4336
G3 X118.9336 Y32.5325 I0.0 J0.5
G1 Y32.8453
G1 X118.7871 Y32.9917
G1 X118.9336 Y32.8453
G1 X121.4337
G1 X121.5801 Y32.9917
G1 X121.4337 Y32.8453
G1 Y32.5325
G3 X121.9337 Y32.0325 I0.5 J0.0
G1 X122.4141
G1 X122.5606 Y32.1789
G0 Z3.0
G0 X103.5106
G0 Z-4.0
G1 F300.0 Z-7.0
G1 F800.0 X103.3641 Y32.0325
G1 Y19.0625
G1 X103.5106 Y18.9161
G1 X103.3641 Y19.0625
G1 X102.8837
G3 X102.3837 Y18.5625 I0.0 J-0.5
G1 Y18.2497
G1 X102.5301 Y18.1033
G1 X102.3837 Y18.2497
G1 X99.8836
G1 X99.7371 Y18.1033
G1 X99.8836 Y18.2497
G1 Y18.5625
G3 X99.3836 Y19.0625 I-0.5 J0.0
G1 X94.3747
G3 X93.8747 Y18.5625 I0.0 J-0.5
G1 Y18.2497
G1 X94.0211 Y18.1033
G1 X93.8747 Y18.2497
G1 X91.3746
G1 X91.2281 Y18.1033
G1 X91.3746 Y18.2497
G1 Y18.5625
G3 X90.8746 Y19.0625 I-0.5 J0.0
G1 X90.3941
G1 X90.2477 Y18.9161
G1 X90.3941 Y19.0625
G1 Y32.0325
G1 X90.2477 Y32.1789
G1 X90.3941 Y32.0325
G1 X90.8746
G3 X91.3746 Y32.5325 I0.0 J0.5
G1 Y32.8453
G1 X91.2281 Y32.9917
G1 X91.3746 Y32.8453
G1 X93.8747
G1 X94.0211 Y32.9917
G1 X93.8747 Y32.8453
G1 Y32.5325
G3 X94.3747 Y32.0325 I0.5 J0.0
G1 X99.3836
G3 X99.8836 Y32.5325 I0.0 J0.5
G1 Y32.8453
G1 X99.7371 Y32.9917
G1 X99.8836 Y32.8453
G1 X102.3837
G1 X102.5301 Y32.9917
G1 X102.3837 Y32.8453
G1 Y32.5325
G3 X102.8837 Y32.0325 I0.5 J0.0
G1 X103.3641
G1 X103.5106 Y32.1789
G1 F300.0 Z-8.0
G1 F800.0 X103.3641 Y32.0325
G1 Y19.0625
G1 X103.5106 Y18.9161
G1 X103.3641 Y19.0625
G1 X102.8837
G3 X102.3837 Y18.5625 I0.0 J-0.5
G1 Y18.2497
G1 X102.5301 Y18.1033
G1 X102.3837 Y18.2497
G1 X99.8836
G1 X99.7371 Y18.1033
G1 X99.8836 Y18.2497
G1 Y18.5625
G3 X99.3836 Y19.0625 I-0.5 J0.0
G1 X94.3747
G3 X93.8747 Y18.5625 I0.0 J-0.5
G1 Y18.2497
G1 X94.0211 Y18.1033
G1 X93.8747 Y18.2497
G1 X91.3746
G1 X91.2281 Y18.1033
G1 X91.3746 Y18.2497
G1 Y18.5625
G3 X90.8746 Y19.0625 I-0.5 J0.0
G1 X90.3941
G1 X90.2477 Y18.9161
G1 X90.3941 Y19.0625
G1 Y32.0325
G1 X90.2477 Y32.1789
G1 X90.3941 Y32.0325
G1 X90.8746
G3 X91.3746 Y32.5325 I0.0 J0.5
G1 Y32.8453
G1 X91.2281 Y32.9917
G1 X91.3746 Y32.8453
G1 X93.8747
G1 X94.0211 Y32.9917
G1 X93.8747 Y32.8453
G1 Y32.5325
G3 X94.3747 Y32.0325 I0.5 J0.0
G1 X99.3836
G3 X99.8836 Y32.5325 I0.0 J0.5
G1 Y32.8453
G1 X99.7371 Y32.9917
G1 X99.8836 Y32.8453
G1 X102.3837
G1 X102.5301 Y32.9917
G1 X102.3837 Y32.8453
G1 Y32.5325
G3 X102.8837 Y32.0325 I0.5 J0.0
G1 X103.3641
G1 X103.5106 Y32.1789
G0 Z3.0
G0 X84.4606
G0 Z-4.0
G1 F300.0 Z-7.0
G1 F800.0 X84.3141 Y32.0325
G1 Y19.0625
G1 X84.4606 Y18.9161
G1 X84.3141 Y19.0625
G1 X83.8337
G3 X83.3337 Y18.5625 I0.0 J-0.5
G1 Y18.2497
G1 X83.4801 Y18.1033
G1 X83.3337 Y18.2497
G1 X80.8336
G1 X80.6871 Y18.1033
G1 X80.8336 Y18.2497
G1 Y18.5625
G3 X80.3336 Y19.0625 I-0.5 J0.0
G1 X75.3247
G3 X74.8247 Y18.5625 I0.0 J-0.5
G1 Y18.2497
G1 X74.9711 Y18.1033
G1 X74.8247 Y18.2497
G1 X72.3246
G1 X72.1781 Y18.1033
G1 X72.3246 Y18.2497
G1 Y18.5625
G3 X71.8246 Y19.0625 I-0.5 J0.0
G1 X71.3441
G1 X71.1977 Y18.9161
G1 X71.3441 Y19.0625
G1 Y32.0325
G1 X71.1977 Y32.1789
G1 X71.3441 Y32.0325
G1 X71.8246
G3 X72.3246 Y32.5325 I0.0 J0.5
G1 Y32.8453
G1 X72.1781 Y32.9917
G1 X72.3246 Y32.8453
G1 X74.8247
G1 X74.9711 Y32.9917
G1 X74.8247 Y32.8453
G1 Y32.5325
G3 X75.3247 Y32.0325 I0.5 J0.0
G1 X80.3336
G3 X80.8336 Y32.5325 I0.0 J0.5
G1 Y32.8453
G1 X80.6871 Y32.9917
G1 X80.8336 Y32.8453
G1 X83.3337
G1 X83.4801 Y32.9917
G1 X83.3337 Y32.8453
G1 Y32.5325
G3 X83.8337 Y32.0325 I0.5 J0.0
G1 X84.3141
G1 X84.4606 Y32.1789
G1 F300.0 Z-8.0
G1 F800.0 X84.3141 Y32.0325
G1 Y19.0625
G1 X84.4606 Y18.9161
G1 X84.3141 Y19.0625
G1 X83.8337
G3 X83.3337 Y18.5625 I0.0 J-0.5
G1 Y18.2497
G1 X83.4801 Y18.1033
G1 X83.3337 Y18.2497
G1 X80.8336
G1 X80.6871 Y18.1033
G1 X80.8336 Y18.2497
G1 Y18.5625
G3 X80.3336 Y19.0625 I-0.5 J0.0
G1 X75.3247
G3 X74.8247 Y18.5625 I0.0 J-0.5
G1 Y18.2497
G1 X74.9711 Y18.1033
G1 X74.8247 Y18.2497
G1 X72.3246
G1 X72.1781 Y18.1033
G1 X72.3246 Y18.2497
G1 Y18.5625
G3 X71.8246 Y19.0625 I-0.5 J0.0
G1 X71.3441
G1 X71.1977 Y18.9161
G1 X71.3441 Y19.0625
G1 Y32.0325
G1 X71.1977 Y32.1789
G1 X71.3441 Y32.0325
G1 X71.8246
G3 X72.3246 Y32.5325 I0.0 J0.5
G1 Y32.8453
G1 X72.1781 Y32.9917
G1 X72.3246 Y32.8453
G1 X74.8247
G1 X74.9711 Y32.9917
G1 X74.8247 Y32.8453
G1 Y32.5325
G3 X75.3247 Y32.0325 I0.5 J0.0
G1 X80.3336
G3 X80.8336 Y32.5325 I0.0 J0.5
G1 Y32.8453
G1 X80.6871 Y32.9917
G1 X80.8336 Y32.8453
G1 X83.3337
G1 X83.4801 Y32.9917
G1 X83.3337 Y32.8453
G1 Y32.5325
G3 X83.8337 Y32.0325 I0.5 J0.0
G1 X84.3141
G1 X84.4606 Y32.1789
G0 Z3.0
G0 X65.2641
G0 Z-4.0
G1 F300.0 Z-7.0
G1 F800.0 Y23.825
G1 X65.4106 Y23.6786
G1 X65.2641 Y23.825
G1 X64.7837
G3 X64.2837 Y23.325 I0.0 J-0.5
G1 Y23.0122
G1 X64.4301 Y22.8658
G1 X64.2837 Y23.0122
G1 X61.7836
G1 X61.6371 Y22.8658
G1 X61.7836 Y23.0122
G1 Y23.325
G3 X61.2836 Y23.825 I-0.5 J0.0
G1 X56.2747
G3 X55.7747 Y23.325 I0.0 J-0.5
G1 Y23.0122
G1 X55.9211 Y22.8658
G1 X55.7747 Y23.0122
G1 X53.2746
G1 X53.1281 Y22.8658
G1 X53.2746 Y23.0122
G1 Y23.325
G3 X52.7746 Y23.825 I-0.5 J0.0
G1 X52.2941
G1 X52.1477 Y23.6786
G1 X52.2941 Y23.825
G1 Y36.795
G1 X52.1477 Y36.9414
G1 X52.2941 Y36.795
G1 X52.7746
G3 X53.2746 Y37.295 I0.0 J0.5
G1 Y37.6078
G1 X53.1281 Y37.7542
G1 X53.2746 Y37.6078
G1 X55.7747
G1 X55.9211 Y37.7542
G1 X55.7747 Y37.6078
G1 Y37.295
G3 X56.2747 Y36.795 I0.5 J0.0
G1 X61.2836
G3 X61.7836 Y37.295 I0.0 J0.5
G1 Y37.6078
G1 X61.6371 Y37.7542
G1 X61.7836 Y37.6078
G1 X64.2837
G1 X64.4301 Y37.7542
G1 X64.2837 Y37.6078
G1 Y37.295
G3 X64.7837 Y36.795 I0.5 J0.0
G1 X65.2641
G1 X65.4106 Y36.9414
G1 X65.2641 Y36.795
G1 Y32.1789
G1 F300.0 Z-8.0
G1 F800.0 Y23.825
G1 X65.4106 Y23.6786
G1 X65.2641 Y23.825
G1 X64.7837
G3 X64.2837 Y23.325 I0.0 J-0.5
G1 Y23.0122
G1 X64.4301 Y22.8658
G1 X64.2837 Y23.0122
G1 X61.7836
G1 X61.6371 Y22.8658
G1 X61.7836 Y23.0122
G1 Y23.325
G3 X61.2836 Y23.825 I-0.5 J0.0
G1 X56.2747
G3 X55.7747 Y23.325 I0.0 J-0.5
G1 Y23.0122
G1 X55.9211 Y22.8658
G1 X55.7747 Y23.0122
G1 X53.2746
G1 X53.1281 Y22.8658
G1 X53.2746 Y23.0122
G1 Y23.325
G3 X52.7746 Y23.825 I-0.5 J0.0
G1 X52.2941
G1 X52.1477 Y23.6786
G1 X52.2941 Y23.825
G1 Y36.795
G1 X52.1477 Y36.9414
G1 X52.2941 Y36.795
G1 X52.7746
G3 X53.2746 Y37.295 I0.0 J0.5
G1 Y37.6078
G1 X53.1281 Y37.7542
G1 X53.2746 Y37.6078
G1 X55.7747
G1 X55.9211 Y37.7542
G1 X55.7747 Y37.6078
G1 Y37.295
G3 X56.2747 Y36.795 I0.5 J0.0
G1 X61.2836
G3 X61.7836 Y37.295 I0.0 J0.5
G1 Y37.6078
G1 X61.6371 Y37.7542
G1 X61.7836 Y37.6078
G1 X64.2837
G1 X64.4301 Y37.7542
G1 X64.2837 Y37.6078
G1 Y37.295
G3 X64.7837 Y36.795 I0.5 J0.0
G1 X65.2641
G1 X65.4106 Y36.9414
G1 X65.2641 Y36.795
G1 Y32.1789
G0 Z3.0
G0 X39.4023 Y124.7852
G0 Z-4.0
G1 F300.0 Z-7.0
G1 F800.0 X39.4731 Y124.9797
G1 X33.9902 Y136.7332
G1 X33.7957 Y136.8039
G1 X33.9902 Y136.7332
G1 X36.0762 Y137.7071
G1 X36.147 Y137.9019
G1 X36.0762 Y137.7071
G1 X41.5589 Y125.9518
G1 X41.7536 Y125.8809
G1 X41.5589 Y125.9518
G1 X39.4731 Y124.9797
G1 X39.4023 Y124.7852
G1 F300.0 Z-8.0
G1 F800.0 X39.4731 Y124.9797
G1 X33.9902 Y136.7332
G1 X33.7957 Y136.8039
G1 X33.9902 Y136.7332
G1 X36.0762 Y137.7071
G1 X36.147 Y137.9019
G1 X36.0762 Y137.7071
G1 X41.5589 Y125.9518
G1 X41.7536 Y125.8809
G1 X41.5589 Y125.9518
G1 X39.4731 Y124.9797
G1 X39.4023 Y124.7852
G0 Z3.0
G0 X44.5586 Y127.4294
G0 Z-4.0
G1 F300.0 Z-7.0
G1 F800.0 X44.6293 Y127.6236
G1 X43.5715 Y129.8899
G1 X43.3765 Y129.9609
G1 X43.5715 Y129.8899
G1 X43.8543 Y130.0216
G3 X44.0965 Y130.6861 I-0.211 J0.4533
G1 X41.9806 Y135.2251
G3 X41.3164 Y135.4672 I-0.4532 J-0.2112
G1 X41.033 Y135.3352
G1 X40.9621 Y135.1407
G1 X41.033 Y135.3352
G1 X39.9771 Y137.6012
G1 X39.7823 Y137.6722
G1 X39.9771 Y137.6012
G1 X40.2602 Y137.733
G3 X40.5019 Y138.3985 I-0.211 J0.4533
G1 X40.2979 Y138.8339
G1 X40.1026 Y138.9048
G1 X40.2979 Y138.8339
G1 X52.0525 Y144.3162
G1 X52.1234 Y144.511
G1 X52.0525 Y144.3162
G1 X52.2553 Y143.8808
G3 X52.9196 Y143.6385 I0.4533 J0.2111
G1 X53.2033 Y143.7707
G1 X53.2741 Y143.9649
G1 X53.2033 Y143.7707
G1 X54.2612 Y141.5043
G1 X54.4561 Y141.4334
G1 X54.2612 Y141.5043
G1 X53.9783 Y141.3727
G3 X53.7362 Y140.7081 I0.211 J-0.4533
G1 X55.852 Y136.1692
G3 X56.5162 Y135.9271 I0.4532 J0.2112
G1 X56.7997 Y136.0591
G1 X56.8706 Y136.2535
G1 X56.7997 Y136.0591
G1 X57.8556 Y133.793
G1 X58.0503 Y133.7221
G1 X57.8556 Y133.793
G1 X57.5724 Y133.6612
G3 X57.3307 Y132.9958 I0.211 J-0.4533
G1 X57.5347 Y132.5604
G1 X57.73 Y132.4895
G1 X57.5347 Y132.5604
G1 X45.7802 Y127.078
G1 X45.7092 Y126.8833
G1 X45.7802 Y127.078
G1 X45.5774 Y127.5135
G3 X44.9131 Y127.7557 I-0.4533 J-0.2111
G1 X44.6293 Y127.6236
G1 X44.5586 Y127.4294
G1 F300.0 Z-8.0
G1 F800.0 X44.6293 Y127.6236
G1 X43.5715 Y129.8899
G1 X43.3765 Y129.9609
G1 X43.5715 Y129.8899
G1 X43.8543 Y130.0216
G3 X44.0965 Y130.6861 I-0.211 J0.4533
G1 X41.9806 Y135.2251
G3 X41.3164 Y135.4672 I-0.4532 J-0.2112
G1 X41.033 Y135.3352
G1 X40.9621 Y135.1407
G1 X41.033 Y135.3352
G1 X39.9771 Y137.6012
G1 X39.7823 Y137.6722
G1 X39.9771 Y137.6012
G1 X40.2602 Y137.733
G3 X40.5019 Y138.3985 I-0.211 J0.4533
G1 X40.2979 Y138.8339
G1 X40.1026 Y138.9048
G1 X40.2979 Y138.8339
G1 X52.0525 Y144.3162
G1 X52.1234 Y144.511
G1 X52.0525 Y144.3162
G1 X52.2553 Y143.8808
G3 X52.9196 Y143.6385 I0.4533 J0.2111
G1 X53.2033 Y143.7707
G1 X53.2741 Y143.9649
G1 X53.2033 Y143.7707
G1 X54.2612 Y141.5043
G1 X54.4561 Y141.4334
G1 X54.2612 Y141.5043
G1 X53.9783 Y141.3727
G3 X53.7362 Y140.7081 I0.211 J-0.4533
G1 X55.852 Y136.1692
G3 X56.5162 Y135.9271 I0.4532 J0.2112
G1 X56.7997 Y136.0591
G1 X56.8706 Y136.2535
G1 X56.7997 Y136.0591
G1 X57.8556 Y133.793
G1 X58.0503 Y133.7221
G1 X57.8556 Y133.793
G1 X57.5724 Y133.6612
G3 X57.3307 Y132.9958 I0.211 J-0.4533
G1 X57.5347 Y132.5604
G1 X57.73 Y132.4895
G1 X57.5347 Y132.5604
G1 X45.7802 Y127.078
G1 X45.7092 Y126.8833
G1 X45.7802 Y127.078
G1 X45.5774 Y127.5135
G3 X44.9131 Y127.7557 I-0.4533 J-0.2111
G1 X44.6293 Y127.6236
G1 X44.5586 Y127.4294
G0 Z3.0
G0 X34.3444 Y141.7636
G0 Z-4.0
G1 F300.0 Z-7.0
G1 F800.0 X34.1498 Y141.8344
G1 X32.064 Y140.8624
G1 X31.9932 Y140.6678
G1 X32.064 Y140.8624
G1 X26.5835 Y152.6158
G1 X26.389 Y152.6865
G1 X26.5835 Y152.6158
G1 X28.6695 Y153.5897
G1 X28.7404 Y153.7845
G1 X28.6695 Y153.5897
G1 X34.1498 Y141.8344
G1 X34.3444 Y141.7636
G1 F300.0 Z-8.0
G1 F800.0 X34.1498 Y141.8344
G1 X32.064 Y140.8624
G1 X31.9932 Y140.6678
G1 X32.064 Y140.8624
G1 X26.5835 Y152.6158
G1 X26.389 Y152.6865
G1 X26.5835 Y152.6158
G1 X28.6695 Y153.5897
G1 X28.7404 Y153.7845
G1 X28.6695 Y153.5897
G1 X34.1498 Y141.8344
G1 X34.3444 Y141.7636
G0 Z3.0
G0 X36.5068 Y144.6937
G0 Z-4.0
G1 F300.0 Z-7.0
G1 F800.0 X36.5775 Y144.888
G1 X35.5197 Y147.1543
G1 X35.3247 Y147.2253
G1 X35.5197 Y147.1543
G1 X35.8025 Y147.286
G3 X36.0447 Y147.9505 I-0.211 J0.4533
G1 X33.9288 Y152.4895
G3 X33.2646 Y152.7316 I-0.4532 J-0.2112
G1 X32.9812 Y152.5996
G1 X32.9103 Y152.4051
G1 X32.9812 Y152.5996
G1 X31.9253 Y154.8656
G1 X31.7305 Y154.9366
G1 X31.9253 Y154.8656
G1 X32.2084 Y154.9974
G3 X32.4501 Y155.6629 I-0.211 J0.4533
G1 X32.2461 Y156.0983
G1 X32.0508 Y156.1692
G1 X32.2461 Y156.0983
G1 X44.0007 Y161.5806
G1 X44.0716 Y161.7754
G1 X44.0007 Y161.5806
G1 X44.2035 Y161.1451
G3 X44.8678 Y160.9029 I0.4533 J0.2111
G1 X45.1515 Y161.035
G1 X45.2223 Y161.2293
G1 X45.1515 Y161.035
G1 X46.2094 Y158.7687
G1 X46.4043 Y158.6977
G1 X46.2094 Y158.7687
G1 X45.9265 Y158.6371
G3 X45.6844 Y157.9725 I0.211 J-0.4533
G1 X47.8002 Y153.4335
G3 X48.4644 Y153.1915 I0.4532 J0.2112
G1 X48.7479 Y153.3235
G1 X48.8188 Y153.5179
G1 X48.7479 Y153.3235
G1 X49.8038 Y151.0574
G1 X49.9985 Y150.9864
G1 X49.8038 Y151.0574
G1 X49.5206 Y150.9256
G3 X49.2789 Y150.2602 I0.211 J-0.4533
G1 X49.4829 Y149.8247
G1 X49.6782 Y149.7539
G1 X49.4829 Y149.8247
G1 X37.7284 Y144.3424
G1 X37.6574 Y144.1476
G1 X37.7284 Y144.3424
G1 X37.5256 Y144.7779
G3 X36.8613 Y145.0201 I-0.4533 J-0.2111
G1 X36.5775 Y144.888
G1 X36.5068 Y144.6937
G1 F300.0 Z-8.0
G1 F800.0 X36.5775 Y144.888
G1 X35.5197 Y147.1543
G1 X35.3247 Y147.2253
G1 X35.5197 Y147.1543
G1 X35.8025 Y147.286
G3 X36.0447 Y147.9505 I-0.211 J0.4533
G1 X33.9288 Y152.4895
G3 X33.2646 Y152.7316 I-0.4532 J-0.2112
G1 X32.9812 Y152.5996
G1 X32.9103 Y152.4051
G1 X32.9812 Y152.5996
G1 X31.9253 Y154.8656
G1 X31.7305 Y154.9366
G1 X31.9253 Y154.8656
G1 X32.2084 Y154.9974
G3 X32.4501 Y155.6629 I-0.211 J0.4533
G1 X32.2461 Y156.0983
G1 X32.0508 Y156.1692
G1 X32.2461 Y156.0983
G1 X44.0007 Y161.5806
G1 X44.0716 Y161.7754
G1 X44.0007 Y161.5806
G1 X44.2035 Y161.1451
G3 X44.8678 Y160.9029 I0.4533 J0.2111
G1 X45.1515 Y161.035
G1 X45.2223 Y161.2293
G1 X45.1515 Y161.035
G1 X46.2094 Y158.7687
G1 X46.4043 Y158.6977
G1 X46.2094 Y158.7687
G1 X45.9265 Y158.6371
G3 X45.6844 Y157.9725 I0.211 J-0.4533
G1 X47.8002 Y153.4335
G3 X48.4644 Y153.1915 I0.4532 J0.2112
G1 X48.7479 Y153.3235
G1 X48.8188 Y153.5179
G1 X48.7479 Y153.3235
G1 X49.8038 Y151.0574
G1 X49.9985 Y150.9864
G1 X49.8038 Y151.0574
G1 X49.5206 Y150.9256
G3 X49.2789 Y150.2602 I0.211 J-0.4533
G1 X49.4829 Y149.8247
G1 X49.6782 Y149.7539
G1 X49.4829 Y149.8247
G1 X37.7284 Y144.3424
G1 X37.6574 Y144.1476
G1 X37.7284 Y144.3424
G1 X37.5256 Y144.7779
G3 X36.8613 Y145.0201 I-0.4533 J-0.2111
G1 X36.5775 Y144.888
G1 X36.5068 Y144.6937
G0 Z3.0
G0 X29.918 Y160.6602
G0 Z-4.0
G1 F300.0 Z-7.0
G1 F800.0 X29.989 Y160.8551
G1 X29.8573 Y161.138
G3 X29.1928 Y161.3801 I-0.4533 J-0.211
G1 X24.6538 Y159.2643
G3 X24.4118 Y158.6001 I0.2112 J-0.4532
G1 X24.5437 Y158.3166
G1 X24.7382 Y158.2458
G1 X24.5437 Y158.3166
G1 X22.2777 Y157.2607
G1 X22.2067 Y157.066
G1 X22.2777 Y157.2607
G1 X22.1459 Y157.5439
G3 X21.4804 Y157.7856 I-0.4533 J-0.211
G1 X21.045 Y157.5816
G1 X20.9742 Y157.3863
G1 X21.045 Y157.5816
G1 X15.5627 Y169.3362
G1 X15.3679 Y169.4071
G1 X15.5627 Y169.3362
G1 X15.9982 Y169.539
G3 X16.2404 Y170.2032 I-0.2111 J0.4533
G1 X16.1083 Y170.487
G1 X15.914 Y170.5577
G1 X16.1083 Y170.487
G1 X18.3746 Y171.5449
G1 X18.4456 Y171.7398
G1 X18.3746 Y171.5449
G1 X18.5063 Y171.262
G3 X19.1708 Y171.0199 I0.4533 J0.211
G1 X23.7098 Y173.1357
G3 X23.9518 Y173.7999 I-0.2112 J0.4532
G1 X23.8199 Y174.0834
G1 X23.6254 Y174.1542
G1 X23.8199 Y174.0834
G1 X26.0859 Y175.1393
G1 X26.1569 Y175.334
G1 X26.0859 Y175.1393
G1 X26.2177 Y174.8561
G3 X26.8832 Y174.6144 I0.4533 J0.211
G1 X27.3186 Y174.8184
G1 X27.3894 Y175.0137
G1 X27.3186 Y174.8184
G1 X32.8009 Y163.0638
G1 X32.9957 Y162.9929
G1 X32.8009 Y163.0638
G1 X32.3654 Y162.861
G3 X32.1232 Y162.1968 I0.2111 J-0.4533
G1 X32.2553 Y161.913
G1 X32.4496 Y161.8423
G1 X32.2553 Y161.913
G1 X29.989 Y160.8551
G1 X29.918 Y160.6602
G1 F300.0 Z-8.0
G1 F800.0 X29.989 Y160.8551
G1 X29.8573 Y161.138
G3 X29.1928 Y161.3801 I-0.4533 J-0.211
G1 X24.6538 Y159.2643
G3 X24.4118 Y158.6001 I0.2112 J-0.4532
G1 X24.5437 Y158.3166
G1 X24.7382 Y158.2458
G1 X24.5437 Y158.3166
G1 X22.2777 Y157.2607
G1 X22.2067 Y157.066
G1 X22.2777 Y157.2607
G1 X22.1459 Y157.5439
G3 X21.4804 Y157.7856 I-0.4533 J-0.211
G1 X21.045 Y157.5816
G1 X20.9742 Y157.3863
G1 X21.045 Y157.5816
G1 X15.5627 Y169.3362
G1 X15.3679 Y169.4071
G1 X15.5627 Y169.3362
G1 X15.9982 Y169.539
G3 X16.2404 Y170.2032 I-0.2111 J0.4533
G1 X16.1083 Y170.487
G1 X15.914 Y170.5577
G1 X16.1083 Y170.487
G1 X18.3746 Y171.5449
G1 X18.4456 Y171.7398
G1 X18.3746 Y171.5449
G1 X18.5063 Y171.262
G3 X19.1708 Y171.0199 I0.4533 J0.211
G1 X23.7098 Y173.1357
G3 X23.9518 Y173.7999 I-0.2112 J0.4532
G1 X23.8199 Y174.0834
G1 X23.6254 Y174.1542
G1 X23.8199 Y174.0834
G1 X26.0859 Y175.1393
G1 X26.1569 Y175.334
G1 X26.0859 Y175.1393
G1 X26.2177 Y174.8561
G3 X26.8832 Y174.6144 I0.4533 J0.211
G1 X27.3186 Y174.8184
G1 X27.3894 Y175.0137
G1 X27.3186 Y174.8184
G1 X32.8009 Y163.0638
G1 X32.9957 Y162.9929
G1 X32.8009 Y163.0638
G1 X32.3654 Y162.861
G3 X32.1232 Y162.1968 I0.2111 J-0.4533
G1 X32.2553 Y161.913
G1 X32.4496 Y161.8423
G1 X32.2553 Y161.913
G1 X29.989 Y160.8551
G1 X29.918 Y160.6602
G0 Z3.0
G0 X38.2411 Y165.4381
G0 Z-4.0
G1 F300.0 Z-7.0
G1 F800.0 X38.3119 Y165.6334
G1 X32.8296 Y177.388
G1 X32.6348 Y177.4589
G1 X32.8296 Y177.388
G1 X33.2651 Y177.5908
G3 X33.5073 Y178.255 I-0.2111 J0.4533
G1 X33.3752 Y178.5388
G1 X33.1809 Y178.6095
G1 X33.3752 Y178.5388
G1 X35.6415 Y179.5967
G1 X35.7125 Y179.7916
G1 X35.6415 Y179.5967
G1 X35.7732 Y179.3138
G3 X36.4377 Y179.0717 I0.4533 J0.211
G1 X40.9767 Y181.1875
G3 X41.2188 Y181.8517 I-0.2112 J0.4532
G1 X41.0868 Y182.1352
G1 X40.8923 Y182.206
G1 X41.0868 Y182.1352
G1 X43.3528 Y183.1911
G1 X43.4238 Y183.3858
G1 X43.3528 Y183.1911
G1 X43.4846 Y182.9079
G3 X44.1501 Y182.6662 I0.4533 J0.211
G1 X44.5855 Y182.8702
G1 X44.6564 Y183.0655
G1 X44.5855 Y182.8702
G1 X50.0678 Y171.1156
G1 X50.2626 Y171.0447
G1 X50.0678 Y171.1156
G1 X49.6323 Y170.9128
G3 X49.3901 Y170.2486 I0.2111 J-0.4533
G1 X49.5222 Y169.9648
G1 X49.7165 Y169.8941
G1 X49.5222 Y169.9648
G1 X47.2559 Y168.9069
G1 X47.1849 Y168.712
G1 X47.2559 Y168.9069
G1 X47.1243 Y169.1898
G3 X46.4597 Y169.4319 I-0.4533 J-0.211
G1 X41.9207 Y167.3161
G3 X41.6787 Y166.6519 I0.2112 J-0.4532
G1 X41.8107 Y166.3684
G1 X42.0051 Y166.2976
G1 X41.8107 Y166.3684
G1 X39.5446 Y165.3125
G1 X39.4736 Y165.1178
G1 X39.5446 Y165.3125
G1 X39.4128 Y165.5957
G3 X38.7474 Y165.8374 I-0.4533 J-0.211
G1 X38.3119 Y165.6334
G1 X38.2411 Y165.4381
G1 F300.0 Z-8.0
G1 F800.0 X38.3119 Y165.6334
G1 X32.8296 Y177.388
G1 X32.6348 Y177.4589
G1 X32.8296 Y177.388
G1 X33.2651 Y177.5908
G3 X33.5073 Y178.255 I-0.2111 J0.4533
G1 X33.3752 Y178.5388
G1 X33.1809 Y178.6095
G1 X33.3752 Y178.5388
G1 X35.6415 Y179.5967
G1 X35.7125 Y179.7916
G1 X35.6415 Y179.5967
G1 X35.7732 Y179.3138
G3 X36.4377 Y179.0717 I0.4533 J0.211
G1 X40.9767 Y181.1875
G3 X41.2188 Y181.8517 I-0.2112 J0.4532
G1 X41.0868 Y182.1352
G1 X40.8923 Y182.206
G1 X41.0868 Y182.1352
G1 X43.3528 Y183.1911
G1 X43.4238 Y183.3858
G1 X43.3528 Y183.1911
G1 X43.4846 Y182.9079
G3 X44.1501 Y182.6662 I0.4533 J0.211
G1 X44.5855 Y182.8702
G1 X44.6564 Y183.0655
G1 X44.5855 Y182.8702
G1 X50.0678 Y171.1156
G1 X50.2626 Y171.0447
G1 X50.0678 Y171.1156
G1 X49.6323 Y170.9128
G3 X49.3901 Y170.2486 I0.2111 J-0.4533
G1 X49.5222 Y169.9648
G1 X49.7165 Y169.8941
G1 X49.5222 Y169.9648
G1 X47.2559 Y168.9069
G1 X47.1849 Y168.712
G1 X47.2559 Y168.9069
G1 X47.1243 Y169.1898
G3 X46.4597 Y169.4319 I-0.4533 J-0.211
G1 X41.9207 Y167.3161
G3 X41.6787 Y166.6519 I0.2112 J-0.4532
G1 X41.8107 Y166.3684
G1 X42.0051 Y166.2976
G1 X41.8107 Y166.3684
G1 X39.5446 Y165.3125
G1 X39.4736 Y165.1178
G1 X39.5446 Y165.3125
G1 X39.4128 Y165.5957
G3 X38.7474 Y165.8374 I-0.4533 J-0.211
G1 X38.3119 Y165.6334
G1 X38.2411 Y165.4381
G0 Z3.0
G0 X48.0273 Y162.7778
G0 Z-4.0
G1 F300.0 Z-7.0
G1 F800.0 X48.222 Y162.7069
G1 X50.3077 Y163.6789
G1 X50.3785 Y163.8734
G1 X50.3077 Y163.6789
G1 X55.7906 Y151.9255
G1 X55.9851 Y151.8548
G1 X55.7906 Y151.9255
G1 X53.7046 Y150.9516
G1 X53.6338 Y150.7568
G1 X53.7046 Y150.9516
G1 X48.222 Y162.7069
G1 X48.0273 Y162.7778
G1 F300.0 Z-8.0
G1 F800.0 X48.222 Y162.7069
G1 X50.3077 Y163.6789
G1 X50.3785 Y163.8734
G1 X50.3077 Y163.6789
G1 X55.7906 Y151.9255
G1 X55.9851 Y151.8548
G1 X55.7906 Y151.9255
G1 X53.7046 Y150.9516
G1 X53.6338 Y150.7568
G1 X53.7046 Y150.9516
G1 X48.222 Y162.7069
G1 X48.0273 Y162.7778
G0 Z3.0
G0 X57.9485 Y168.2438
G0 Z-4.0
G1 F300.0 Z-7.0
G1 F800.0 X58.1433 Y168.1728
G1 X58.5787 Y168.3756
G3 X58.821 Y169.0399 I-0.2111 J0.4533
G1 X58.6888 Y169.3237
G1 X58.4946 Y169.3944
G1 X58.6888 Y169.3237
G1 X60.9552 Y170.3815
G1 X61.0261 Y170.5765
G1 X60.9552 Y170.3815
G1 X61.0868 Y170.0987
G3 X61.7514 Y169.8565 I0.4533 J0.211
G1 X66.2903 Y171.9724
G3 X66.5324 Y172.6366 I-0.2112 J0.4532
G1 X66.4004 Y172.92
G1 X66.206 Y172.9909
G1 X66.4004 Y172.92
G1 X68.6665 Y173.9759
G1 X68.7374 Y174.1707
G1 X68.6665 Y173.9759
G1 X68.7983 Y173.6928
G3 X69.4637 Y173.4511 I0.4533 J0.211
G1 X69.8991 Y173.6551
G1 X69.97 Y173.8504
G1 X69.8991 Y173.6551
G1 X75.3815 Y161.9005
G1 X75.5762 Y161.8296
G1 X75.3815 Y161.9005
G1 X74.946 Y161.6977
G3 X74.7038 Y161.0334 I0.2111 J-0.4533
G1 X74.8359 Y160.7497
G1 X75.0301 Y160.6789
G1 X74.8359 Y160.7497
G1 X72.5696 Y159.6918
G1 X72.4986 Y159.4969
G1 X72.5696 Y159.6918
G1 X72.4379 Y159.9747
G3 X71.7734 Y160.2168 I-0.4533 J-0.211
G1 X67.2344 Y158.101
G3 X66.9923 Y157.4368 I0.2112 J-0.4532
G1 X67.1243 Y157.1533
G1 X67.3188 Y157.0824
G1 X67.1243 Y157.1533
G1 X64.8583 Y156.0974
G1 X64.7873 Y155.9027
G1 X64.8583 Y156.0974
G1 X64.7265 Y156.3806
G3 X64.061 Y156.6223 I-0.4533 J-0.211
G1 X63.6256 Y156.4183
G1 X63.5547 Y156.223
G1 X63.6256 Y156.4183
G1 X58.1433 Y168.1728
G1 X57.9485 Y168.2438
G1 F300.0 Z-8.0
G1 F800.0 X58.1433 Y168.1728
G1 X58.5787 Y168.3756
G3 X58.821 Y169.0399 I-0.2111 J0.4533
G1 X58.6888 Y169.3237
G1 X58.4946 Y169.3944
G1 X58.6888 Y169.3237
G1 X60.9552 Y170.3815
G1 X61.0261 Y170.5765
G1 X60.9552 Y170.3815
G1 X61.0868 Y170.0987
G3 X61.7514 Y169.8565 I0.4533 J0.211
G1 X66.2903 Y171.9724
G3 X66.5324 Y172.6366 I-0.2112 J0.4532
G1 X66.4004 Y172.92
G1 X66.206 Y172.9909
G1 X66.4004 Y172.92
G1 X68.6665 Y173.9759
G1 X68.7374 Y174.1707
G1 X68.6665 Y173.9759
G1 X68.7983 Y173.6928
G3 X69.4637 Y173.4511 I0.4533 J0.211
G1 X69.8991 Y173.6551
G1 X69.97 Y173.8504
G1 X69.8991 Y173.6551
G1 X75.3815 Y161.9005
G1 X75.5762 Y161.8296
G1 X75.3815 Y161.9005
G1 X74.946 Y161.6977
G3 X74.7038 Y161.0334 I0.2111 J-0.4533
G1 X74.8359 Y160.7497
G1 X75.0301 Y160.6789
G1 X74.8359 Y160.7497
G1 X72.5696 Y159.6918
G1 X72.4986 Y159.4969
G1 X72.5696 Y159.6918
G1 X72.4379 Y159.9747
G3 X71.7734 Y160.2168 I-0.4533 J-0.211
G1 X67.2344 Y158.101
G3 X66.9923 Y157.4368 I0.2112 J-0.4532
G1 X67.1243 Y157.1533
G1 X67.3188 Y157.0824
G1 X67.1243 Y157.1533
G1 X64.8583 Y156.0974
G1 X64.7873 Y155.9027
G1 X64.8583 Y156.0974
G1 X64.7265 Y156.3806
G3 X64.061 Y156.6223 I-0.4533 J-0.211
G1 X63.6256 Y156.4183
G1 X63.5547 Y156.223
G1 X63.6256 Y156.4183
G1 X58.1433 Y168.1728
G1 X57.9485 Y168.2438
G0 Z3.0
G0 X56.738 Y173.1671
G0 Z-4.0
G1 F300.0 Z-7.0
G1 F800.0 X56.809 Y173.3618
G1 X56.6772 Y173.6449
G3 X56.0117 Y173.8867 I-0.4533 J-0.211
G1 X55.5763 Y173.6826
G1 X55.5055 Y173.4874
G1 X55.5763 Y173.6826
G1 X50.094 Y185.4372
G1 X49.8992 Y185.5082
G1 X50.094 Y185.4372
G1 X50.5295 Y185.64
G3 X50.7717 Y186.3043 I-0.2111 J0.4533
G1 X50.6396 Y186.5881
G1 X50.4453 Y186.6588
G1 X50.6396 Y186.5881
G1 X52.9059 Y187.6459
G1 X52.9769 Y187.8409
G1 X52.9059 Y187.6459
G1 X53.0376 Y187.3631
G3 X53.7021 Y187.1209 I0.4533 J0.211
G1 X58.2411 Y189.2367
G3 X58.4831 Y189.9009 I-0.2112 J0.4532
G1 X58.3512 Y190.1844
G1 X58.1567 Y190.2553
G1 X58.3512 Y190.1844
G1 X60.6172 Y191.2403
G1 X60.6882 Y191.435
G1 X60.6172 Y191.2403
G1 X60.749 Y190.9572
G3 X61.4145 Y190.7154 I0.4533 J0.211
G1 X61.8499 Y190.9195
G1 X61.9207 Y191.1147
G1 X61.8499 Y190.9195
G1 X67.3322 Y179.1649
G1 X67.527 Y179.094
G1 X67.3322 Y179.1649
G1 X66.8967 Y178.9621
G3 X66.6545 Y178.2978 I0.2111 J-0.4533
G1 X66.7866 Y178.014
G1 X66.9809 Y177.9433
G1 X66.7866 Y178.014
G1 X64.5203 Y176.9562
G1 X64.4493 Y176.7612
G1 X64.5203 Y176.9562
G1 X64.3886 Y177.239
G3 X63.7241 Y177.4812 I-0.4533 J-0.211
G1 X59.1851 Y175.3654
G3 X58.9431 Y174.7012 I0.2112 J-0.4532
G1 X59.075 Y174.4177
G1 X59.2695 Y174.3468
G1 X59.075 Y174.4177
G1 X56.809 Y173.3618
G1 X56.738 Y173.1671
G1 F300.0 Z-8.0
G1 F800.0 X56.809 Y173.3618
G1 X56.6772 Y173.6449
G3 X56.0117 Y173.8867 I-0.4533 J-0.211
G1 X55.5763 Y173.6826
G1 X55.5055 Y173.4874
G1 X55.5763 Y173.6826
G1 X50.094 Y185.4372
G1 X49.8992 Y185.5082
G1 X50.094 Y185.4372
G1 X50.5295 Y185.64
G3 X50.7717 Y186.3043 I-0.2111 J0.4533
G1 X50.6396 Y186.5881
G1 X50.4453 Y186.6588
G1 X50.6396 Y186.5881
G1 X52.9059 Y187.6459
G1 X52.9769 Y187.8409
G1 X52.9059 Y187.6459
G1 X53.0376 Y187.3631
G3 X53.7021 Y187.1209 I0.4533 J0.211
G1 X58.2411 Y189.2367
G3 X58.4831 Y189.9009 I-0.2112 J0.4532
G1 X58.3512 Y190.1844
G1 X58.1567 Y190.2553
G1 X58.3512 Y190.1844
G1 X60.6172 Y191.2403
G1 X60.6882 Y191.435
G1 X60.6172 Y191.2403
G1 X60.749 Y190.9572
G3 X61.4145 Y190.7154 I0.4533 J0.211
G1 X61.8499 Y190.9195
G1 X61.9207 Y191.1147
G1 X61.8499 Y190.9195
G1 X67.3322 Y179.1649
G1 X67.527 Y179.094
G1 X67.3322 Y179.1649
G1 X66.8967 Y178.9621
G3 X66.6545 Y178.2978 I0.2111 J-0.4533
G1 X66.7866 Y178.014
G1 X66.9809 Y177.9433
G1 X66.7866 Y178.014
G1 X64.5203 Y176.9562
G1 X64.4493 Y176.7612
G1 X64.5203 Y176.9562
G1 X64.3886 Y177.239
G3 X63.7241 Y177.4812 I-0.4533 J-0.211
G1 X59.1851 Y175.3654
G3 X58.9431 Y174.7012 I0.2112 J-0.4532
G1 X59.075 Y174.4177
G1 X59.2695 Y174.3468
G1 X59.075 Y174.4177
G1 X56.809 Y173.3618
G1 X56.738 Y173.1671
G0 Z3.0
G0 X57.7877 Y147.9908
G0 Z-4.0
G1 F300.0 Z-7.0
G1 F800.0 X57.7168 Y147.7963
G1 X63.1973 Y136.0429
G1 X63.3918 Y135.9722
G1 X63.1973 Y136.0429
G1 X61.1113 Y135.069
G1 X61.0405 Y134.8742
G1 X61.1113 Y135.069
G1 X55.6311 Y146.8242
G1 X55.4364 Y146.8951
G1 X55.6311 Y146.8242
G1 X57.7168 Y147.7963
G1 X57.7877 Y147.9908
G1 F300.0 Z-8.0
G1 F800.0 X57.7168 Y147.7963
G1 X63.1973 Y136.0429
G1 X63.3918 Y135.9722
G1 X63.1973 Y136.0429
G1 X61.1113 Y135.069
G1 X61.0405 Y134.8742
G1 X61.1113 Y135.069
G1 X55.6311 Y146.8242
G1 X55.4364 Y146.8951
G1 X55.6311 Y146.8242
G1 X57.7168 Y147.7963
G1 X57.7877 Y147.9908
G0 Z3.0
G0 X60.6882 Y224.565
G0 Z-4.0
G1 F300.0 Z-7.0
G1 F800.0 X60.6172 Y224.7597
G1 X58.3512 Y225.8156
G1 X58.1567 Y225.7447
G1 X58.3512 Y225.8156
G1 X58.4831 Y226.0991
G3 X58.2411 Y226.7633 I-0.4533 J0.211
G1 X53.7021 Y228.8791
G3 X53.0376 Y228.6369 I-0.2112 J-0.4532
G1 X52.9059 Y228.3541
G1 X52.9769 Y228.1591
G1 X52.9059 Y228.3541
G1 X50.6396 Y229.4119
G1 X50.4453 Y229.3412
G1 X50.6396 Y229.4119
G1 X50.7717 Y229.6957
G3 X50.5295 Y230.36 I-0.4533 J0.211
G1 X50.094 Y230.5628
G1 X49.8992 Y230.4918
G1 X50.094 Y230.5628
G1 X55.5763 Y242.3174
G1 X55.5055 Y242.5126
G1 X55.5763 Y242.3174
G1 X56.0117 Y242.1133
G3 X56.6772 Y242.3551 I0.2122 J0.4528
G1 X56.809 Y242.6382
G1 X56.738 Y242.8329
G1 X56.809 Y242.6382
G1 X59.075 Y241.5823
G1 X59.2695 Y241.6532
G1 X59.075 Y241.5823
G1 X58.9431 Y241.2988
G3 X59.1851 Y240.6346 I0.4533 J-0.211
G1 X63.7241 Y238.5188
G3 X64.3886 Y238.761 I0.2112 J0.4532
G1 X64.5203 Y239.0438
G1 X64.4493 Y239.2388
G1 X64.5203 Y239.0438
G1 X66.7866 Y237.986
G1 X66.9809 Y238.0567
G1 X66.7866 Y237.986
G1 X66.6545 Y237.7022
G3 X66.8967 Y237.0379 I0.4533 J-0.211
G1 X67.3322 Y236.8351
G1 X67.527 Y236.906
G1 X67.3322 Y236.8351
G1 X61.8499 Y225.0805
G1 X61.9207 Y224.8853
G1 X61.8499 Y225.0805
G1 X61.4145 Y225.2846
G3 X60.749 Y225.0428 I-0.2122 J-0.4528
G1 X60.6172 Y224.7597
G1 X60.6882 Y224.565
G1 F300.0 Z-8.0
G1 F800.0 X60.6172 Y224.7597
G1 X58.3512 Y225.8156
G1 X58.1567 Y225.7447
G1 X58.3512 Y225.8156
G1 X58.4831 Y226.0991
G3 X58.2411 Y226.7633 I-0.4533 J0.211
G1 X53.7021 Y228.8791
G3 X53.0376 Y228.6369 I-0.2112 J-0.4532
G1 X52.9059 Y228.3541
G1 X52.9769 Y228.1591
G1 X52.9059 Y228.3541
G1 X50.6396 Y229.4119
G1 X50.4453 Y229.3412
G1 X50.6396 Y229.4119
G1 X50.7717 Y229.6957
G3 X50.5295 Y230.36 I-0.4533 J0.211
G1 X50.094 Y230.5628
G1 X49.8992 Y230.4918
G1 X50.094 Y230.5628
G1 X55.5763 Y242.3174
G1 X55.5055 Y242.5126
G1 X55.5763 Y242.3174
G1 X56.0117 Y242.1133
G3 X56.6772 Y242.3551 I0.2122 J0.4528
G1 X56.809 Y242.6382
G1 X56.738 Y242.8329
G1 X56.809 Y242.6382
G1 X59.075 Y241.5823
G1 X59.2695 Y241.6532
G1 X59.075 Y241.5823
G1 X58.9431 Y241.2988
G3 X59.1851 Y240.6346 I0.4533 J-0.211
G1 X63.7241 Y238.5188
G3 X64.3886 Y238.761 I0.2112 J0.4532
G1 X64.5203 Y239.0438
G1 X64.4493 Y239.2388
G1 X64.5203 Y239.0438
G1 X66.7866 Y237.986
G1 X66.9809 Y238.0567
G1 X66.7866 Y237.986
G1 X66.6545 Y237.7022
G3 X66.8967 Y237.0379 I0.4533 J-0.211
G1 X67.3322 Y236.8351
G1 X67.527 Y236.906
G1 X67.3322 Y236.8351
G1 X61.8499 Y225.0805
G1 X61.9207 Y224.8853
G1 X61.8499 Y225.0805
G1 X61.4145 Y225.2846
G3 X60.749 Y225.0428 I-0.2122 J-0.4528
G1 X60.6172 Y224.7597
G1 X60.6882 Y224.565
G0 Z3.0
G0 X44.6564 Y232.9345
G0 Z-4.0
G1 F300.0 Z-7.0
G1 F800.0 X44.5855 Y233.1298
G1 X44.1501 Y233.3338
G3 X43.4846 Y233.0921 I-0.2122 J-0.4528
G1 X43.3528 Y232.8089
G1 X43.4238 Y232.6142
G1 X43.3528 Y232.8089
G1 X41.0868 Y233.8648
G1 X40.8923 Y233.794
G1 X41.0868 Y233.8648
G1 X41.2188 Y234.1483
G3 X40.9767 Y234.8125 I-0.4533 J0.211
G1 X36.4377 Y236.9283
G3 X35.7732 Y236.6862 I-0.2112 J-0.4532
G1 X35.6415 Y236.4033
G1 X35.7125 Y236.2084
G1 X35.6415 Y236.4033
G1 X33.3752 Y237.4612
G1 X33.1809 Y237.3905
G1 X33.3752 Y237.4612
G1 X33.5073 Y237.745
G3 X33.2651 Y238.4092 I-0.4533 J0.211
G1 X32.8296 Y238.612
G1 X32.6348 Y238.5411
G1 X32.8296 Y238.612
G1 X38.3119 Y250.3666
G1 X38.2411 Y250.5619
G1 X38.3119 Y250.3666
G1 X38.7474 Y250.1626
G3 X39.4128 Y250.4043 I0.2122 J0.4528
G1 X39.5446 Y250.6875
G1 X39.4736 Y250.8822
G1 X39.5446 Y250.6875
G1 X41.8107 Y249.6316
G1 X42.0051 Y249.7024
G1 X41.8107 Y249.6316
G1 X41.6787 Y249.3481
G3 X41.9207 Y248.6839 I0.4533 J-0.211
G1 X46.4597 Y246.5681
G3 X47.1243 Y246.8102 I0.2112 J0.4532
G1 X47.2559 Y247.0931
G1 X47.1849 Y247.288
G1 X47.2559 Y247.0931
G1 X49.5222 Y246.0352
G1 X49.7165 Y246.1059
G1 X49.5222 Y246.0352
G1 X49.3901 Y245.7514
G3 X49.6323 Y245.0872 I0.4533 J-0.211
G1 X50.0678 Y244.8844
G1 X50.2626 Y244.9553
G1 X50.0678 Y244.8844
G1 X44.5855 Y233.1298
G1 X44.6564 Y232.9345
G1 F300.0 Z-8.0
G1 F800.0 X44.5855 Y233.1298
G1 X44.1501 Y233.3338
G3 X43.4846 Y233.0921 I-0.2122 J-0.4528
G1 X43.3528 Y232.8089
G1 X43.4238 Y232.6142
G1 X43.3528 Y232.8089
G1 X41.0868 Y233.8648
G1 X40.8923 Y233.794
G1 X41.0868 Y233.8648
G1 X41.2188 Y234.1483
G3 X40.9767 Y234.8125 I-0.4533 J0.211
G1 X36.4377 Y236.9283
G3 X35.7732 Y236.6862 I-0.2112 J-0.4532
G1 X35.6415 Y236.4033
G1 X35.7125 Y236.2084
G1 X35.6415 Y236.4033
G1 X33.3752 Y237.4612
G1 X33.1809 Y237.3905
G1 X33.3752 Y237.4612
G1 X33.5073 Y237.745
G3 X33.2651 Y238.4092 I-0.4533 J0.211
G1 X32.8296 Y238.612
G1 X32.6348 Y238.5411
G1 X32.8296 Y238.612
G1 X38.3119 Y250.3666
G1 X38.2411 Y250.5619
G1 X38.3119 Y250.3666
G1 X38.7474 Y250.1626
G3 X39.4128 Y250.4043 I0.2122 J0.4528
G1 X39.5446 Y250.6875
G1 X39.4736 Y250.8822
G1 X39.5446 Y250.6875
G1 X41.8107 Y249.6316
G1 X42.0051 Y249.7024
G1 X41.8107 Y249.6316
G1 X41.6787 Y249.3481
G3 X41.9207 Y248.6839 I0.4533 J-0.211
G1 X46.4597 Y246.5681
G3 X47.1243 Y246.8102 I0.2112 J0.4532
G1 X47.2559 Y247.0931
G1 X47.1849 Y247.288
G1 X47.2559 Y247.0931
G1 X49.5222 Y246.0352
G1 X49.7165 Y246.1059
G1 X49.5222 Y246.0352
G1 X49.3901 Y245.7514
G3 X49.6323 Y245.0872 I0.4533 J-0.211
G1 X50.0678 Y244.8844
G1 X50.2626 Y244.9553
G1 X50.0678 Y244.8844
G1 X44.5855 Y233.1298
G1 X44.6564 Y232.9345
G0 Z3.0
G0 X27.3894 Y240.9863
G0 Z-4.0
G1 F300.0 Z-7.0
G1 F800.0 X27.3186 Y241.1816
G1 X26.8832 Y241.3856
G3 X26.2177 Y241.1439 I-0.2122 J-0.4528
G1 X26.0859 Y240.8607
G1 X26.1569 Y240.666
G1 X26.0859 Y240.8607
G1 X23.8199 Y241.9166
G1 X23.6254 Y241.8458
G1 X23.8199 Y241.9166
G1 X23.9518 Y242.2001
G3 X23.7098 Y242.8643 I-0.4533 J0.211
G1 X19.1708 Y244.9801
G3 X18.5063 Y244.738 I-0.2112 J-0.4532
G1 X18.3746 Y244.4551
G1 X18.4456 Y244.2602
G1 X18.3746 Y244.4551
G1 X16.1083 Y245.513
G1 X15.914 Y245.4423
G1 X16.1083 Y245.513
G1 X16.2404 Y245.7968
G3 X15.9982 Y246.461 I-0.4533 J0.211
G1 X15.5627 Y246.6638
G1 X15.3679 Y246.5929
G1 X15.5627 Y246.6638
G1 X21.045 Y258.4184
G1 X20.9742 Y258.6137
G1 X21.045 Y258.4184
G1 X21.4804 Y258.2144
G3 X22.1459 Y258.4561 I0.2122 J0.4528
G1 X22.2777 Y258.7393
G1 X22.2067 Y258.934
G1 X22.2777 Y258.7393
G1 X24.5437 Y257.6834
G1 X24.7382 Y257.7542
G1 X24.5437 Y257.6834
G1 X24.4118 Y257.3999
G3 X24.6538 Y256.7357 I0.4533 J-0.211
G1 X29.1928 Y254.6199
G3 X29.8573 Y254.862 I0.2112 J0.4532
G1 X29.989 Y255.1449
G1 X29.918 Y255.3398
G1 X29.989 Y255.1449
G1 X32.2553 Y254.087
G1 X32.4496 Y254.1577
G1 X32.2553 Y254.087
G1 X32.1232 Y253.8032
G3 X32.3654 Y253.139 I0.4533 J-0.211
G1 X32.8009 Y252.9362
G1 X32.9957 Y253.0071
G1 X32.8009 Y252.9362
G1 X27.3186 Y241.1816
G1 X27.3894 Y240.9863
G1 F300.0 Z-8.0
G1 F800.0 X27.3186 Y241.1816
G1 X26.8832 Y241.3856
G3 X26.2177 Y241.1439 I-0.2122 J-0.4528
G1 X26.0859 Y240.8607
G1 X26.1569 Y240.666
G1 X26.0859 Y240.8607
G1 X23.8199 Y241.9166
G1 X23.6254 Y241.8458
G1 X23.8199 Y241.9166
G1 X23.9518 Y242.2001
G3 X23.7098 Y242.8643 I-0.4533 J0.211
G1 X19.1708 Y244.9801
G3 X18.5063 Y244.738 I-0.2112 J-0.4532
G1 X18.3746 Y244.4551
G1 X18.4456 Y244.2602
G1 X18.3746 Y244.4551
G1 X16.1083 Y245.513
G1 X15.914 Y245.4423
G1 X16.1083 Y245.513
G1 X16.2404 Y245.7968
G3 X15.9982 Y246.461 I-0.4533 J0.211
G1 X15.5627 Y246.6638
G1 X15.3679 Y246.5929
G1 X15.5627 Y246.6638
G1 X21.045 Y258.4184
G1 X20.9742 Y258.6137
G1 X21.045 Y258.4184
G1 X21.4804 Y258.2144
G3 X22.1459 Y258.4561 I0.2122 J0.4528
G1 X22.2777 Y258.7393
G1 X22.2067 Y258.934
G1 X22.2777 Y258.7393
G1 X24.5437 Y257.6834
G1 X24.7382 Y257.7542
G1 X24.5437 Y257.6834
G1 X24.4118 Y257.3999
G3 X24.6538 Y256.7357 I0.4533 J-0.211
G1 X29.1928 Y254.6199
G3 X29.8573 Y254.862 I0.2112 J0.4532
G1 X29.989 Y255.1449
G1 X29.918 Y255.3398
G1 X29.989 Y255.1449
G1 X32.2553 Y254.087
G1 X32.4496 Y254.1577
G1 X32.2553 Y254.087
G1 X32.1232 Y253.8032
G3 X32.3654 Y253.139 I0.4533 J-0.211
G1 X32.8009 Y252.9362
G1 X32.9957 Y253.0071
G1 X32.8009 Y252.9362
G1 X27.3186 Y241.1816
G1 X27.3894 Y240.9863
G0 Z3.0
G0 X35.5031 Y258.3826
G0 Z-4.0
G1 F300.0 Z-7.0
G1 F800.0 X32.2461 Y259.9017
G1 X32.0508 Y259.8308
G1 X32.2461 Y259.9017
G1 X32.4501 Y260.3371
G3 X32.2084 Y261.0026 I-0.4528 J0.2122
G1 X31.9253 Y261.1344
G1 X31.7305 Y261.0634
G1 X31.9253 Y261.1344
G1 X32.9812 Y263.4004
G1 X32.9103 Y263.5949
G1 X32.9812 Y263.4004
G1 X33.2646 Y263.2684
G3 X33.9288 Y263.5105 I0.211 J0.4533
G1 X36.0447 Y268.0495
G3 X35.8025 Y268.714 I-0.4532 J0.2112
G1 X35.5197 Y268.8457
G1 X35.3247 Y268.7747
G1 X35.5197 Y268.8457
G1 X36.5775 Y271.112
G1 X36.5068 Y271.3063
G1 X36.5775 Y271.112
G1 X36.8613 Y270.9799
G3 X37.5256 Y271.2221 I0.211 J0.4533
G1 X37.7284 Y271.6576
G1 X37.6574 Y271.8524
G1 X37.7284 Y271.6576
G1 X49.4829 Y266.1753
G1 X49.6782 Y266.2461
G1 X49.4829 Y266.1753
G1 X49.2789 Y265.7398
G3 X49.5206 Y265.0744 I0.4528 J-0.2122
G1 X49.8038 Y264.9426
G1 X49.9985 Y265.0136
G1 X49.8038 Y264.9426
G1 X48.7479 Y262.6765
G1 X48.8188 Y262.4821
G1 X48.7479 Y262.6765
G1 X48.4644 Y262.8085
G3 X47.8002 Y262.5665 I-0.211 J-0.4533
G1 X45.6844 Y258.0275
G3 X45.9265 Y257.3629 I0.4532 J-0.2112
G1 X46.2094 Y257.2313
G1 X46.4043 Y257.3023
G1 X46.2094 Y257.2313
G1 X45.1515 Y254.965
G1 X45.2223 Y254.7707
G1 X45.1515 Y254.965
G1 X44.8678 Y255.0971
G3 X44.2035 Y254.8549 I-0.211 J-0.4533
G1 X44.0007 Y254.4194
G1 X44.0716 Y254.2246
G1 X44.0007 Y254.4194
G1 X35.5031 Y258.3826
G1 F300.0 Z-8.0
G1 F800.0 X32.2461 Y259.9017
G1 X32.0508 Y259.8308
G1 X32.2461 Y259.9017
G1 X32.4501 Y260.3371
G3 X32.2084 Y261.0026 I-0.4528 J0.2122
G1 X31.9253 Y261.1344
G1 X31.7305 Y261.0634
G1 X31.9253 Y261.1344
G1 X32.9812 Y263.4004
G1 X32.9103 Y263.5949
G1 X32.9812 Y263.4004
