( Made using CamBam - http://www.cambam.co.uk )
( Parts 11/2/2013 9:16:40 AM )
( T1 : 1.0 )
( T3 : 3.0 )
G21 G90 G64 G40
G0 Z3.0
( T3 : 3.0 )
T3 M6
( Drill1 )
G17
M3 S1000
G0 X174.1688 Y103.5255
G98
G81 X174.1688 Y103.5255 Z-8.0 R3.0 F300.0
G81 X219.1744 Y89.7102 Z-8.0
G81 X222.5808 Y9.3042 Z-8.0
G81 X172.3499 Y8.4561 Z-8.0
G81 X48.0352 Z-8.0
G81 X44.6288 Y88.8621 Z-8.0
G81 X7.7982 Y172.1643 Z-8.0
G81 X64.8143 Y198.7507 Z-8.0
G81 Y217.2493 Z-8.0
G81 X7.7982 Y243.8357 Z-8.0
G81 X44.6288 Y327.1379 Z-8.0
G81 X48.0352 Y407.5439 Z-8.0
G81 X172.3499 Z-8.0
G81 X222.913 Y408.0386 Z-8.0
G81 X219.5065 Y327.6326 Z-8.0
G81 X174.1688 Y312.4745 Z-8.0
G81 X172.3499 Y258.9912 Z-8.0
G81 X182.676 Y244.3304 Z-8.0
G81 X239.6921 Y217.7439 Z-8.0
G81 X239.36 Y199.5989 Z-8.0
G81 X182.3439 Y173.0125 Z-8.0
G81 X172.3499 Y157.0088 Z-8.0
G81 X346.8956 Y157.8569 Z-8.0
G81 X348.7145 Y104.3737 Z-8.0
G81 X346.8956 Y9.3042 Z-8.0
G81 X347.2277 Y259.4859 Z-8.0
G81 X349.0466 Y312.9692 Z-8.0
G81 X347.2277 Y408.0386 Z-8.0
G80
( Pocket1 )
S1000
G0 Z3.0
G0 X100.115 Y99.2498
G0 Z1.0
G1 F300.0 Z-5.0
G3 F1400.0 X99.4107 Y102.489 I-51.0412 J-9.4022
G1 X100.2945
G3 X100.115 Y99.2498 I51.7055 J-4.489
G1 F300.0 X101.3147 Y99.2209
G3 F1400.0 X101.3 Y98.0 I50.6853 J-1.2209
G1 Y71.8805
G3 X99.7738 Y64.696 I48.7 J-14.0996
G1 Y89.8476
G3 X97.8478 Y103.689 I-50.7 J0.0
G1 X101.6202
G3 X101.3147 Y99.2209 I50.3798 J-5.689
G1 F300.0 X102.5144 Y99.192
G3 F1400.0 X102.5 Y98.0 I49.4856 J-1.192
G1 Y71.7093
G3 X100.5793 Y60.5822 I47.5 J-13.9284
G1 X98.5738
G1 Y89.8476
G3 X96.2332 Y104.889 I-49.5 J0.0
G1 X102.9817
G3 X102.5144 Y99.192 I49.0183 J-6.889
G1 F300.0 X103.714 Y99.1631
G3 F1400.0 X103.7 Y98.0 I48.286 J-1.1631
G1 Y71.5359
G3 X101.7266 Y59.3822 I46.3 J-13.755
G1 X97.3738
G1 Y89.8476
G3 X94.5612 Y106.089 I-48.3 J0.0
G1 X104.3822
G3 X103.714 Y99.1631 I47.6178 J-8.089
G1 F300.0 X104.9137 Y99.1342
G3 F1400.0 X104.9 Y98.0 I47.0863 J-1.1342
G1 Y71.3603
G3 X102.9017 Y58.1822 I45.1 J-13.5794
G1 X96.1738
G1 Y89.8476
G3 X92.8255 Y107.289 I-47.1 J0.0
G1 X105.8251
G3 X104.9137 Y99.1342 I46.1749 J-9.289
G1 F300.0 X106.1133 Y99.1053
G3 F1400.0 X106.1 Y98.0 I45.8867 J-1.1053
G1 Y71.1824
G3 X104.1 Y57.7809 I43.9 J-13.4015
G1 Y56.9822
G1 X94.9738
G1 Y89.8476
G3 X91.0179 Y108.489 I-45.9 J0.0
G1 X107.3145
G3 X106.1133 Y99.1053 I44.6855 J-10.489
G1 F300.0 X107.313 Y99.0764
G3 F1400.0 X107.3 Y98.0 I44.687 J-1.0764
G1 Y71.0021
G3 X105.3 Y57.7809 I42.7 J-13.2212
G1 Y55.7822
G1 X93.7738
G1 Y89.8476
G3 X89.5871 Y108.7358 I-44.7 J0.0
G1 X89.1427 Y109.689
G1 X108.8554
G3 X107.313 Y99.0764 I43.1446 J-11.689
G1 F300.0 X108.5126 Y99.0475
G3 F1400.0 X108.5 Y98.0 I43.4874 J-1.0475
G1 Y70.8193
G3 X106.5 Y57.7809 I41.5 J-13.0384
G1 Y54.5822
G1 X92.5738
G1 Y89.8476
G3 X88.4995 Y108.2287 I-43.5 J0.0
G1 X87.2592 Y110.889
G1 X110.4534
G3 X108.5126 Y99.0475 I41.5466 J-12.889
G1 F300.0 X109.7123 Y99.0186
G3 F1400.0 X109.7 Y98.0 I42.2877 J-1.0186
G1 Y70.6339
G3 X107.7 Y57.7809 I40.3 J-12.853
G1 Y53.3822
G1 X91.3738
G1 Y89.8476
G3 X87.4119 Y107.7217 I-42.3 J0.0
G1 X85.3757 Y112.089
G1 X112.1153
G3 X109.7123 Y99.0186 I39.8847 J-14.089
G1 F300.0 X110.9119 Y98.9897
G3 F1400.0 X110.9 Y98.0 I41.0881 J-0.9897
G1 Y70.4458
G3 X108.9 Y57.7809 I39.1 J-12.6649
G1 Y52.1822
G1 X90.1738
G1 Y89.8476
G3 X86.3243 Y107.2146 I-41.1 J0.0
G1 X83.4922 Y113.289
G1 X113.8496
G3 X110.9119 Y98.9897 I38.1504 J-15.289
G1 F300.0 X112.1116 Y98.9608
G3 F1400.0 X112.1 Y98.0 I39.8884 J-0.9608
G1 Y70.2549
G3 X110.1 Y57.7809 I37.9 J-12.474
G1 Y50.9822
G1 X88.9738
G1 Y89.8476
G3 X85.2367 Y106.7075 I-39.9 J0.0
G1 X81.6088 Y114.489
G1 X115.6665
G3 X112.1116 Y98.9608 I36.3335 J-16.489
G1 F300.0 X113.3112 Y98.9319
G3 F1400.0 X113.3 Y98.0 I38.6888 J-0.9319
G1 Y70.0609
G3 X111.3 Y57.7809 I36.7 J-12.2801
G1 Y49.7822
G1 X87.7738
G1 Y89.8476
G3 X84.1491 Y106.2005 I-38.7 J0.0
G1 X79.7232 Y115.6935
G3 X80.3158 Y115.689 I0.5926 J38.6955
G1 X117.5792
G3 X113.3112 Y98.9319 I34.4208 J-17.689
G1 F300.0 X114.5109 Y98.903
G3 F1400.0 X114.5 Y98.0 I37.4891 J-0.903
G1 Y69.8639
G3 X112.5 Y57.7809 I35.5 J-12.083
G1 Y48.5822
G1 X86.5738
G1 Y89.8476
G3 X83.0614 Y105.6934 I-37.5 J0.0
G1 X77.8025 Y116.9733
G3 X80.3158 Y116.889 I2.5133 J37.4157
G1 X119.6047
G3 X114.5109 Y98.903 I32.3953 J-18.889
G1 F300.0 X115.7105 Y98.8741
G3 F1400.0 X115.7 Y98.0 I36.2895 J-0.8741
G1 Y69.6636
G3 X113.7 Y57.7809 I34.3 J-11.8828
G1 Y47.3822
G1 X85.3738
G1 Y89.8476
G3 X81.9738 Y105.1863 I-36.3 J0.0
G1 X75.8285 Y118.3674
G3 X80.3158 Y118.089 I4.4873 J36.0216
G1 X121.7655
G3 X115.7105 Y98.8741 I30.2345 J-20.089
G1 F300.0 X116.9102 Y98.8452
G3 F1400.0 X116.9 Y98.0 I35.0898 J-0.8452
G1 Y69.4599
G3 X114.9 Y57.7809 I33.1 J-11.679
G1 Y46.1822
G1 X84.1738
G1 Y89.8476
G3 X80.8862 Y104.6793 I-35.1 J0.0
G1 X73.7895 Y119.9011
G3 X80.3158 Y119.289 I6.5263 J34.4879
G1 X123.7494
G3 X123.8059 Y118.9069 I34.7506 J4.9402
G3 X116.9102 Y98.8452 I28.1941 J-20.9069
G1 F300.0 X118.1098 Y98.8163
G3 F1400.0 X118.1 Y98.0 I33.8902 J-0.8163
G1 Y69.2526
G3 X116.1 Y57.7809 I31.9 J-11.4717
G1 Y44.9822
G1 X82.9738
G1 Y89.8476
G3 X79.7986 Y104.1722 I-33.9 J0.0
G1 X71.6685 Y121.6104
G3 X80.3158 Y120.489 I8.6473 J32.7786
G1 X124.807
G3 X125.0718 Y118.5932 I33.693 J3.7402
G3 X118.1098 Y98.8163 I26.9282 J-20.5932
G1 F300.0 X119.3095 Y98.7874
G3 F1400.0 X119.3 Y98.0 I32.6905 J-0.7874
G1 Y69.0414
G3 X117.3 Y57.7809 I30.7 J-11.2606
G1 Y43.7822
G1 X81.7738
G1 Y89.8476
G3 X78.711 Y103.6651 I-32.7 J0.0
G1 X69.44 Y123.5506
G3 X80.3158 Y121.689 I10.8758 J30.8384
G1 X125.8988
G3 X126.3462 Y118.2774 I32.6012 J2.5402
G3 X119.3095 Y98.7874 I25.6538 J-20.2774
G1 F300.0 X120.5091 Y98.7585
G3 F1400.0 X120.5 Y98.0 I31.4909 J-0.7585
G1 Y68.8262
G3 X118.5 Y57.7809 I29.5 J-11.0454
G1 Y42.5822
G1 X80.5738
G1 Y89.8476
G3 X77.6234 Y103.1581 I-31.5 J0.0
G1 X67.061 Y125.8135
G3 X80.3158 Y122.889 I13.2548 J28.5755
G1 X127.0285
G3 X127.6303 Y117.9592 I31.4715 J1.3402
G3 X120.5091 Y98.7585 I24.3697 J-19.9592
G1 F300.0 X121.7088 Y98.7296
G3 F1400.0 X121.7 Y98.0 I30.2912 J-0.7296
G1 Y68.6068
G3 X119.7 Y57.7809 I28.3 J-10.8259
G1 Y41.3822
G1 X79.3738
G1 Y89.8476
G3 X76.5358 Y102.651 I-30.3 J0.0
G1 X64.4493 Y128.5754
G3 X80.3158 Y124.089 I15.8665 J25.8136
G1 X128.2003
G3 X128.9255 Y117.6382 I30.2997 J0.1402
G3 X121.7088 Y98.7296 I23.0745 J-19.6382
G1 F300.0 X122.9084 Y98.7007
G3 F1400.0 X122.9 Y98.0 I29.0916 J-0.7007
G1 Y68.3828
G3 X120.9 Y57.7809 I27.1 J-10.6019
G1 Y40.1822
G1 X78.1738
G1 Y89.8476
G3 X75.4482 Y102.1439 I-29.1 J0.0
G1 X61.4003 Y132.2754
G3 X80.3158 Y125.289 I18.9155 J22.1136
G1 X129.4
G1 Y124.2292
G3 X130.2336 Y117.3141 I29.1 J0.0
G3 X122.9084 Y98.7007 I21.7664 J-19.3141
G1 F300.0 X124.1081 Y98.6718
G3 F1400.0 X124.1 Y98.0 I27.8919 J-0.6718
G1 Y68.1539
G3 X122.1 Y57.7809 I25.9 J-10.373
G1 Y38.9822
G1 X76.9738
G1 Y89.8476
G3 X74.3606 Y101.6369 I-27.9 J0.0
G1 X56.6714 Y139.5785
G3 X80.3158 Y126.489 I23.6444 J14.8105
G1 X130.6
G1 Y124.2292
G3 X131.5566 Y116.9862 I27.9 J0.0
G3 X124.1081 Y98.6718 I20.4434 J-18.9862
G0 Z3.0
G0 X53.7707 Y145.8
G0 Z1.0
G1 F300.0 Z-5.0
G1 F1400.0 X48.3635 Y157.3981
G1 X50.0481 Y158.1836
G1 X52.4486 Y153.0355
G3 X53.7707 Y145.8 I27.8672 J1.3535
G1 F300.0 X54.9125 Y146.1695
G3 F1400.0 X80.3158 Y127.689 I25.4033 J8.2195
G1 X131.8
G1 Y124.2292
G3 X132.8971 Y116.654 I26.7 J0.0
G3 X125.3 Y98.0 I19.1029 J-18.654
G1 Y67.9199
G3 X123.3 Y57.7809 I24.7 J-10.139
G1 Y37.7822
G1 X75.7738
G1 Y89.8476
G3 X73.273 Y101.1298 I-26.7 J0.0
G1 X46.7688 Y157.9785
G1 X50.6285 Y159.7783
G1 X53.6369 Y153.3267
G3 X54.9125 Y146.1695 I26.6789 J1.0623
G1 F300.0 X56.0542 Y146.5389
G3 F1400.0 X80.3158 Y128.889 I24.2616 J7.8501
G1 X133.0
G1 Y124.2292
G3 X134.2587 Y116.3166 I25.5 J0.0
G3 X126.5 Y98.0 I17.7413 J-18.3166
G1 Y67.6804
G3 X124.5 Y57.7809 I23.5 J-9.8995
G1 Y36.5822
G1 X74.5738
G1 Y89.8476
G3 X72.1854 Y100.6228 I-25.5 J0.0
G1 X45.1742 Y158.559
G1 X51.209 Y161.373
G1 X54.8276 Y153.6127
G3 X56.0542 Y146.5389 I25.4882 J0.7763
G1 F300.0 X57.1959 Y146.9083
G3 F1400.0 X80.3158 Y130.089 I23.1199 J7.4807
G1 X134.2
G1 Y124.2292
G3 X135.6456 Y115.9729 I24.3 J0.0
G3 X127.7 Y98.0 I16.3544 J-17.9729
G1 Y67.4349
G3 X125.7 Y57.7809 I22.3 J-9.654
G1 Y35.3822
G1 X73.3738
G1 Y89.8476
G3 X71.0978 Y100.1157 I-24.3 J0.0
G1 X43.5796 Y159.1395
G1 X51.7894 Y162.9677
G1 X56.0209 Y153.8932
G3 X57.1959 Y146.9083 I24.2949 J0.4958
G1 F300.0 X58.3376 Y147.2777
G3 F1400.0 X80.3158 Y131.289 I21.9782 J7.1113
G1 X135.4
G1 Y124.2292
G3 X137.0637 Y115.6215 I23.1 J0.0
G3 X128.9 Y98.0 I14.9363 J-17.6215
G1 Y67.183
G3 X126.9 Y57.7809 I21.1 J-9.4021
G1 Y34.1822
G1 X72.1738
G1 Y89.8476
G3 X70.0102 Y99.6086 I-23.1 J0.0
G1 X41.9849 Y159.7199
G1 X52.3698 Y164.5624
G1 X57.2169 Y154.1678
G3 X58.3376 Y147.2777 I23.0989 J0.2212
G1 F300.0 X59.4794 Y147.6471
G3 F1400.0 X80.3158 Y132.489 I20.8364 J6.7419
G1 X136.6
G1 Y124.2292
G3 X138.5208 Y115.2604 I21.9 J0.0
G3 X130.1 Y98.0 I13.4792 J-17.2604
G1 Y66.9242
G3 X128.1 Y57.7809 I19.9 J-9.1433
G1 Y32.9822
G1 X70.9738
G1 Y89.8476
G3 X68.9226 Y99.1016 I-21.9 J0.0
G1 X40.3903 Y160.3004
G1 X52.9503 Y166.1571
G1 X58.4158 Y154.4361
G1 Y154.389
G3 X59.4794 Y147.6471 I21.9 J0.0
G1 F300.0 X60.6211 Y148.0166
G3 F1400.0 X80.3158 Y133.689 I19.6947 J6.3724
G1 X137.8
G1 Y124.2292
G3 X140.0281 Y114.8868 I20.7 J0.0
G3 X131.3 Y98.0 I11.9719 J-16.8868
G1 Y66.6578
G3 X129.3 Y57.7809 I18.7 J-8.8769
G1 Y31.7822
G1 X69.7738
G1 Y89.8476
G3 X67.835 Y98.5945 I-20.7 J0.0
G1 X38.7957 Y160.8809
G1 X53.5307 Y167.7518
G1 X59.6158 Y154.7022
G1 Y154.389
G3 X60.6211 Y148.0166 I20.7 J0.0
G1 F300.0 X61.7628 Y148.386
G3 F1400.0 X80.3158 Y134.889 I18.553 J6.003
G1 X139.0
G1 Y124.2292
G3 X141.6024 Y114.4967 I19.5 J0.0
G3 X132.5 Y98.0 I10.3976 J-16.4967
G1 Y66.3832
G3 X130.5 Y57.7809 I17.5 J-8.6023
G1 Y30.5822
G1 X68.5738
G1 Y89.8476
G3 X66.7474 Y98.0874 I-19.5 J0.0
G1 X37.201 Y161.4614
G1 X54.1111 Y169.3465
G1 X60.8158 Y154.9682
G1 Y154.389
G3 X61.7628 Y148.386 I19.5 J0.0
G1 F300.0 X62.9045 Y148.7554
G3 F1400.0 X80.3158 Y136.089 I17.4113 J5.6336
G1 X140.2
G1 Y124.2292
G3 X143.27 Y114.0834 I18.3 J0.0
G3 X133.7 Y98.0 I8.73 J-16.0834
G1 Y66.0995
G3 X131.7 Y57.7809 I16.3 J-8.3187
G1 Y29.3822
G1 X67.3738
G1 Y89.8476
G3 X65.6598 Y97.5804 I-18.3 J0.0
G1 X35.6064 Y162.0418
G1 X54.6916 Y170.9412
G1 X62.0158 Y155.2342
G1 Y154.389
G3 X62.9045 Y148.7554 I18.3 J0.0
G1 F300.0 X64.0463 Y149.1248
G3 F1400.0 X80.3158 Y137.289 I16.2695 J5.2642
G1 X141.4024
G3 X141.4 Y137.0 I17.0976 J-0.289
G1 Y124.2292
G3 X145.0766 Y113.6357 I17.1 J0.0
G3 X134.9 Y98.0 I6.9234 J-15.6357
G1 Y65.8058
G3 X132.9 Y57.7809 I15.1 J-8.025
G1 Y28.1822
G1 X66.1738
G1 Y89.8476
G3 X64.5722 Y97.0733 I-17.1 J0.0
G1 X34.0117 Y162.6223
G1 X55.272 Y172.5359
G1 X63.2158 Y155.5003
G1 Y154.389
G3 X64.0463 Y149.1248 I17.1 J0.0
G1 F300.0 X65.188 Y149.4942
G3 F1400.0 X80.3158 Y138.489 I15.1278 J4.8948
G1 X142.6699
G3 X142.6 Y137.0 I15.8301 J-1.489
G1 Y124.2292
G3 X147.1143 Y113.1308 I15.9 J0.0
G3 X136.1 Y98.0 I4.8857 J-15.1308
G1 Y65.501
G3 X134.1 Y57.7809 I13.9 J-7.7201
G1 Y26.9822
G1 X65.1848
G1 X64.9738 Y27.1932
G1 Y89.8476
G3 X63.4846 Y96.5662 I-15.9 J0.0
G1 X32.4171 Y163.2028
G1 X55.8524 Y174.1306
G1 X64.4158 Y155.7663
G1 Y154.389
G3 X65.188 Y149.4942 I15.9 J0.0
G1 F300.0 X66.3297 Y149.8636
G3 F1400.0 X80.3158 Y139.689 I13.9861 J4.5254
G1 X144.048
G3 X143.8 Y137.0 I14.452 J-2.689
G1 Y124.2292
G3 X149.6291 Y112.5075 I14.7 J0.0
G3 X137.3 Y98.0 I2.3709 J-14.5075
G1 Y65.1836
G3 X135.3 Y57.7809 I12.7 J-7.4027
G1 Y25.7822
G1 X64.6877
G1 X63.7738 Y26.6961
G1 Y89.8476
G3 X62.397 Y96.0592 I-14.7 J0.0
G1 X30.8225 Y163.7832
G1 X56.4329 Y175.7253
G1 X65.6158 Y156.0323
G1 Y154.389
G3 X66.3297 Y149.8636 I14.7 J0.0
G1 F300.0 X67.4714 Y150.2331
G3 F1400.0 X80.3158 Y140.889 I12.8444 J4.1559
G1 X145.5723
G3 X145.0 Y137.0 I12.9277 J-3.889
G1 Y124.2292
G3 X150.6656 Y113.235 I13.5 J0.0
G3 X152.1864 Y111.5 I10.8753 J7.9986
G1 X152.0
G3 X138.5 Y98.0 I0.0 J-13.5
G1 Y64.8519
G3 X136.5 Y57.7809 I11.5 J-7.0711
G1 Y25.0
G3 X136.5065 Y24.5822 I13.5 J0.0
G1 X64.1907
G1 X62.5738 Y26.1991
G1 Y89.8476
G3 X61.3094 Y95.5521 I-13.5 J0.0
G1 X29.2278 Y164.3637
G1 X57.0133 Y177.3201
G1 X66.8158 Y156.2983
G1 Y154.389
G3 X67.4714 Y150.2331 I13.5 J0.0
G1 F300.0 X68.6131 Y150.6025
G3 F1400.0 X80.3158 Y142.089 I11.7027 J3.7865
G1 X147.3021
G3 X146.2 Y137.0 I11.1979 J-5.089
G1 Y124.2292
G3 X151.5195 Y114.1019 I12.3 J0.0
G3 X155.9066 Y110.3 I10.0214 J7.1318
G1 X152.0
G3 X139.7 Y98.0 I0.0 J-12.3
G1 Y64.504
G3 X137.7 Y57.7809 I10.3 J-6.7231
G1 Y25.0
G3 X137.8069 Y23.3822 I12.3 J0.0
G1 X63.6936
G1 X61.3738 Y25.702
G1 Y89.8476
G3 X60.2217 Y95.045 I-12.3 J0.0
G1 X27.6332 Y164.9442
G1 X57.5937 Y178.9148
G1 X68.0158 Y156.5644
G1 Y154.389
G3 X68.6131 Y150.6025 I12.3 J0.0
G1 F300.0 X69.7549 Y150.9719
G3 F1400.0 X80.3158 Y143.289 I10.5609 J3.4171
G1 X149.3535
G3 X147.4 Y137.0 I9.1465 J-6.289
G1 Y124.2292
G3 X152.3761 Y114.9714 I11.1 J0.0
G3 X158.6238 Y110.5238 I9.1648 J6.2623
G1 Y109.1
G1 X152.0
G3 X140.9 Y98.0 I0.0 J-11.1
G1 Y64.137
G3 X138.9 Y57.7809 I9.1 J-6.3561
G1 Y25.0
G3 X139.2636 Y22.1822 I11.1 J0.0
G1 X63.1966
G1 X60.1738 Y25.205
G1 Y89.8476
G3 X59.1341 Y94.538 I-11.1 J0.0
G1 X26.0385 Y165.5247
G1 X58.1742 Y180.5095
G1 X69.2158 Y156.8304
G1 Y154.389
G3 X69.7549 Y150.9719 I11.1 J0.0
G1 F300.0 X70.8966 Y151.3413
G3 F1400.0 X80.3158 Y144.489 I9.4192 J3.0477
G1 X151.6766
G3 X151.4004 Y143.8997 I8.8215 J-4.4934
G3 X148.6 Y137.0 I7.0996 J-6.8997
G1 Y124.2292
G3 X153.2362 Y115.8445 I9.9 J0.0
G3 X159.8238 Y111.4837 I8.3047 J5.3891
G1 Y107.9
G1 X152.0
G3 X142.1 Y98.0 I0.0 J-9.9
G1 Y63.7475
G3 X140.1 Y57.7809 I7.9 J-5.9666
G1 Y25.0
G3 X140.9519 Y20.9822 I9.9 J0.0
G1 X62.6995
G1 X58.9738 Y24.7079
G1 Y89.8476
G3 X58.0465 Y94.0309 I-9.9 J0.0
G1 X24.4439 Y166.1051
G1 X58.7546 Y182.1042
G1 X70.4158 Y157.0964
G1 Y154.389
G3 X70.8966 Y151.3413 I9.9 J0.0
G1 F300.0 X72.0383 Y151.7107
G3 F1400.0 X80.3158 Y145.689 I8.2775 J2.6783
G1 X153.9197
G3 X152.418 Y143.2209 I6.5783 J-5.6934
G3 X149.8 Y137.0 I6.082 J-6.2209
G1 Y124.2292
G3 X154.1016 Y116.723 I8.7 J0.0
G3 X161.0238 Y112.549 I7.4393 J4.5107
G1 Y106.7
G1 X152.0
G3 X143.3 Y98.0 I0.0 J-8.7
G1 Y63.3307
G3 X141.3 Y57.7809 I6.7 J-5.5498
G1 Y25.0
G3 X143.0384 Y19.7822 I8.7 J0.0
G1 X62.2025
G1 X57.7738 Y24.2109
G1 Y89.8476
G3 X56.9589 Y93.5238 I-8.7 J0.0
G1 X22.8493 Y166.6856
G1 X59.335 Y183.6989
G1 X71.6158 Y157.3625
G1 Y154.389
G3 X72.0383 Y151.7107 I8.7 J0.0
G1 F300.0 X73.18 Y152.0801
G3 F1400.0 X80.3158 Y146.889 I7.1358 J2.3089
G1 X157.5434
G3 X153.4421 Y142.5378 I2.9547 J-6.8934
G3 X151.0 Y137.0 I5.0579 J-5.5378
G1 Y124.2292
G3 X154.9747 Y117.6093 I7.5 J0.0
G3 X161.5401 Y113.7336 I6.5662 J3.6243
G1 X162.2238
G1 Y105.5
G1 X152.0
G3 X144.5 Y98.0 I0.0 J-7.5
G1 Y62.8799
G3 X142.5 Y57.7809 I5.5 J-5.099
G1 Y25.0
G3 X146.119 Y18.5822 I7.5 J0.0
G1 X61.7054
G1 X56.5738 Y23.7138
G1 Y89.8476
G3 X55.8713 Y93.0168 I-7.5 J0.0
G1 X21.2546 Y167.2661
G1 X59.9155 Y185.2936
G1 X72.8158 Y157.6285
G1 Y154.389
G3 X73.18 Y152.0801 I7.5 J0.0
G1 F300.0 X74.3218 Y152.4496
G3 F1400.0 X80.3158 Y148.089 I5.994 J1.9394
G1 X163.4238
G1 Y146.2958
G1 X160.4974 Y146.2956
G3 X154.4765 Y141.8479 I0.0006 J-6.3
G3 X152.2 Y137.0 I4.0235 J-4.8479
G1 Y124.2292
G3 X155.8607 Y118.5087 I6.3 J0.0
G3 X161.5403 Y114.9336 I5.6802 J2.7249
G1 X163.4238 Y114.9335
G1 Y104.3
G1 X152.0
G3 X145.7 Y98.0 I0.0 J-6.3
G1 Y62.3852
G3 X143.7 Y57.7809 I4.3 J-4.6043
G1 Y25.0
G3 X150.0 Y18.7 I6.3 J0.0
G1 X163.4238
G1 Y17.3822
G1 X61.2083
G1 X55.3738 Y23.2167
G1 Y89.8476
G3 X54.7837 Y92.5097 I-6.3 J0.0
G1 X19.66 Y167.8465
G1 X60.4959 Y186.8883
G1 X74.0158 Y157.8945
G1 Y154.389
G3 X74.3218 Y152.4496 I6.3 J0.0
G1 F300.0 X75.4635 Y152.819
G3 F1400.0 X80.3158 Y149.289 I4.8523 J1.57
G1 X164.4244
G1 X164.6238 Y149.088
G1 Y145.096
G1 X160.4976 Y145.0956
G3 X155.5294 Y141.1456 I0.0005 J-5.1
G3 X153.4 Y137.0 I2.9706 J-4.1456
G1 Y124.2292
G3 X156.7699 Y119.4316 I5.1 J0.0
G3 X161.5404 Y116.1336 I4.771 J1.802
G1 X164.6238 Y116.1333
G1 Y103.1
G1 X152.0
G3 X146.9 Y98.0 I0.0 J-5.1
G1 Y61.8306
G3 X144.9 Y57.7809 I3.1 J-4.0497
G1 Y25.0
G3 X150.0 Y19.9 I5.1 J0.0
G1 X164.6238
G1 Y16.3697
G1 X164.4363 Y16.1822
G1 X60.7113
G1 X54.1738 Y22.7197
G1 Y89.8476
G3 X53.6961 Y92.0026 I-5.1 J0.0
G1 X18.1444 Y168.2575
G1 X18.2347 Y168.506
G1 X60.9065 Y188.4038
G1 X61.1556 Y188.313
G1 X75.2158 Y158.1606
G1 Y154.389
G3 X75.4635 Y152.819 I5.1 J0.0
G1 F300.0 X76.6052 Y153.1884
G3 F1400.0 X80.3158 Y150.489 I3.7106 J1.2006
G1 X164.9243
G1 X165.8238 Y149.5823
G1 Y143.8961
G1 X160.4977 Y143.8956
G3 X156.621 Y140.4175 I0.0004 J-3.9
G3 X154.6 Y137.0 I1.879 J-3.4175
G1 Y124.2292
G3 X157.7297 Y120.406 I3.9 J0.0
G3 X161.5405 Y117.3336 I3.8112 J0.8276
G1 X165.8238 Y117.3332
G1 Y101.7757
G3 X164.847 Y101.9 I-0.9768 J-3.7757
G1 X152.0
G3 X148.1 Y98.0 I0.0 J-3.9
G1 Y61.1868
G3 X146.1 Y57.7809 I1.9 J-3.4059
G1 Y25.0
G3 X150.0 Y21.1 I3.9 J0.0
G1 X165.8238
G1 Y15.8726
G1 X164.9334 Y14.9822
G1 X60.2142
G1 X52.9738 Y22.2226
G1 Y89.8476
G3 X52.6085 Y91.4956 I-3.9 J0.0
G1 X16.8469 Y168.2007
G1 X17.2769 Y169.3834
G1 X60.85 Y189.7015
G1 X62.0332 Y189.2705
G1 X76.4158 Y158.4266
G1 Y154.389
G3 X76.6052 Y153.1884 I3.9 J0.0
G1 F300.0 X77.7469 Y153.5578
G3 F1400.0 X80.3158 Y151.689 I2.5689 J0.8312
G1 X165.4241
G1 X167.0238 Y150.0765
G1 Y142.6962
G1 X160.4978 Y142.6956
G3 X157.7981 Y139.9938 I0.0003 J-2.7
G1 X157.7983 Y139.6072
G3 X155.8 Y137.0 I0.7017 J-2.6072
G1 Y124.2292
G3 X158.5 Y121.5292 I2.7 J0.0
G1 X158.8411
G1 X158.8409 Y121.2354
G3 X161.5406 Y118.5336 I2.7 J-0.0017
G1 X167.0238 Y118.5331
G1 Y99.5974
G3 X164.847 Y100.7 I-2.1768 J-1.5974
G1 X152.0
G3 X149.3 Y98.0 I0.0 J-2.7
G1 Y60.3886
G3 X147.3 Y57.7809 I0.7 J-2.6077
G1 Y25.0
G3 X150.0 Y22.3 I2.7 J0.0
G1 X167.0238
G1 Y15.3756
G1 X165.4304 Y13.7822
G1 X59.7172
G1 X51.7738 Y21.7256
G1 Y89.8476
G3 X51.5209 Y90.9885 I-2.7 J0.0
G1 X15.5493 Y168.1439
G1 X16.3191 Y170.2608
G1 X60.7935 Y190.9992
G1 X62.9108 Y190.228
G1 X77.6158 Y158.6926
G1 Y154.389
G3 X77.7469 Y153.5578 I2.7 J0.0
G1 F300.0 X78.8886 Y153.9272
G3 F1400.0 X80.3158 Y152.889 I1.4272 J0.4618
G1 X165.924
G1 X168.2238 Y150.5708
G1 Y141.4963
G1 X160.4979 Y141.4956
G3 X158.9981 Y139.9946 I0.0001 J-1.5
G1 X158.999 Y138.5
G1 X158.5
G3 X157.0 Y137.0 I0.0 J-1.5
G1 Y124.2292
G3 X158.5 Y122.7292 I1.5 J0.0
G1 X160.0418
G1 X160.0409 Y121.2346
G3 X161.5407 Y119.7336 I1.5 J-0.001
G1 X168.2238 Y119.733
G1 Y87.5
G1 X166.347
G1 Y98.0
G3 X164.847 Y99.5 I-1.5 J0.0
G1 X152.0
G3 X150.5 Y98.0 I0.0 J-1.5
G1 Y59.2809
G1 X150.0
G3 X148.5 Y57.7809 I0.0 J-1.5
G1 Y25.0
G3 X150.0 Y23.5 I1.5 J0.0
G1 X168.2238
G1 Y14.8785
G1 X165.9275 Y12.5822
G1 X59.2201
G1 X50.5738 Y21.2285
G1 Y89.8476
G3 X50.4333 Y90.4814 I-1.5 J0.0
G1 X14.2518 Y168.0871
G1 X15.3613 Y171.1383
G1 X60.737 Y192.2969
G1 X63.7883 Y191.1855
G1 X78.8158 Y158.9587
G1 Y154.389
G3 X78.8886 Y153.9272 I1.5 J0.0
G0 Z3.0
G0 X50.0481 Y257.8164
G0 Z1.0
G1 F300.0 Z-5.0
G1 F1400.0 X48.3635 Y258.6019
G1 X53.7707 Y270.2
G3 X52.4486 Y262.9645 I26.5451 J-8.589
G1 X50.0481 Y257.8164
G0 Z3.0
G0 X99.4107 Y313.511
G0 Z1.0
G1 F300.0 Z-5.0
G3 F1400.0 X100.115 Y316.7502 I-50.3369 J12.6414
G3 X100.2945 Y313.511 I51.885 J1.2498
G1 X99.4107
G1 F300.0 Y312.311
G1 F1400.0 X97.8478
G3 X99.7738 Y326.1524 I-48.774 J13.8414
G1 Y351.304
G3 X101.3 Y344.1195 I50.2262 J6.9151
G1 Y318.0
G3 X101.6202 Y312.311 I50.7 J0.0
G1 X99.4107
G1 F300.0 Y311.111
G1 F1400.0 X96.2332
G3 X98.5738 Y326.1524 I-47.1594 J15.0414
G1 Y355.4178
G1 X100.5793
G3 X102.5 Y344.2907 I49.4207 J2.8013
G1 Y318.0
G3 X102.9817 Y311.111 I49.5 J0.0
G1 X99.4107
G1 F300.0 Y309.911
G1 F1400.0 X94.5612
G3 X97.3738 Y326.1524 I-45.4874 J16.2414
G1 Y356.6178
G1 X101.7266
G3 X103.7 Y344.4641 I48.2734 J1.6013
G1 Y318.0
G3 X104.3822 Y309.911 I48.3 J0.0
G1 X99.4107
G1 F300.0 Y308.711
G1 F1400.0 X92.8255
G3 X96.1738 Y326.1524 I-43.7517 J17.4414
G1 Y357.8178
G1 X102.9017
G3 X104.9 Y344.6397 I47.0983 J0.4013
G1 Y318.0
G3 X105.8251 Y308.711 I47.1 J0.0
G1 X99.4107
G1 F300.0 Y307.511
G1 F1400.0 X91.0179
G3 X94.9738 Y326.1524 I-41.9441 J18.6414
G1 Y359.0178
G1 X104.1
G1 Y358.2191
G3 X106.1 Y344.8176 I45.9 J0.0
G1 Y318.0
G3 X107.3145 Y307.511 I45.9 J0.0
G1 X99.4107
G1 F300.0 Y306.311
G1 F1400.0 X89.1427
G1 X89.5871 Y307.2642
G3 X93.7738 Y326.1524 I-40.5133 J18.8882
G1 Y360.2178
G1 X105.3
G1 Y358.2191
G3 X107.3 Y344.9979 I44.7 J0.0
G1 Y318.0
G3 X108.8554 Y306.311 I44.7 J0.0
G1 X99.4107
G1 F300.0 Y305.111
G1 F1400.0 X87.2592
G1 X88.4995 Y307.7713
G3 X92.5738 Y326.1524 I-39.4257 J18.3811
G1 Y361.4178
G1 X106.5
G1 Y358.2191
G3 X108.5 Y345.1807 I43.5 J0.0
G1 Y318.0
G3 X110.4534 Y305.111 I43.5 J0.0
G1 X99.4107
G1 F300.0 Y303.911
G1 F1400.0 X85.3757
G1 X87.4119 Y308.2783
G3 X91.3738 Y326.1524 I-38.3381 J17.8741
G1 Y362.6178
G1 X107.7
G1 Y358.2191
G3 X109.7 Y345.3661 I42.3 J0.0
G1 Y318.0
G3 X112.1153 Y303.911 I42.3 J0.0
G1 X99.4107
G1 F300.0 Y302.711
G1 F1400.0 X83.4922
G1 X86.3243 Y308.7854
G3 X90.1738 Y326.1524 I-37.2505 J17.367
G1 Y363.8178
G1 X108.9
G1 Y358.2191
G3 X110.9 Y345.5542 I41.1 J0.0
G1 Y318.0
G3 X113.8496 Y302.711 I41.1 J0.0
G1 X99.4107
G1 F300.0 Y301.511
G1 F1400.0 X81.6088
G1 X85.2367 Y309.2925
G3 X88.9738 Y326.1524 I-36.1629 J16.8599
G1 Y365.0178
G1 X110.1
G1 Y358.2191
G3 X112.1 Y345.7451 I39.9 J0.0
G1 Y318.0
G3 X115.6665 Y301.511 I39.9 J0.0
G1 X99.4107
G1 F300.0 Y300.311
G1 F1400.0 X80.3158
G3 X79.7232 Y300.3065 I0.0 J-38.7
G1 X84.1491 Y309.7995
G3 X87.7738 Y326.1524 I-35.0753 J16.3529
G1 Y366.2178
G1 X111.3
G1 Y358.2191
G3 X113.3 Y345.9391 I38.7 J0.0
G1 Y318.0
G3 X117.5792 Y300.311 I38.7 J0.0
G1 X99.4107
G1 F300.0 Y299.111
G1 F1400.0 X80.3158
G3 X77.8025 Y299.0267 I0.0 J-37.5
G1 X83.0614 Y310.3066
G3 X86.5738 Y326.1524 I-33.9876 J15.8458
G1 Y367.4178
G1 X112.5
G1 Y358.2191
G3 X114.5 Y346.1361 I37.5 J0.0
G1 Y318.0
G3 X119.6047 Y299.111 I37.5 J0.0
G1 X99.4107
G1 F300.0 Y297.911
G1 F1400.0 X80.3158
G3 X75.8285 Y297.6326 I0.0 J-36.3
G1 X81.9738 Y310.8137
G3 X85.3738 Y326.1524 I-32.9 J15.3387
G1 Y368.6178
G1 X113.7
G1 Y358.2191
G3 X115.7 Y346.3364 I36.3 J0.0
G1 Y318.0
G3 X121.7655 Y297.911 I36.3 J0.0
G1 X99.4107
G1 F300.0 Y296.711
G1 F1400.0 X80.3158
G3 X73.7895 Y296.0989 I0.0 J-35.1
G1 X80.8862 Y311.3207
G3 X84.1738 Y326.1524 I-31.8124 J14.8317
G1 Y369.8178
G1 X114.9
G1 Y358.2191
G3 X116.9 Y346.5401 I35.1 J0.0
G1 Y318.0
G3 X123.8059 Y297.0931 I35.1 J0.0
G3 X123.7494 Y296.711 I34.6941 J-5.3223
G1 X99.4107
G1 F300.0 Y295.511
G1 F1400.0 X80.3158
G3 X71.6685 Y294.3896 I0.0 J-33.9
G1 X79.7986 Y311.8278
G3 X82.9738 Y326.1524 I-30.7248 J14.3246
G1 Y371.0178
G1 X116.1
G1 Y358.2191
G3 X118.1 Y346.7474 I33.9 J0.0
G1 Y318.0
G3 X125.0718 Y297.4068 I33.9 J0.0
G3 X124.807 Y295.511 I33.4282 J-5.636
G1 X99.4107
G1 F300.0 Y294.311
G1 F1400.0 X80.3158
G3 X69.44 Y292.4494 I0.0 J-32.7
G1 X78.711 Y312.3349
G3 X81.7738 Y326.1524 I-29.6372 J13.8175
G1 Y372.2178
G1 X117.3
G1 Y358.2191
G3 X119.3 Y346.9586 I32.7 J0.0
G1 Y318.0
G3 X126.3462 Y297.7226 I32.7 J0.0
G3 X125.8988 Y294.311 I32.1538 J-5.9518
G1 X99.4107
G1 F300.0 Y293.111
G1 F1400.0 X80.3158
G3 X67.061 Y290.1865 I0.0 J-31.5
G1 X77.6234 Y312.8419
G3 X80.5738 Y326.1524 I-28.5496 J13.3105
G1 Y373.4178
G1 X118.5
G1 Y358.2191
G3 X120.5 Y347.1738 I31.5 J0.0
G1 Y318.0
G3 X127.6303 Y298.0408 I31.5 J0.0
G3 X127.0285 Y293.111 I30.8697 J-6.27
G1 X99.4107
G1 F300.0 Y291.911
G1 F1400.0 X80.3158
G3 X64.4493 Y287.4246 I0.0 J-30.3
G1 X76.5358 Y313.349
G3 X79.3738 Y326.1524 I-27.462 J12.8034
G1 Y374.6178
G1 X119.7
G1 Y358.2191
G3 X121.7 Y347.3932 I30.3 J0.0
G1 Y318.0
G3 X128.9255 Y298.3618 I30.3 J0.0
G3 X128.2003 Y291.911 I29.5745 J-6.591
G1 X99.4107
G1 F300.0 Y290.711
G1 F1400.0 X80.3158
G3 X61.4003 Y283.7246 I0.0 J-29.1
G1 X75.4482 Y313.8561
G3 X78.1738 Y326.1524 I-26.3744 J12.2963
G1 Y375.8178
G1 X120.9
G1 Y358.2191
G3 X122.9 Y347.6172 I29.1 J0.0
G1 Y318.0
G3 X130.2336 Y298.6859 I29.1 J0.0
G3 X129.4 Y291.7708 I28.2664 J-6.9151
G1 Y290.711
G1 X99.4107
G1 F300.0 Y289.511
G1 F1400.0 X80.3158
G3 X56.6714 Y276.4215 I0.0 J-27.9
G1 X74.3606 Y314.3631
G3 X76.9738 Y326.1524 I-25.2868 J11.7893
G1 Y377.0178
G1 X122.1
G1 Y358.2191
G3 X124.1 Y347.8461 I27.9 J0.0
G1 Y318.0
G3 X131.5566 Y299.0138 I27.9 J0.0
G3 X130.6 Y291.7708 I26.9434 J-7.243
G1 Y289.511
G1 X99.4107
G1 F300.0 Y288.311
G1 F1400.0 X80.3158
G3 X53.6369 Y262.6733 I0.0 J-26.7
G1 X50.6285 Y256.2217
G1 X46.7688 Y258.0215
G1 X73.273 Y314.8702
G3 X75.7738 Y326.1524 I-24.1992 J11.2822
G1 Y378.2178
G1 X123.3
G1 Y358.2191
G3 X125.3 Y348.0801 I26.7 J0.0
G1 Y318.0
G3 X132.8971 Y299.346 I26.7 J0.0
G3 X131.8 Y291.7708 I25.6029 J-7.5752
G1 Y288.311
G1 X99.4107
G1 F300.0 Y287.111
G1 F1400.0 X80.3158
G3 X54.8276 Y262.3873 I0.0 J-25.5
G1 X51.209 Y254.627
G1 X45.1742 Y257.441
G1 X72.1854 Y315.3772
G3 X74.5738 Y326.1524 I-23.1116 J10.7752
G1 Y379.4178
G1 X124.5
G1 Y358.2191
G3 X126.5 Y348.3196 I25.5 J0.0
G1 Y318.0
G3 X134.2587 Y299.6834 I25.5 J0.0
G3 X133.0 Y291.7708 I24.2413 J-7.9126
G1 Y287.111
G1 X99.4107
G1 F300.0 Y285.911
G1 F1400.0 X80.3158
G3 X56.0209 Y262.1068 I0.0 J-24.3
G1 X51.7894 Y253.0323
G1 X43.5796 Y256.8605
G1 X71.0978 Y315.8843
G3 X73.3738 Y326.1524 I-22.024 J10.2681
G1 Y380.6178
G1 X125.7
G1 Y358.2191
G3 X127.7 Y348.5651 I24.3 J0.0
G1 Y318.0
G3 X135.6456 Y300.0271 I24.3 J0.0
G3 X134.2 Y291.7708 I22.8544 J-8.2563
G1 Y285.911
G1 X99.4107
G1 F300.0 Y284.711
G1 F1400.0 X80.3158
G3 X57.2169 Y261.8322 I0.0 J-23.1
G1 X52.3698 Y251.4376
G1 X41.9849 Y256.2801
G1 X70.0102 Y316.3914
G3 X72.1738 Y326.1524 I-20.9364 J9.761
G1 Y381.8178
G1 X126.9
G1 Y358.2191
G3 X128.9 Y348.817 I23.1 J0.0
G1 Y318.0
G3 X137.0637 Y300.3785 I23.1 J0.0
G3 X135.4 Y291.7708 I21.4363 J-8.6077
G1 Y284.711
G1 X99.4107
G1 F300.0 Y283.511
G1 F1400.0 X80.3158
G3 X58.4158 Y261.611 I0.0 J-21.9
G1 Y261.5639
G1 X52.9503 Y249.8429
G1 X40.3903 Y255.6996
G1 X68.9226 Y316.8984
G3 X70.9738 Y326.1524 I-19.8488 J9.254
G1 Y383.0178
G1 X128.1
G1 Y358.2191
G3 X130.1 Y349.0758 I21.9 J0.0
G1 Y318.0
G3 X138.5208 Y300.7396 I21.9 J0.0
G3 X136.6 Y291.7708 I19.9792 J-8.9688
G1 Y283.511
G1 X99.4107
G1 F300.0 Y282.311
G1 F1400.0 X80.3158
G3 X59.6158 Y261.611 I0.0 J-20.7
G1 Y261.2978
G1 X53.5307 Y248.2482
G1 X38.7957 Y255.1191
G1 X67.835 Y317.4055
G3 X69.7738 Y326.1524 I-18.7612 J8.7469
G1 Y384.2178
G1 X129.3
G1 Y358.2191
G3 X131.3 Y349.3422 I20.7 J0.0
G1 Y318.0
G3 X140.0281 Y301.1132 I20.7 J0.0
G3 X137.8 Y291.7708 I18.4719 J-9.3424
G1 Y282.311
G1 X99.4107
G1 F300.0 Y281.111
G1 F1400.0 X80.3158
G3 X60.8158 Y261.611 I0.0 J-19.5
G1 Y261.0318
G1 X54.1111 Y246.6535
G1 X37.201 Y254.5386
G1 X66.7474 Y317.9126
G3 X68.5738 Y326.1524 I-17.6736 J8.2398
G1 Y385.4178
G1 X130.5
G1 Y358.2191
G3 X132.5 Y349.6168 I19.5 J0.0
G1 Y318.0
G3 X141.6024 Y301.5033 I19.5 J0.0
G3 X139.0 Y291.7708 I16.8976 J-9.7325
G1 Y281.111
G1 X99.4107
G1 F300.0 Y279.911
G1 F1400.0 X80.3158
G3 X62.0158 Y261.611 I0.0 J-18.3
G1 Y260.7658
G1 X54.6916 Y245.0588
G1 X35.6064 Y253.9582
G1 X65.6598 Y318.4196
G3 X67.3738 Y326.1524 I-16.586 J7.7328
G1 Y386.6178
G1 X131.7
G1 Y358.2191
G3 X133.7 Y349.9005 I18.3 J0.0
G1 Y318.0
G3 X143.27 Y301.9166 I18.3 J0.0
G3 X140.2 Y291.7708 I15.23 J-10.1458
G1 Y279.911
G1 X99.4107
G1 F300.0 Y278.711
G1 F1400.0 X80.3158
G3 X63.2158 Y261.611 I0.0 J-17.1
G1 Y260.4997
G1 X55.272 Y243.4641
G1 X34.0117 Y253.3777
G1 X64.5722 Y318.9267
G3 X66.1738 Y326.1524 I-15.4984 J7.2257
G1 Y387.8178
G1 X132.9
G1 Y358.2191
G3 X134.9 Y350.1942 I17.1 J0.0
G1 Y318.0
G3 X145.0766 Y302.3643 I17.1 J0.0
G3 X141.4 Y291.7708 I13.4234 J-10.5935
G1 Y279.0
G3 X141.4024 Y278.711 I17.1 J0.0
G1 X99.4107
G1 F300.0 Y277.511
G1 F1400.0 X80.3158
G3 X64.4158 Y261.611 I0.0 J-15.9
G1 Y260.2337
G1 X55.8524 Y241.8694
G1 X32.4171 Y252.7972
G1 X63.4846 Y319.4338
G3 X64.9738 Y326.1524 I-14.4108 J6.7186
G1 Y388.8068
G1 X65.1848 Y389.0178
G1 X134.1
G1 Y358.2191
G3 X136.1 Y350.499 I15.9 J0.0
G1 Y318.0
G3 X147.1143 Y302.8692 I15.9 J0.0
G3 X142.6 Y291.7708 I11.3857 J-11.0984
G1 Y279.0
G3 X142.6699 Y277.511 I15.9 J0.0
G1 X99.4107
G1 F300.0 Y276.311
G1 F1400.0 X80.3158
G3 X65.6158 Y261.611 I0.0 J-14.7
G1 Y259.9677
G1 X56.4329 Y240.2747
G1 X30.8225 Y252.2168
G1 X62.397 Y319.9408
G3 X63.7738 Y326.1524 I-13.3232 J6.2116
G1 Y389.3039
G1 X64.6877 Y390.2178
G1 X135.3
G1 Y358.2191
G3 X137.3 Y350.8164 I14.7 J0.0
G1 Y318.0
G3 X149.6291 Y303.4925 I14.7 J0.0
G3 X143.8 Y291.7708 I8.8709 J-11.7217
G1 Y279.0
G3 X144.048 Y276.311 I14.7 J0.0
G1 X99.4107
G1 F300.0 Y275.111
G1 F1400.0 X80.3158
G3 X66.8158 Y261.611 I0.0 J-13.5
G1 Y259.7017
G1 X57.0133 Y238.6799
G1 X29.2278 Y251.6363
G1 X61.3094 Y320.4479
G3 X62.5738 Y326.1524 I-12.2356 J5.7045
G1 Y389.8009
G1 X64.1907 Y391.4178
G1 X136.5065
G3 X136.5 Y391.0 I13.4935 J-0.4178
G1 Y358.2191
G3 X138.5 Y351.1481 I13.5 J0.0
G1 Y318.0
G3 X152.0 Y304.5 I13.5 J0.0
G1 X152.1864
G3 X150.6656 Y302.765 I9.3545 J-9.7336
G3 X145.0 Y291.7708 I7.8344 J-10.9942
G1 Y279.0
G3 X145.5723 Y275.111 I13.5 J0.0
G1 X99.4107
G1 F300.0 Y273.911
G1 F1400.0 X80.3158
G3 X68.0158 Y261.611 I0.0 J-12.3
G1 Y259.4356
G1 X57.5937 Y237.0852
G1 X27.6332 Y251.0558
G1 X60.2217 Y320.955
G3 X61.3738 Y326.1524 I-11.1479 J5.1974
G1 Y390.298
G1 X63.6936 Y392.6178
G1 X137.8069
G3 X137.7 Y391.0 I12.1931 J-1.6178
G1 Y358.2191
G3 X139.7 Y351.496 I12.3 J0.0
G1 Y318.0
G3 X152.0 Y305.7 I12.3 J0.0
G1 X155.9066
G3 X151.5195 Y301.8981 I5.6343 J-10.9336
G3 X146.2 Y291.7708 I6.9805 J-10.1273
G1 Y279.0
G3 X147.3021 Y273.911 I12.3 J0.0
G1 X99.4107
G1 F300.0 Y272.711
G1 F1400.0 X80.3158
G3 X69.2158 Y261.611 I0.0 J-11.1
G1 Y259.1696
G1 X58.1742 Y235.4905
G1 X26.0385 Y250.4753
G1 X59.1341 Y321.462
G3 X60.1738 Y326.1524 I-10.0603 J4.6904
G1 Y390.795
G1 X63.1966 Y393.8178
G1 X139.2636
G3 X138.9 Y391.0 I10.7364 J-2.8178
G1 Y358.2191
G3 X140.9 Y351.863 I11.1 J0.0
G1 Y318.0
G3 X152.0 Y306.9 I11.1 J0.0
G1 X158.6238
G1 Y305.4762
G3 X152.3761 Y301.0286 I2.9171 J-10.7098
G3 X147.4 Y291.7708 I6.1239 J-9.2578
G1 Y279.0
G3 X149.3535 Y272.711 I11.1 J0.0
G1 X99.4107
G1 F300.0 Y271.511
G1 F1400.0 X80.3158
G3 X70.4158 Y261.611 I0.0 J-9.9
G1 Y258.9036
G1 X58.7546 Y233.8958
G1 X24.4439 Y249.8949
G1 X58.0465 Y321.9691
G3 X58.9738 Y326.1524 I-8.9727 J4.1833
G1 Y391.2921
G1 X62.6995 Y395.0178
G1 X140.9519
G3 X140.1 Y391.0 I9.0481 J-4.0178
G1 Y358.2191
G3 X142.1 Y352.2525 I9.9 J0.0
G1 Y318.0
G3 X152.0 Y308.1 I9.9 J0.0
G1 X159.8238
G1 Y304.5163
G3 X153.2362 Y300.1555 I1.7171 J-9.75
G3 X148.6 Y291.7708 I5.2638 J-8.3847
G1 Y279.0
G3 X151.4004 Y272.1003 I9.9 J0.0
G3 X151.6766 Y271.511 I9.0977 J3.9041
G1 X99.4107
G1 F300.0 Y270.311
G1 F1400.0 X80.3158
G3 X71.6158 Y261.611 I0.0 J-8.7
G1 Y258.6375
G1 X59.335 Y232.3011
G1 X22.8493 Y249.3144
G1 X56.9589 Y322.4762
G3 X57.7738 Y326.1524 I-7.8851 J3.6762
G1 Y391.7891
G1 X62.2025 Y396.2178
G1 X143.0384
G3 X141.3 Y391.0 I6.9616 J-5.2178
G1 Y358.2191
G3 X143.3 Y352.6693 I8.7 J0.0
G1 Y318.0
G3 X152.0 Y309.3 I8.7 J0.0
G1 X161.0238
G1 Y303.451
G3 X154.1016 Y299.277 I0.5171 J-8.6846
G3 X149.8 Y291.7708 I4.3984 J-7.5062
G1 Y279.0
G3 X152.418 Y272.7791 I8.7 J0.0
G3 X153.9197 Y270.311 I8.08 J3.2254
G1 X99.4107
G1 F300.0 Y269.111
G1 F1400.0 X80.3158
G3 X72.8158 Y261.611 I0.0 J-7.5
G1 Y258.3715
G1 X59.9155 Y230.7064
G1 X21.2546 Y248.7339
G1 X55.8713 Y322.9832
G3 X56.5738 Y326.1524 I-6.7975 J3.1692
G1 Y392.2862
G1 X61.7054 Y397.4178
G1 X146.119
G3 X142.5 Y391.0 I3.881 J-6.4178
G1 Y358.2191
G3 X144.5 Y353.1201 I7.5 J0.0
G1 Y318.0
G3 X152.0 Y310.5 I7.5 J0.0
G1 X162.2238
G1 Y302.2664
G1 X161.5401
G3 X154.9747 Y298.3907 I0.0007 J-7.5
G3 X151.0 Y291.7708 I3.5253 J-6.6199
G1 Y279.0
G3 X153.4421 Y273.4622 I7.5 J0.0
G3 X157.5434 Y269.111 I7.056 J2.5423
G1 X99.4107
G1 F300.0 Y267.911
G1 F1400.0 X80.3158
G3 X74.0158 Y261.611 I0.0 J-6.3
G1 Y258.1055
G1 X60.4959 Y229.1117
G1 X19.66 Y248.1535
G1 X54.7837 Y323.4903
G3 X55.3738 Y326.1524 I-5.7099 J2.6621
G1 Y392.7833
G1 X61.2083 Y398.6178
G1 X163.4238
G1 Y397.3
G1 X150.0
G3 X143.7 Y391.0 I0.0 J-6.3
G1 Y358.2191
G3 X145.7 Y353.6148 I6.3 J0.0
G1 Y318.0
G3 X152.0 Y311.7 I6.3 J0.0
G1 X163.4238
G1 Y301.0665
G1 X161.5403 Y301.0664
G3 X155.8607 Y297.4913 I0.0006 J-6.3
G3 X152.2 Y291.7708 I2.6393 J-5.7205
G1 Y279.0
G3 X154.4765 Y274.1521 I6.3 J0.0
G3 X160.4974 Y269.7044 I6.0215 J1.8523
G1 X163.4238 Y269.7042
G1 Y267.911
G1 X99.4107
G1 F300.0 Y266.711
G1 F1400.0 X80.3158
G3 X75.2158 Y261.611 I0.0 J-5.1
G1 Y257.8394
G1 X61.1556 Y227.687
G1 X60.9065 Y227.5962
G1 X18.2347 Y247.494
G1 X18.1444 Y247.7425
G1 X53.6961 Y323.9974
G3 X54.1738 Y326.1524 I-4.6223 J2.155
G1 Y393.2803
G1 X60.7113 Y399.8178
G1 X164.4363
G1 X164.6238 Y399.6303
G1 Y396.1
G1 X150.0
G3 X144.9 Y391.0 I0.0 J-5.1
G1 Y358.2191
G3 X146.9 Y354.1694 I5.1 J0.0
G1 Y318.0
G3 X152.0 Y312.9 I5.1 J0.0
G1 X164.6238
G1 Y299.8667
G1 X161.5404 Y299.8664
G3 X156.7699 Y296.5684 I0.0005 J-5.1
G3 X153.4 Y291.7708 I1.7301 J-4.7976
G1 Y279.0
G3 X155.5294 Y274.8544 I5.1 J0.0
G3 X160.4976 Y270.9044 I4.9686 J1.15
G1 X164.6238 Y270.904
G1 Y266.912
G1 X164.4244 Y266.711
G1 X99.4107
G1 F300.0 Y265.511
G1 F1400.0 X80.3158
G3 X76.4158 Y261.611 I0.0 J-3.9
G1 Y257.5734
G1 X62.0332 Y226.7295
G1 X60.85 Y226.2985
G1 X17.2769 Y246.6166
G1 X16.8469 Y247.7993
G1 X52.6085 Y324.5044
G3 X52.9738 Y326.1524 I-3.5347 J1.648
G1 Y393.7774
G1 X60.2142 Y401.0178
G1 X164.9334
G1 X165.8238 Y400.1274
G1 Y394.9
G1 X150.0
G3 X146.1 Y391.0 I0.0 J-3.9
G1 Y358.2191
G3 X148.1 Y354.8132 I3.9 J0.0
G1 Y318.0
G3 X152.0 Y314.1 I3.9 J0.0
G1 X164.847
G3 X165.8238 Y314.2243 I0.0 J3.9
G1 Y298.6668
G1 X161.5405 Y298.6664
G3 X157.7297 Y295.594 I0.0004 J-3.9
G3 X154.6 Y291.7708 I0.7703 J-3.8232
G1 Y279.0
G3 X156.621 Y275.5825 I3.9 J0.0
G3 X160.4977 Y272.1044 I3.8771 J0.4219
G1 X165.8238 Y272.1039
G1 Y266.4177
G1 X164.9243 Y265.511
G1 X99.4107
G1 F300.0 Y264.311
G1 F1400.0 X80.3158
G3 X77.6158 Y261.611 I0.0 J-2.7
G1 Y257.3074
G1 X62.9108 Y225.772
G1 X60.7935 Y225.0008
G1 X16.3191 Y245.7392
G1 X15.5493 Y247.8561
G1 X51.5209 Y325.0115
G3 X51.7738 Y326.1524 I-2.4471 J1.1409
G1 Y394.2744
G1 X59.7172 Y402.2178
G1 X165.4304
G1 X167.0238 Y400.6244
G1 Y393.7
G1 X150.0
G3 X147.3 Y391.0 I0.0 J-2.7
G1 Y358.2191
G3 X149.3 Y355.6114 I2.7 J0.0
G1 Y318.0
G3 X152.0 Y315.3 I2.7 J0.0
G1 X164.847
G3 X167.0238 Y316.4026 I0.0 J2.7
G1 Y297.4669
G1 X161.5406 Y297.4664
G3 X158.8409 Y294.7646 I0.0003 J-2.7
G1 X158.8411 Y294.4708
G1 X158.5
G3 X155.8 Y291.7708 I0.0 J-2.7
G1 Y279.0
G3 X157.7983 Y276.3928 I2.7 J0.0
G1 X157.7981 Y276.0062
G3 X160.4978 Y273.3044 I2.7 J-0.0017
G1 X167.0238 Y273.3038
G1 Y265.9235
G1 X165.4241 Y264.311
G1 X99.4107
G1 F300.0 Y263.111
G1 F1400.0 X80.3158
G3 X78.8158 Y261.611 I0.0 J-1.5
G1 Y257.0413
G1 X63.7883 Y224.8145
G1 X60.737 Y223.7031
G1 X15.3613 Y244.8617
G1 X14.2518 Y247.9129
G1 X50.4333 Y325.5186
G3 X50.5738 Y326.1524 I-1.3595 J0.6338
G1 Y394.7715
G1 X59.2201 Y403.4178
G1 X165.9275
G1 X168.2238 Y401.1215
G1 Y392.5
G1 X150.0
G3 X148.5 Y391.0 I0.0 J-1.5
G1 Y358.2191
G3 X150.0 Y356.7191 I1.5 J0.0
G1 X150.5
G1 Y318.0
G3 X152.0 Y316.5 I1.5 J0.0
G1 X164.847
G3 X166.347 Y318.0 I0.0 J1.5
G1 Y328.5
G1 X168.2238
G1 Y296.267
G1 X161.5407 Y296.2664
G3 X160.0409 Y294.7654 I0.0001 J-1.5
G1 X160.0418 Y293.2708
G1 X158.5
G3 X157.0 Y291.7708 I0.0 J-1.5
G1 Y279.0
G3 X158.5 Y277.5 I1.5 J0.0
G1 X158.999
G1 X158.9981 Y276.0054
G3 X160.4979 Y274.5044 I1.5 J-0.001
G1 X168.2238 Y274.5037
G1 Y265.4292
G1 X165.924 Y263.111
G1 X99.4107
G0 Z3.0
G0 X339.6778 Y285.7947
G0 Z1.0
G1 F300.0 Z-5.0
G1 F1400.0 Y285.9655
G1 X340.5778
G1 Y285.7947
G1 X339.6778
G1 F300.0 X338.4778
G1 F1400.0 Y287.1655
G1 X341.7778
G1 Y284.5947
G1 X338.4778
G1 Y285.7947
G1 F300.0 X337.2778
G1 F1400.0 Y288.3655
G1 X342.9778
G1 Y283.3947
G1 X337.2778
G1 Y285.7947
G1 F300.0 X336.0778
G1 F1400.0 Y289.5655
G1 X344.1778
G1 Y282.1947
G1 X336.0778
G1 Y285.7947
G1 F300.0 X334.8778
G1 F1400.0 Y290.7655
G1 X345.3778
G1 Y280.9947
G1 X334.8778
G1 Y285.7947
G0 Z3.0
G0 X352.5778
G0 Z1.0
G1 F300.0 Z-5.0
G1 F1400.0 Y289.0051
G1 X353.1778 Y290.6051
G1 Y281.5146
G1 X352.5778 Y283.0146
G1 Y285.7947
G1 F300.0 X351.3778
G1 F1400.0 Y289.2227
G1 X354.3778 Y297.2227
G1 Y275.2835
G1 X351.3778 Y282.7835
G1 Y285.7947
G0 Z3.0
G0 X353.1778 Y332.0831
G0 Z1.0
G1 F300.0 Z-5.0
G1 F1400.0 X352.5778 Y333.1831
G1 Y340.8062
G1 X353.1778 Y341.9062
G1 Y332.0831
G1 F300.0 X354.3778
G1 F1400.0 Y327.3772
G1 X351.3778 Y332.8772
G1 Y341.1122
G1 X354.3778 Y346.6122
G1 Y332.0831
G0 Z3.0
G0 X335.0778 Y363.1013
G0 Z1.0
G1 F300.0 Z-5.0
G3 F1400.0 X334.1778 Y364.4757 I-8.2 J-4.3875
G1 Y382.1947
G1 X335.0778
G1 Y363.1013
G1 F300.0 X335.6778
G1 F1400.0 Y338.1961
G3 X335.5778 Y338.1427 I4.047 J-7.7014
G1 Y358.7138
G3 X333.5778 Y364.2636 I-8.7 J0.0
G1 Y382.7947
G1 X335.6778
G1 Y363.1013
G1 F300.0 X336.8778
G1 F1400.0 Y337.4333
G3 X334.3778 Y335.7539 I2.847 J-6.9386
G1 Y358.7138
G3 X332.3778 Y363.8128 I-7.5 J0.0
G1 Y383.9947
G1 X336.8778
G1 Y363.1013
G1 F300.0 X338.0778
G1 F1400.0 Y336.5756
G3 X333.4248 Y330.4947 I1.647 J-6.0809
G1 Y324.7947
G1 X333.1778
G1 Y358.7138
G3 X331.1778 Y363.3181 I-6.3 J0.0
G1 Y385.1947
G1 X338.0778
G1 Y363.1013
G1 F300.0 X339.2778
G1 F1400.0 Y335.575
G3 X334.6248 Y330.4947 I0.447 J-5.0804
G1 Y323.5947
G1 X331.9778
G1 Y358.7138
G3 X329.9778 Y362.7635 I-5.1 J0.0
G1 Y386.3947
G1 X339.2778
G1 Y363.1013
G1 F300.0 X340.4778
G1 F1400.0 Y334.3947
G1 X339.7248
G3 X335.8248 Y330.4947 I0.0 J-3.9
G1 Y322.3947
G1 X330.7778
G1 Y358.7138
G3 X328.7778 Y362.1197 I-3.9 J0.0
G1 Y387.5947
G1 X340.4778
G1 Y363.1013
G1 F300.0 X341.6778
G1 F1400.0 Y333.1947
G1 X339.7248
G3 X337.0248 Y330.4947 I0.0 J-2.7
G1 Y321.1947
G1 X329.5778
G1 Y358.7138
G3 X327.5778 Y361.3215 I-2.7 J0.0
G1 Y388.7947
G1 X341.6778
G1 Y363.1013
G1 F300.0 X342.8778
G1 F1400.0 Y331.9947
G1 X339.7248
G3 X338.2248 Y330.4947 I0.0 J-1.5
G1 Y319.9947
G1 X328.3778
G1 Y358.7138
G3 X326.8778 Y360.2138 I-1.5 J0.0
G1 X326.3778
G1 Y389.9947
G1 X342.8778
G1 Y363.1013
G0 Z3.0
G0 X352.8457 Y135.8282
G0 Z1.0
G1 F300.0 Z-5.0
G1 F1400.0 Y126.7378
G1 X352.2457 Y128.3378
G1 Y134.3282
G1 X352.8457 Y135.8282
G1 F300.0 X351.7315 Y136.2739
G1 F1400.0 X354.0457 Y142.0593
G1 Y120.1202
G1 X351.0457 Y128.1202
G1 Y134.5593
G1 X351.7315 Y136.2739
G0 Z3.0
G0 X340.2457 Y131.5482
G0 Z1.0
G1 F300.0 Z-5.0
G1 F1400.0 Y131.3774
G1 X339.3457
G1 Y131.5482
G1 X340.2457
G1 F300.0 X341.4457
G1 F1400.0 Y130.1774
G1 X338.1457
G1 Y132.7482
G1 X341.4457
G1 Y131.5482
G1 F300.0 X342.6457
G1 F1400.0 Y128.9774
G1 X336.9457
G1 Y133.9482
G1 X342.6457
G1 Y131.5482
G1 F300.0 X343.8457
G1 F1400.0 Y127.7774
G1 X335.7457
G1 Y135.1482
G1 X343.8457
G1 Y131.5482
G1 F300.0 X345.0457
G1 F1400.0 Y126.5774
G1 X334.5457
G1 Y136.3482
G1 X345.0457
G1 Y131.5482
G0 Z3.0
G0 X352.8457 Y85.2597
G0 Z1.0
G1 F300.0 Z-5.0
G1 F1400.0 Y75.4366
G1 X352.2457 Y76.5366
G1 Y84.1597
G1 X352.8457 Y85.2597
G1 F300.0 X351.7922 Y85.8343
G1 F1400.0 X354.0457 Y89.9657
G1 Y70.7307
G1 X351.0457 Y76.2307
G1 Y84.4657
G1 X351.7922 Y85.8343
G0 Z3.0
G0 X334.7457 Y54.2416
G0 Z1.0
G1 F300.0 Z-5.0
G1 F1400.0 Y35.1482
G1 X333.8457
G1 Y52.8671
G3 X334.7457 Y54.2416 I-7.3 J5.7619
G1 F300.0 X334.2166 Y54.5246
G3 F1400.0 X335.2457 Y58.629 I-7.671 J4.1044
G1 Y79.2001
G3 X335.3457 Y79.1467 I4.147 J7.648
G1 Y34.5482
G1 X333.2457
G1 Y53.0793
G3 X334.2166 Y54.5246 I-6.7 J5.5498
G1 F300.0 X333.1586 Y55.0907
G3 F1400.0 X334.0457 Y58.629 I-6.6129 J3.5383
G1 Y81.5889
G3 X336.5457 Y79.9095 I5.347 J5.2592
G1 Y33.3482
G1 X332.0457
G1 Y53.53
G3 X333.1586 Y55.0907 I-5.5 J5.099
G1 F300.0 X332.1005 Y55.6569
G3 F1400.0 X332.8457 Y58.629 I-5.5548 J2.9722
G1 Y92.5482
G1 X333.0927
G1 Y86.8482
G3 X337.7457 Y80.7673 I6.3 J0.0
G1 Y32.1482
G1 X330.8457
G1 Y54.0247
G3 X332.1005 Y55.6569 I-4.3 J4.6043
G1 F300.0 X331.0424 Y56.223
G3 F1400.0 X331.6457 Y58.629 I-4.4968 J2.406
G1 Y93.7482
G1 X334.2927
G1 Y86.8482
G3 X338.9457 Y81.7678 I5.1 J0.0
G1 Y30.9482
G1 X329.6457
G1 Y54.5793
G3 X331.0424 Y56.223 I-3.1 J4.0497
G1 F300.0 X329.9844 Y56.7891
G3 F1400.0 X330.4457 Y58.629 I-3.4387 J1.8399
G1 Y94.9482
G1 X335.4927
G1 Y86.8482
G3 X339.3927 Y82.9482 I3.9 J0.0
G1 X340.1457
G1 Y29.7482
G1 X328.4457
G1 Y55.2232
G3 X329.9844 Y56.7891 I-1.9 J3.4059
G1 F300.0 X328.9263 Y57.3553
G3 F1400.0 X329.2457 Y58.629 I-2.3806 J1.2738
G1 Y96.1482
G1 X336.6927
G1 Y86.8482
G3 X339.3927 Y84.1482 I2.7 J0.0
G1 X341.3457
G1 Y28.5482
G1 X327.2457
G1 Y56.0214
G3 X328.9263 Y57.3553 I-0.7 J2.6077
G1 F300.0 X327.8683 Y57.9214
G3 F1400.0 X328.0457 Y58.629 I-1.3226 J0.7077
G1 Y97.3482
G1 X337.8927
G1 Y86.8482
G3 X339.3927 Y85.3482 I1.5 J0.0
G1 X342.5457
G1 Y27.3482
G1 X326.0457
G1 Y57.129
G1 X326.5457
G3 X327.8683 Y57.9214 I0.0 J1.5
( Profile4 )
G0 Z3.0
( T1 : 1.0 )
T1 M6
M3 S1000
G0 X169.2238 Y24.5
G0 Z1.0
G1 F300.0 Z-5.0
G1 F1300.0 Y14.4643
G1 X169.2619 Y14.4485
G1 X169.2238 Y14.4643
G1 X166.3417 Y11.5822
G1 X166.3575 Y11.5441
G1 X166.3417 Y11.5822
G1 X58.8059
G1 X58.7901 Y11.5441
G1 X58.8059 Y11.5822
G1 X49.5738 Y20.8143
G1 X49.5357 Y20.7985
G1 X49.5738 Y20.8143
G1 Y89.8476
G3 X49.527 Y90.0589 I-0.5 J0.0
G1 X13.1705 Y168.0398
G1 X13.1294 Y168.038
G1 X13.1705 Y168.0398
G1 X14.5631 Y171.8694
G1 X14.5327 Y171.8973
G1 X14.5631 Y171.8694
G1 X60.6899 Y193.3783
G1 X60.6881 Y193.4195
G1 X60.6899 Y193.3783
G1 X64.5196 Y191.9834
G1 X64.5475 Y192.0137
G1 X64.5196 Y191.9834
G1 X79.8158 Y159.1804
G1 Y154.389
G3 X80.3158 Y153.889 I0.5 J0.0
G1 X166.3405
G1 X166.3565 Y153.9274
G1 X166.3405 Y153.889
G1 X169.2238 Y150.9827
G1 X169.2615 Y150.9982
G1 X169.2238 Y150.9827
G1 Y140.4982
G1 X169.3698 Y140.3525
G1 X169.2238 Y140.4982
G1 X168.4566 Y140.4963
G1 X160.498 Y140.4956
G3 X159.9981 Y139.9952 I0.0 J-0.5
G1 X159.9997 Y137.5
G1 X160.1463 Y137.3534
G1 X159.9997 Y137.5
G1 X158.5
G3 X158.0 Y137.0 I0.0 J-0.5
G1 Y124.2292
G3 X158.5 Y123.7292 I0.5 J0.0
G1 X161.0425
G1 X161.1891 Y123.8758
G1 X161.0425 Y123.7292
G1 X161.0409 Y121.234
G3 X161.5408 Y120.7336 I0.5 J-0.0003
G1 X169.2238 Y120.7329
G1 X169.3702 Y120.8793
G1 X169.2238 Y120.7329
G1 Y86.5
G1 X169.3702 Y86.3536
G1 X169.2238 Y86.5
G1 X165.347
G1 X165.2006 Y86.3536
G1 X165.347 Y86.5
G1 Y98.0
G3 X164.847 Y98.5 I-0.5 J0.0
G1 X152.0
G3 X151.5 Y98.0 I0.0 J-0.5
G1 Y58.2809
G1 X151.6464 Y58.1344
G1 X151.5 Y58.2809
G1 X150.0
G3 X149.5 Y57.7809 I0.0 J-0.5
G1 Y25.0
G3 X150.0 Y24.5 I0.5 J0.0
G1 X169.2238
G1 X169.3702 Y24.6464
G1 X169.2238 Y24.5
G0 Z3.0
G0 X324.8992 Y26.2017
G0 Z1.0
G1 F300.0 Z-5.0
G1 F1300.0 X325.0457 Y26.3482
G1 Y58.129
G1 X324.8992 Y58.2755
G1 X325.0457 Y58.129
G1 X326.5457
G3 X327.0457 Y58.629 I0.0 J0.5
G1 Y98.3482
G1 X326.8992 Y98.4946
G1 X327.0457 Y98.3482
G1 X338.8927
G1 X339.0391 Y98.4946
G1 X338.8927 Y98.3482
G1 Y86.8482
G3 X339.3927 Y86.3482 I0.5 J0.0
G1 X343.5457
G1 X343.6921 Y86.4946
G1 X343.5457 Y86.3482
G1 Y26.3482
G1 X343.6921 Y26.2017
G1 X343.5457 Y26.3482
G1 X325.0457
G1 X324.8992 Y26.2017
G0 Z3.0
G0 X353.5977 Y65.7908
G0 Z1.0
G1 F300.0 Z-5.0
G1 F1300.0 X348.5468 Y74.9829
G1 X348.5651 Y85.4363
G1 X353.5977 Y94.595
G0 Z3.0
G0 X353.6286 Y114.0842
G0 Z1.0
G1 F300.0 Z-5.0
G1 F1300.0 X348.5465 Y127.8802
G1 Y135.0453
G1 X353.6286 Y148.8413
G0 Z3.0
G0 X346.1921 Y137.4946
G0 Z1.0
G1 F300.0 Z-5.0
G1 F1300.0 X346.0457 Y137.3482
G1 Y125.5774
G1 X346.1921 Y125.4309
G1 X346.0457 Y125.5774
G1 X333.5457
G1 X333.3992 Y125.4309
G1 X333.5457 Y125.5774
G1 Y137.3482
G1 X333.3992 Y137.4946
G1 X333.5457 Y137.3482
G1 X346.0457
G1 X346.1921 Y137.4946
G0 Z3.0
G0 X346.5243 Y279.8482
G0 Z1.0
G1 F300.0 Z-5.0
G1 F1300.0 X346.3778 Y279.9947
G1 X333.8778
G1 X333.7314 Y279.8482
G1 X333.8778 Y279.9947
G1 Y291.7655
G1 X333.7314 Y291.9119
G1 X333.8778 Y291.7655
G1 X346.3778
G1 X346.5243 Y291.9119
G1 X346.3778 Y291.7655
G1 Y279.9947
G1 X346.5243 Y279.8482
G0 Z3.0
G0 X353.0224 Y303.6043
G0 Z1.0
G1 F300.0 Z-5.0
G1 F1300.0 X347.9094 Y289.7246
G3 X347.8786 Y289.5518 I0.4692 J-0.1728
G1 Y282.2084
G3 X347.9094 Y282.0355 I0.5 J0.0
G1 X353.0224 Y268.1558
G0 Z3.0
G0 X339.3713 Y318.8482
G0 Z1.0
G1 F300.0 Z-5.0
G1 F1300.0 X339.2248 Y318.9947
G1 X327.3778
G1 X327.2314 Y318.8482
G1 X327.3778 Y318.9947
G1 Y358.7138
G3 X326.8778 Y359.2138 I-0.5 J0.0
G1 X325.3778
G1 X325.2314 Y359.0673
G1 X325.3778 Y359.2138
G1 Y390.9947
G1 X325.2314 Y391.1411
G1 X325.3778 Y390.9947
G1 X343.8778
G1 X344.0243 Y391.1411
G1 X343.8778 Y390.9947
G1 Y330.9947
G1 X344.0243 Y330.8482
G1 X343.8778 Y330.9947
G1 X339.7248
G3 X339.2248 Y330.4947 I0.0 J-0.5
G1 Y318.9947
G1 X339.3713 Y318.8482
G0 Z3.0
G0 X353.0534 Y352.0336
G0 Z1.0
G1 F300.0 Z-5.0
G1 F1300.0 X347.9405 Y342.7286
G3 X347.8787 Y342.487 I0.4382 J-0.2408
G1 X347.8975 Y331.777
G3 X347.9593 Y331.537 I0.5 J0.0009
G1 X353.0534 Y322.2662
G0 Z3.0
G0 X169.2238
G0 Z1.0
G1 F300.0 Z-5.0
G1 F1300.0 Y295.2671
G1 X169.3702 Y295.1207
G1 X169.2238 Y295.2671
G1 X161.5408 Y295.2664
G3 X161.0409 Y294.766 I0.0 J-0.5
G1 X161.0425 Y292.2708
G1 X161.1891 Y292.1242
G1 X161.0425 Y292.2708
G1 X158.5
G3 X158.0 Y291.7708 I0.0 J-0.5
G1 Y279.0
G3 X158.5 Y278.5 I0.5 J0.0
G1 X159.9997
G1 X160.1463 Y278.6466
G1 X159.9997 Y278.5
G1 X159.9981 Y276.0048
G3 X160.498 Y275.5044 I0.5 J-0.0003
G1 X168.4566 Y275.5037
G1 X169.2238 Y275.5018
G1 X169.3698 Y275.6475
G1 X169.2238 Y275.5018
G1 Y265.0173
G1 X169.2615 Y265.0018
G1 X169.2238 Y265.0173
G1 X166.3405 Y262.111
G1 X166.3565 Y262.0726
G1 X166.3405 Y262.111
G1 X80.3158
G3 X79.8158 Y261.611 I0.0 J-0.5
G1 Y256.8196
G1 X64.5196 Y224.0166
G1 X64.5475 Y223.9863
G1 X64.5196 Y224.0166
G1 X60.6899 Y222.6217
G1 X60.6881 Y222.5805
G1 X60.6899 Y222.6217
G1 X14.5631 Y244.1306
G1 X14.5327 Y244.1027
G1 X14.5631 Y244.1306
G1 X13.1705 Y247.9602
G1 X13.1294 Y247.962
G1 X13.1705 Y247.9602
G1 X49.527 Y325.9411
G3 X49.5738 Y326.1524 I-0.4532 J0.2113
G1 Y395.1857
G1 X49.5357 Y395.2015
G1 X49.5738 Y395.1857
G1 X58.8059 Y404.4178
G1 X58.7901 Y404.4559
G1 X58.8059 Y404.4178
G1 X166.3417
G1 X166.3575 Y404.4559
G1 X166.3417 Y404.4178
G1 X169.2238 Y401.5357
G1 X169.2619 Y401.5515
G1 X169.2238 Y401.5357
G1 Y391.5
G1 X169.3702 Y391.3536
G1 X169.2238 Y391.5
G1 X150.0
G3 X149.5 Y391.0 I0.0 J-0.5
G1 Y358.2191
G3 X150.0 Y357.7191 I0.5 J0.0
G1 X151.5
G1 X151.6464 Y357.8656
G1 X151.5 Y357.7191
G1 Y318.0
G3 X152.0 Y317.5 I0.5 J0.0
G1 X164.847
G3 X165.347 Y318.0 I0.0 J0.5
G1 Y329.5
G1 X165.2006 Y329.6464
G1 X165.347 Y329.5
G1 X169.2238
G1 X169.3702 Y329.6464
G1 X169.2238 Y329.5
G1 Y322.2662
( Profile1 )
G0 Z3.0
( T3 : 3.0 )
T3 M6
M3 S1000
G0 X163.8803 Y118.5
G0 Z-4.0
G1 F300.0 Z-8.0
G1 F1300.0 X167.1296 Y115.2507
G1 X167.7509
G1 X167.1296
G1 X159.3514 Y107.4725
G1 Y106.8512
G1 Y107.4725
G1 X155.725 Y111.0989
G1 X155.1037
G1 X155.725
G1 X163.1262 Y118.5
G1 X163.0789 Y118.6142
G1 X163.1262 Y118.5
G1 X163.8803
G1 X163.9276 Y118.6142
G1 X163.8803 Y118.5
G0 Z3.0
G0 X203.569 Y137.0072
G0 Z-4.0
G1 F300.0 Z-8.0
G1 F1300.0 X187.7125 Y171.0116
G1 X237.2495 Y194.111
G1 X252.2981 Y161.8392
G1 X237.7736 Y155.0663
G3 X236.3109 Y151.0477 I1.278 J-2.7407
G1 X241.1894 Y140.5858
G3 X245.9857 Y141.6491 I2.2803 J1.0633
G1 Y153.7245
G1 X319.6937
G1 Y118.6485
G3 X320.9637 Y116.1852 I3.024 J0.0
G1 Y99.5985
G3 X322.5512 Y96.9375 I3.024 J0.0
G1 Y79.6535
G3 X320.9637 Y76.9925 I1.4365 J-2.661
G1 Y60.9665
G1 X320.8127
G3 X317.7887 Y57.9425 I0.0 J-3.024
G1 Y13.4304
G1 X244.0807
G1 Y19.8425
G3 X241.0567 Y22.8665 I-3.024 J0.0
G1 X225.0307
G1 Y58.4745
G1 X225.1817
G3 X228.2057 Y61.4985 I0.0 J3.024
G1 Y77.8875
G3 X229.7932 Y80.5485 I-1.4365 J2.661
G1 Y96.0425
G3 X228.2057 Y98.7035 I-3.024 J0.0
G1 Y115.6245
G1 X242.9617
G3 X245.9857 Y118.6485 I0.0 J3.024
G1 Y133.1296
G3 X241.6837 Y135.8703 I-3.024 J0.0
G1 X210.812 Y121.4746
G1 X203.569 Y137.0072
G0 Z3.0
G0 X237.5817 Y223.2318
G0 Z-4.0
G1 F300.0 Z-8.0
G1 F1300.0 X188.0447 Y246.3313
G1 X211.1442 Y295.8682
G1 X242.0158 Y281.4725
G3 X246.3178 Y284.2132 I1.278 J2.7407
G1 Y298.6943
G3 X243.2938 Y301.7183 I-3.024 J0.0
G1 X228.5378
G1 Y318.6393
G3 X230.1253 Y321.3003 I-1.4365 J2.661
G1 Y336.7943
G3 X228.5378 Y339.4553 I-3.024 J0.0
G1 Y355.8443
G3 X225.5138 Y358.8683 I-3.024 J0.0
G1 X225.3628
G1 Y394.4763
G1 X241.3888
G3 X244.4128 Y397.5003 I0.0 J3.024
G1 Y403.9125
G1 X318.1208
G1 Y359.4003
G3 X321.1448 Y356.3763 I3.024 J0.0
G1 X321.2958
G1 Y340.3503
G3 X322.8833 Y337.6893 I3.024 J0.0
G1 Y320.4053
G3 X321.2958 Y317.7443 I1.4365 J-2.661
G1 Y301.1577
G3 X320.0258 Y298.6943 I1.754 J-2.4633
G1 Y263.6183
G1 X246.3178
G1 Y275.6937
G3 X241.5215 Y276.757 I-2.516 J0.0
G1 X236.6431 Y266.2952
G3 X238.1058 Y262.2765 I2.7407 J-1.278
G1 X252.6303 Y255.5036
G1 X237.5817 Y223.2318
G0 Z3.0
G0 X167.7509 Y300.7493
G0 Z-4.0
G1 F300.0 Z-8.0
G1 F1300.0 X167.1296
G1 X163.8803 Y297.5
G1 X163.9276 Y297.3858
G1 X163.8803 Y297.5
G1 X163.1262
G1 X163.0789 Y297.3858
G1 X163.1262 Y297.5
G1 X155.725 Y304.9011
G1 X155.1037
G1 X155.725
G1 X159.3514 Y308.5275
G1 Y309.1488
G1 Y308.5275
G1 X167.1296 Y300.7493
G1 X167.7509
G0 Z3.0
M5
M30
