( Made using CamBam - http://www.cambam.co.uk )
( Right 2/7/2014 8:06:58 PM )
( T1 : 1.0 )
( T2 : 2.0 )
( T3 : 3.0 )
G21 G90 G64 G40
G0 Z3.0
( T3 : 3.0 )
T3 M6
( Bolt Holes Through )
G17
M3 S1000
G0 X50.9655 Y158.8307
G0 Z3.0
G0 X51.2155 Y158.8307
G0 Z1.0
G1 F300.0 Z0.0
G2 F2000.0 X50.8405 Y158.6142 Z-0.6667 I-0.25 J0.0
G2 Y159.0472 Z-1.3333 I0.125 J0.2165
G2 X51.2155 Y158.8307 Z-2.0 I0.125 J-0.2165
G2 X50.8405 Y158.6142 Z-2.6667 I-0.25 J0.0
G2 Y159.0472 Z-3.3333 I0.125 J0.2165
G2 X51.2155 Y158.8307 Z-4.0 I0.125 J-0.2165
G2 X50.8405 Y158.6142 Z-4.6667 I-0.25 J0.0
G2 Y159.0472 Z-5.3333 I0.125 J0.2165
G2 X51.2155 Y158.8307 Z-6.0 I0.125 J-0.2165
G2 X50.8405 Y158.6142 Z-6.6667 I-0.25 J0.0
G2 Y159.0472 Z-7.3333 I0.125 J0.2165
G2 X51.2155 Y158.8307 Z-8.0 I0.125 J-0.2165
G2 X50.8405 Y158.6142 I-0.25 J0.0
G2 Y159.0472 I0.125 J0.2165
G2 X51.2155 Y158.8307 I0.125 J-0.2165
G0 Z3.0
G0 X102.0154
G0 Z1.0
G1 F300.0 Z0.0
G2 F2000.0 X101.6404 Y158.6142 Z-0.6667 I-0.25 J0.0
G2 Y159.0472 Z-1.3333 I0.125 J0.2165
G2 X102.0154 Y158.8307 Z-2.0 I0.125 J-0.2165
G2 X101.6404 Y158.6142 Z-2.6667 I-0.25 J0.0
G2 Y159.0472 Z-3.3333 I0.125 J0.2165
G2 X102.0154 Y158.8307 Z-4.0 I0.125 J-0.2165
G2 X101.6404 Y158.6142 Z-4.6667 I-0.25 J0.0
G2 Y159.0472 Z-5.3333 I0.125 J0.2165
G2 X102.0154 Y158.8307 Z-6.0 I0.125 J-0.2165
G2 X101.6404 Y158.6142 Z-6.6667 I-0.25 J0.0
G2 Y159.0472 Z-7.3333 I0.125 J0.2165
G2 X102.0154 Y158.8307 Z-8.0 I0.125 J-0.2165
G2 X101.6404 Y158.6142 I-0.25 J0.0
G2 Y159.0472 I0.125 J0.2165
G2 X102.0154 Y158.8307 I0.125 J-0.2165
G0 Z3.0
G0 X122.8434 Y104.3732
G0 Z1.0
G1 F300.0 Z0.0
G2 F2000.0 X122.4684 Y104.1567 Z-0.6667 I-0.25 J0.0
G2 Y104.5897 Z-1.3333 I0.125 J0.2165
G2 X122.8434 Y104.3732 Z-2.0 I0.125 J-0.2165
G2 X122.4684 Y104.1567 Z-2.6667 I-0.25 J0.0
G2 Y104.5897 Z-3.3333 I0.125 J0.2165
G2 X122.8434 Y104.3732 Z-4.0 I0.125 J-0.2165
G2 X122.4684 Y104.1567 Z-4.6667 I-0.25 J0.0
G2 Y104.5897 Z-5.3333 I0.125 J0.2165
G2 X122.8434 Y104.3732 Z-6.0 I0.125 J-0.2165
G2 X122.4684 Y104.1567 Z-6.6667 I-0.25 J0.0
G2 Y104.5897 Z-7.3333 I0.125 J0.2165
G2 X122.8434 Y104.3732 Z-8.0 I0.125 J-0.2165
G2 X122.4684 Y104.1567 I-0.25 J0.0
G2 Y104.5897 I0.125 J0.2165
G2 X122.8434 Y104.3732 I0.125 J-0.2165
G0 Z3.0
G0 X89.2392 Y38.2062
G0 Z1.0
G1 F300.0 Z0.0
G2 F2000.0 X88.8642 Y37.9897 Z-0.6667 I-0.25 J0.0
G2 Y38.4227 Z-1.3333 I0.125 J0.2165
G2 X89.2392 Y38.2062 Z-2.0 I0.125 J-0.2165
G2 X88.8642 Y37.9897 Z-2.6667 I-0.25 J0.0
G2 Y38.4227 Z-3.3333 I0.125 J0.2165
G2 X89.2392 Y38.2062 Z-4.0 I0.125 J-0.2165
G2 X88.8642 Y37.9897 Z-4.6667 I-0.25 J0.0
G2 Y38.4227 Z-5.3333 I0.125 J0.2165
G2 X89.2392 Y38.2062 Z-6.0 I0.125 J-0.2165
G2 X88.8642 Y37.9897 Z-6.6667 I-0.25 J0.0
G2 Y38.4227 Z-7.3333 I0.125 J0.2165
G2 X89.2392 Y38.2062 Z-8.0 I0.125 J-0.2165
G2 X88.8642 Y37.9897 I-0.25 J0.0
G2 Y38.4227 I0.125 J0.2165
G2 X89.2392 Y38.2062 I0.125 J-0.2165
G0 Z3.0
G0 X37.7027 Y30.129
G0 Z1.0
G1 F300.0 Z0.0
G2 F2000.0 X37.3277 Y29.9125 Z-0.6667 I-0.25 J0.0
G2 Y30.3456 Z-1.3333 I0.125 J0.2165
G2 X37.7027 Y30.129 Z-2.0 I0.125 J-0.2165
G2 X37.3277 Y29.9125 Z-2.6667 I-0.25 J0.0
G2 Y30.3456 Z-3.3333 I0.125 J0.2165
G2 X37.7027 Y30.129 Z-4.0 I0.125 J-0.2165
G2 X37.3277 Y29.9125 Z-4.6667 I-0.25 J0.0
G2 Y30.3456 Z-5.3333 I0.125 J0.2165
G2 X37.7027 Y30.129 Z-6.0 I0.125 J-0.2165
G2 X37.3277 Y29.9125 Z-6.6667 I-0.25 J0.0
G2 Y30.3456 Z-7.3333 I0.125 J0.2165
G2 X37.7027 Y30.129 Z-8.0 I0.125 J-0.2165
G2 X37.3277 Y29.9125 I-0.25 J0.0
G2 Y30.3456 I0.125 J0.2165
G2 X37.7027 Y30.129 I0.125 J-0.2165
G0 Z3.0
G0 X185.5813 Y55.91
G0 Z1.0
G1 F300.0 Z0.0
G2 F2000.0 X185.2063 Y55.6935 Z-0.6667 I-0.25 J0.0
G2 Y56.1265 Z-1.3333 I0.125 J0.2165
G2 X185.5813 Y55.91 Z-2.0 I0.125 J-0.2165
G2 X185.2063 Y55.6935 Z-2.6667 I-0.25 J0.0
G2 Y56.1265 Z-3.3333 I0.125 J0.2165
G2 X185.5813 Y55.91 Z-4.0 I0.125 J-0.2165
G2 X185.2063 Y55.6935 Z-4.6667 I-0.25 J0.0
G2 Y56.1265 Z-5.3333 I0.125 J0.2165
G2 X185.5813 Y55.91 Z-6.0 I0.125 J-0.2165
G2 X185.2063 Y55.6935 Z-6.6667 I-0.25 J0.0
G2 Y56.1265 Z-7.3333 I0.125 J0.2165
G2 X185.5813 Y55.91 Z-8.0 I0.125 J-0.2165
G2 X185.2063 Y55.6935 I-0.25 J0.0
G2 Y56.1265 I0.125 J0.2165
G2 X185.5813 Y55.91 I0.125 J-0.2165
G0 Z3.0
G0 X184.9463 Y158.8307
G0 Z1.0
G1 F300.0 Z0.0
G2 F2000.0 X184.5713 Y158.6142 Z-0.6667 I-0.25 J0.0
G2 Y159.0472 Z-1.3333 I0.125 J0.2165
G2 X184.9463 Y158.8307 Z-2.0 I0.125 J-0.2165
G2 X184.5713 Y158.6142 Z-2.6667 I-0.25 J0.0
G2 Y159.0472 Z-3.3333 I0.125 J0.2165
G2 X184.9463 Y158.8307 Z-4.0 I0.125 J-0.2165
G2 X184.5713 Y158.6142 Z-4.6667 I-0.25 J0.0
G2 Y159.0472 Z-5.3333 I0.125 J0.2165
G2 X184.9463 Y158.8307 Z-6.0 I0.125 J-0.2165
G2 X184.5713 Y158.6142 Z-6.6667 I-0.25 J0.0
G2 Y159.0472 Z-7.3333 I0.125 J0.2165
G2 X184.9463 Y158.8307 Z-8.0 I0.125 J-0.2165
G2 X184.5713 Y158.6142 I-0.25 J0.0
G2 Y159.0472 I0.125 J0.2165
G2 X184.9463 Y158.8307 I0.125 J-0.2165
( Bolt Holes Not Through )
S1000
G0 Z3.0
G0 X185.3313 Y289.0059
G98
G81 X185.3313 Y289.0059 Z-4.0 R3.0 F300.0
G81 X88.9892 Y306.7097 Z-4.0
G81 X101.7654 Y186.0852 Z-4.0
G81 X50.9655 Z-4.0
G81 X184.6963 Z-4.0
G80
( Internal Space )
S1000
G0 Z3.0
G0 X171.2761 Y192.4084
G0 Z1.0
G1 F300.0 Z-3.0
G1 F2500.0 X149.2156
G3 X149.8742 Y192.9114 I-8.2964 J11.544
G1 X171.5248
G3 X171.2761 Y192.4084 I13.1715 J-6.8262
G1 F300.0 Y191.8084
G1 F2500.0 X147.077
G3 X149.6588 Y193.5114 I-6.1578 J12.144
G1 X172.5516
G3 X171.6622 Y191.8084 I12.1447 J-7.4262
G1 X171.2761
G1 F300.0 Y190.6084
G1 F2500.0 X127.4591
G1 X126.9622
G1 X126.0473
G3 X128.1292 Y191.5364 I-3.9927 J11.7565
G1 X140.9192
G3 X149.2114 Y194.7114 I0.0 J12.416
G1 X174.9236
G3 X172.471 Y190.6084 I9.7728 J-8.6262
G1 X171.2761
G1 F300.0 Y189.4084
G1 F2500.0 X127.4591
G1 X126.9622
G1 X115.456
G1 X114.9591
G1 X113.1246
G3 X112.4627 Y191.1489 I-11.3591 J-3.3232
G1 X122.0546
G3 X127.807 Y192.7364 I0.0 J11.216
G1 X140.9192
G3 X148.7385 Y195.9114 I0.0 J11.216
G1 X178.0994
G3 X173.3372 Y189.4084 I6.5969 J-9.8262
G1 X171.2761
G1 F300.0 Y188.2084
G1 F2500.0 X127.4591
G1 X126.9622
G1 X115.456
G1 X114.9591
G1 X112.1866
G3 X110.3605 Y192.3489 I-10.4212 J-2.1232
G1 X122.0546
G3 X127.4657 Y193.9364 I0.0 J10.016
G1 X140.9192
G3 X148.235 Y197.1114 I0.0 J10.016
G1 X182.4715
G1 Y196.4852
G3 X179.3787 Y195.2956 I2.2248 J-10.4
G3 X174.2751 Y188.2084 I5.3176 J-9.2104
G1 X171.2761
G1 F300.0 Y187.0084
G1 F2500.0 X127.4591
G1 X126.9622
G1 X115.456
G1 X114.9591
G1 X111.1554
G3 X107.5375 Y193.5489 I-9.39 J-0.9232
G1 X122.0546
G3 X127.1014 Y195.1364 I0.0 J8.816
G1 X140.9192
G3 X147.6943 Y198.3114 I0.0 J8.816
G1 X183.6715
G1 Y195.4647
G3 X179.9787 Y194.2564 I1.0248 J-9.3795
G3 X175.3063 Y187.0084 I4.7176 J-8.1712
G1 X171.2761
G0 Z3.0
G0 X89.9247 Y191.5364
G0 Z1.0
G1 F300.0 Z-3.0
G3 F2500.0 X89.5401 Y190.6084 I11.8407 J-5.4512
G1 X79.0975
G1 X78.6006
G1 X63.1908
G3 X62.1343 Y192.8064 I-12.2254 J-4.5232
G1 X79.4827
G3 X84.9529 Y191.5364 I5.4703 J11.146
G1 X89.9247
G1 F300.0 Y192.7364
G1 F2500.0 X91.9759
G3 X90.4063 Y189.4084 I9.7895 J-6.6512
G1 X79.0975
G1 X78.6006
G1 X62.3246
G3 X59.7591 Y194.0064 I-11.3591 J-3.3232
G1 X79.7687
G3 X84.9529 Y192.7364 I5.1842 J9.946
G1 X89.9247
G1 F300.0 Y193.9364
G1 F2500.0 X94.5913
G3 X91.3442 Y188.2084 I7.1741 J-7.8512
G1 X79.0975
G1 X78.6006
G1 X61.4303
G1 X61.3867
G3 X56.4347 Y195.2064 I-10.4212 J-2.1232
G1 X80.0716
G3 X84.9529 Y193.9364 I4.8814 J8.746
G1 X89.9247
G1 F300.0 Y195.1364
G1 F2500.0 X99.1008
G3 X97.0478 Y194.2564 I2.6646 J-9.0512
G3 X92.3754 Y187.0084 I4.7176 J-8.1712
G1 X79.0975
G1 X78.6006
G1 X61.4303
G1 X60.9333
G1 X60.3555
G3 X51.9649 Y195.4674 I-9.39 J-0.9232
G1 Y196.4064
G1 X80.3944
G3 X84.9529 Y195.1364 I4.5585 J7.546
G1 X89.9247
G1 F300.0 Y196.3364
G1 F2500.0 X99.5038
G3 X104.1579 Y194.7489 I4.6541 J6.0285
G1 X122.0546
G3 X126.7087 Y196.3364 I0.0 J7.616
G1 X140.9192
G3 X147.1064 Y199.5114 I0.0 J7.616
G1 X184.8715
G1 Y194.3186
G3 X180.5787 Y193.2172 I-0.1752 J-8.2334
G3 X176.4657 Y185.8084 I4.1176 J-7.132
G1 X127.4591
G1 X126.9622
G1 X115.456
G1 X114.9591
G1 X109.996
G3 X110.0007 Y186.0852 I-8.2306 J0.2768
G3 X97.6478 Y193.2172 I-8.2353 J0.0
G3 X93.5348 Y185.8084 I4.1176 J-7.132
G1 X79.0975
G1 X78.6006
G1 X61.4303
G1 X60.9333
G1 X59.1961
G3 X59.2007 Y186.0852 I-8.2306 J0.2768
G3 X50.7649 Y194.318 I-8.2353 J0.0
G1 Y197.6064
G1 X80.742
G3 X84.9529 Y196.3364 I4.2109 J6.346
G1 X89.9247
G1 F300.0 Y197.5364
G1 F2500.0 X99.9329
G3 X104.1579 Y195.9489 I4.225 J4.8285
G1 X122.0546
G3 X126.2796 Y197.5364 I0.0 J6.416
G1 X140.9192
G3 X146.4565 Y200.7114 I0.0 J6.416
G1 X186.0715
G1 Y192.9848
G3 X181.1787 Y192.1779 I-1.3752 J-6.8996
G3 X177.8178 Y184.6084 I3.5176 J-6.0927
G1 X127.4591
G1 X126.9622
G1 X115.456
G1 X114.9591
G1 X108.6439
G3 X108.8007 Y186.0852 I-6.8785 J1.4768
G3 X98.2478 Y192.1779 I-7.0353 J0.0
G3 X94.8869 Y184.6084 I3.5176 J-6.0927
G1 X79.0975
G1 X78.6006
G1 X61.4303
G1 X60.9333
G1 X57.844
G3 X58.0007 Y186.0852 I-6.8785 J1.4768
G3 X49.5649 Y192.9796 I-7.0353 J0.0
G1 Y198.8064
G1 X81.121
G3 X84.9529 Y197.5364 I3.8319 J5.146
G1 X89.9247
G1 F300.0 Y198.7364
G1 F2500.0 X100.4108
G3 X104.1579 Y197.1489 I3.7471 J3.6285
G1 X122.0546
G3 X125.8017 Y198.7364 I0.0 J5.216
G1 X140.9192
G3 X145.7193 Y201.9114 I0.0 J5.216
G1 X187.2715
G1 Y191.3215
G3 X181.7787 Y191.1387 I-2.5752 J-5.2363
G3 X179.5112 Y183.4084 I2.9176 J-5.0535
G1 X127.4591
G1 X126.9622
G1 X115.456
G1 X114.9591
G1 X106.9505
G3 X107.6007 Y186.0852 I-5.1851 J2.6768
G3 X98.8478 Y191.1387 I-5.8353 J0.0
G3 X96.5803 Y183.4084 I2.9176 J-5.0535
G1 X79.0975
G1 X78.6006
G1 X61.4303
G1 X60.9333
G1 X56.1506
G3 X56.8007 Y186.0852 I-5.1851 J2.6768
G3 X48.3649 Y191.3089 I-5.8353 J0.0
G1 Y200.0064
G1 X81.5418
G3 X84.9529 Y198.7364 I3.4111 J3.946
G1 X89.9247
G1 F300.0 Y199.9364
G1 F2500.0 X100.9593
G3 X104.1579 Y198.3489 I3.1985 J2.4285
G1 X122.0546
G3 X125.2531 Y199.9364 I0.0 J4.016
G1 X140.9192
G3 X144.8462 Y203.1114 I0.0 J4.016
G1 X188.4714
G1 X188.4715
G1 Y188.7789
G3 X182.3775 Y190.1015 I-3.7752 J-2.6937
G3 X182.151 Y182.2084 I2.3188 J-4.0164
G1 X127.4591
G1 X126.9622
G1 X115.456
G1 X114.9591
G1 X104.3107
G3 X106.4031 Y186.0852 I-2.5453 J3.8768
G3 X99.4466 Y190.1015 I-4.6377 J0.0
G3 X99.2201 Y182.2084 I2.3188 J-4.0164
G1 X79.0975
G1 X78.6006
G1 X61.4303
G1 X60.9333
G1 X53.5108
G3 X55.6031 Y186.0852 I-2.5453 J3.8768
G3 X48.6466 Y190.1015 I-4.6377 J0.0
G3 X47.1649 Y188.7429 I2.3188 J-4.0164
G1 Y201.2064
G1 X47.1932
G1 X82.0224
G3 X84.9529 Y199.9364 I2.9305 J2.746
G1 X89.9247
G0 Z3.0
G0 Y191.5364
G0 Z-2.0
G1 F300.0 Z-6.0
G3 F2500.0 X89.5401 Y190.6084 I11.8407 J-5.4512
G1 X79.0975
G1 X78.6006
G1 X63.1908
G3 X62.1343 Y192.8064 I-12.2254 J-4.5232
G1 X79.4827
G3 X84.9529 Y191.5364 I5.4703 J11.146
G1 X89.9247
G1 F300.0 Y192.7364
G1 F2500.0 X91.9759
G3 X90.4063 Y189.4084 I9.7895 J-6.6512
G1 X79.0975
G1 X78.6006
G1 X62.3246
G3 X59.7591 Y194.0064 I-11.3591 J-3.3232
G1 X79.7687
G3 X84.9529 Y192.7364 I5.1842 J9.946
G1 X89.9247
G1 F300.0 Y193.9364
G1 F2500.0 X94.5913
G3 X91.3442 Y188.2084 I7.1741 J-7.8512
G1 X79.0975
G1 X78.6006
G1 X61.4303
G1 X61.3867
G3 X56.4347 Y195.2064 I-10.4212 J-2.1232
G1 X80.0716
G3 X84.9529 Y193.9364 I4.8814 J8.746
G1 X89.9247
G1 F300.0 Y195.1364
G1 F2500.0 X99.1008
G3 X97.0478 Y194.2564 I2.6646 J-9.0512
G3 X92.3754 Y187.0084 I4.7176 J-8.1712
G1 X79.0975
G1 X78.6006
G1 X61.4303
G1 X60.9333
G1 X60.3555
G3 X51.9649 Y195.4674 I-9.39 J-0.9232
G1 Y196.4064
G1 X80.3944
G3 X84.9529 Y195.1364 I4.5585 J7.546
G1 X89.9247
G0 Z3.0
G0 X149.2156 Y192.4084
G0 Z-2.0
G1 F300.0 Z-6.0
G3 F2500.0 X149.8742 Y192.9114 I-8.2964 J11.544
G1 X171.5248
G3 X171.2761 Y192.4084 I13.1715 J-6.8262
G1 X149.2156
G1 F300.0 Y191.8084
G1 F2500.0 X147.077
G3 X149.6588 Y193.5114 I-6.1578 J12.144
G1 X172.5516
G3 X171.6622 Y191.8084 I12.1447 J-7.4262
G1 X149.2156
G1 F300.0 Y190.6084
G1 F2500.0 X127.4591
G1 X126.9622
G1 X126.0473
G3 X128.1292 Y191.5364 I-3.9927 J11.7565
G1 X140.9192
G3 X149.2114 Y194.7114 I0.0 J12.416
G1 X174.9236
G3 X172.471 Y190.6084 I9.7728 J-8.6262
G1 X149.2156
G1 F300.0 Y189.4084
G1 F2500.0 X127.4591
G1 X126.9622
G1 X115.456
G1 X114.9591
G1 X113.1246
G3 X112.4627 Y191.1489 I-11.3591 J-3.3232
G1 X122.0546
G3 X127.807 Y192.7364 I0.0 J11.216
G1 X140.9192
G3 X148.7385 Y195.9114 I0.0 J11.216
G1 X178.0994
G3 X173.3372 Y189.4084 I6.5969 J-9.8262
G1 X149.2156
G1 F300.0 Y188.2084
G1 F2500.0 X127.4591
G1 X126.9622
G1 X115.456
G1 X114.9591
G1 X112.1866
G3 X110.3605 Y192.3489 I-10.4212 J-2.1232
G1 X122.0546
G3 X127.4657 Y193.9364 I0.0 J10.016
G1 X140.9192
G3 X148.235 Y197.1114 I0.0 J10.016
G1 X182.4715
G1 Y196.4852
G3 X179.3787 Y195.2956 I2.2248 J-10.4
G3 X174.2751 Y188.2084 I5.3176 J-9.2104
G1 X149.2156
G1 F300.0 Y187.0084
G1 F2500.0 X127.4591
G1 X126.9622
G1 X115.456
G1 X114.9591
G1 X111.1554
G3 X107.5375 Y193.5489 I-9.39 J-0.9232
G1 X122.0546
G3 X127.1014 Y195.1364 I0.0 J8.816
G1 X140.9192
G3 X147.6943 Y198.3114 I0.0 J8.816
G1 X183.6715
G1 Y195.4647
G3 X179.9787 Y194.2564 I1.0248 J-9.3795
G3 X175.3063 Y187.0084 I4.7176 J-8.1712
G1 X149.2156
G1 F300.0 Y185.8084
G1 F2500.0 X127.4591
G1 X126.9622
G1 X115.456
G1 X114.9591
G1 X109.996
G3 X110.0007 Y186.0852 I-8.2306 J0.2768
G3 X97.6478 Y193.2172 I-8.2353 J0.0
G3 X93.5348 Y185.8084 I4.1176 J-7.132
G1 X79.0975
G1 X78.6006
G1 X61.4303
G1 X60.9333
G1 X59.1961
G3 X59.2007 Y186.0852 I-8.2306 J0.2768
G3 X50.7649 Y194.318 I-8.2353 J0.0
G1 Y197.6064
G1 X80.742
G3 X84.9529 Y196.3364 I4.2109 J6.346
G1 X99.5038
G3 X104.1579 Y194.7489 I4.6541 J6.0285
G1 X122.0546
G3 X126.7087 Y196.3364 I0.0 J7.616
G1 X140.9192
G3 X147.1064 Y199.5114 I0.0 J7.616
G1 X184.8715
G1 Y194.3186
G3 X180.5787 Y193.2172 I-0.1752 J-8.2334
G3 X176.4657 Y185.8084 I4.1176 J-7.132
G1 X149.2156
G1 F300.0 Y184.6084
G1 F2500.0 X127.4591
G1 X126.9622
G1 X115.456
G1 X114.9591
G1 X108.6439
G3 X108.8007 Y186.0852 I-6.8785 J1.4768
G3 X98.2478 Y192.1779 I-7.0353 J0.0
G3 X94.8869 Y184.6084 I3.5176 J-6.0927
G1 X79.0975
G1 X78.6006
G1 X61.4303
G1 X60.9333
G1 X57.844
G3 X58.0007 Y186.0852 I-6.8785 J1.4768
G3 X49.5649 Y192.9796 I-7.0353 J0.0
G1 Y198.8064
G1 X81.121
G3 X84.9529 Y197.5364 I3.8319 J5.146
G1 X99.9329
G3 X104.1579 Y195.9489 I4.225 J4.8285
G1 X122.0546
G3 X126.2796 Y197.5364 I0.0 J6.416
G1 X140.9192
G3 X146.4565 Y200.7114 I0.0 J6.416
G1 X186.0715
G1 Y192.9848
G3 X181.1787 Y192.1779 I-1.3752 J-6.8996
G3 X177.8178 Y184.6084 I3.5176 J-6.0927
G1 X149.2156
G1 F300.0 Y183.4084
G1 F2500.0 X127.4591
G1 X126.9622
G1 X115.456
G1 X114.9591
G1 X106.9505
G3 X107.6007 Y186.0852 I-5.1851 J2.6768
G3 X98.8478 Y191.1387 I-5.8353 J0.0
G3 X96.5803 Y183.4084 I2.9176 J-5.0535
G1 X79.0975
G1 X78.6006
G1 X61.4303
G1 X60.9333
G1 X56.1506
G3 X56.8007 Y186.0852 I-5.1851 J2.6768
G3 X48.3649 Y191.3089 I-5.8353 J0.0
G1 Y200.0064
G1 X81.5418
G3 X84.9529 Y198.7364 I3.4111 J3.946
G1 X100.4108
G3 X104.1579 Y197.1489 I3.7471 J3.6285
G1 X122.0546
G3 X125.8017 Y198.7364 I0.0 J5.216
G1 X140.9192
G3 X145.7193 Y201.9114 I0.0 J5.216
G1 X187.2715
G1 Y191.3215
G3 X181.7787 Y191.1387 I-2.5752 J-5.2363
G3 X179.5112 Y183.4084 I2.9176 J-5.0535
G1 X149.2156
G1 F300.0 Y182.2084
G1 F2500.0 X127.4591
G1 X126.9622
G1 X115.456
G1 X114.9591
G1 X104.3107
G3 X106.4031 Y186.0852 I-2.5453 J3.8768
G3 X99.4466 Y190.1015 I-4.6377 J0.0
G3 X99.2201 Y182.2084 I2.3188 J-4.0164
G1 X79.0975
G1 X78.6006
G1 X61.4303
G1 X60.9333
G1 X53.5108
G3 X55.6031 Y186.0852 I-2.5453 J3.8768
G3 X48.6466 Y190.1015 I-4.6377 J0.0
G3 X47.1649 Y188.7429 I2.3188 J-4.0164
G1 Y201.2064
G1 X47.1932
G1 X82.0224
G3 X84.9529 Y199.9364 I2.9305 J2.746
G1 X100.9593
G3 X104.1579 Y198.3489 I3.1985 J2.4285
G1 X122.0546
G3 X125.2531 Y199.9364 I0.0 J4.016
G1 X140.9192
G3 X144.8462 Y203.1114 I0.0 J4.016
G1 X188.4714
G1 X188.4715
G1 Y188.7789
G3 X182.3775 Y190.1015 I-3.7752 J-2.6937
G3 X182.151 Y182.2084 I2.3188 J-4.0164
G1 X149.2156
G0 Z3.0
G0 X153.0502 Y129.1075
G0 Z1.0
G1 F300.0 Z-3.0
G1 F2500.0 X154.8715
G1 Y126.6785
G3 X153.0502 Y129.1075 I-32.2781 J-22.3054
G1 F300.0 Y130.3075
G1 F2500.0 X156.0715
G1 Y122.4258
G3 X150.4159 Y130.3075 I-33.4781 J-18.0526
G1 X153.0502
G1 F300.0 Y131.5075
G1 F2500.0 X157.2715
G1 Y116.7935
G3 X147.5045 Y131.5075 I-34.6781 J-12.4204
G1 X153.0502
G0 Z3.0
G0 X154.8715 Y82.0678
G0 Z1.0
G1 F300.0 Z-3.0
G1 F2500.0 Y80.6407
G3 X152.6748 Y77.6576 I30.4598 J-24.7307
G1 X151.3282
G3 X154.8715 Y82.0678 I-28.7348 J26.7155
G1 F300.0 X156.0715
G1 F2500.0 Y80.2112
G3 X153.3238 Y76.4576 I29.2598 J-24.3012
G1 X148.4276
G3 X156.0715 Y86.3205 I-25.8342 J27.9155
G1 Y82.0678
G1 F300.0 X157.2715
G1 F2500.0 Y79.7739
G3 X153.9863 Y75.2576 I28.0598 J-23.8639
G1 X145.1572
G3 X157.2715 Y91.9528 I-22.5638 J29.1155
G1 Y82.0678
G1 F300.0 X158.4715
G1 F2500.0 Y79.3285
G3 X154.6631 Y74.0576 I26.8598 J-23.4185
G1 X141.3242
G3 X158.2287 Y104.3732 I-18.7308 J30.3155
G3 X144.2045 Y132.7075 I-35.6353 J0.0
G1 X158.4715
G1 Y82.0678
G1 F300.0 X159.6715
G1 F2500.0 Y78.8744
G3 X155.3552 Y72.8576 I25.6598 J-22.9644
G1 X136.47
G3 X157.0287 Y104.3732 I-13.8766 J31.5155
G3 X140.2997 Y133.9075 I-34.4353 J0.0
G1 X159.6715
G1 Y82.0678
G1 F300.0 X160.8715
G1 F2500.0 Y78.4112
G3 X156.0636 Y71.6576 I24.4598 J-22.5012
G1 X128.4481
G3 X155.8287 Y104.3732 I-5.8547 J32.7155
G3 X135.2419 Y135.1075 I-33.2353 J0.0
G1 X160.8715
G1 Y82.0678
G0 Z3.0
G0 X85.6601 Y81.5137
G0 Z1.0
G1 F300.0 Z-3.0
G3 F2500.0 X84.9649 Y81.4547 I3.3292 J-43.3075
G1 Y82.6771
G3 X85.6601 Y81.5137 I37.6285 J21.6961
G1 F300.0 X86.1702 Y81.8295
G3 F2500.0 X86.7094 Y80.9808 I36.4231 J22.5436
G3 X84.3649 Y80.7912 I2.2798 J-42.7746
G1 Y85.0485
G3 X86.1702 Y81.8295 I38.2285 J19.3247
G1 F300.0 X87.1906 Y82.4611
G3 F2500.0 X88.9527 Y79.8415 I35.4028 J21.9121
G3 X83.1649 Y79.4321 I0.0365 J-41.6353
G1 Y90.9982
G3 X87.1906 Y82.4611 I39.4285 J13.3749
G0 Z3.0
G0 X83.1649 Y117.7481
G0 Z1.0
G1 F300.0 Z-3.0
G1 F2500.0 Y121.5813
G3 X84.4147 Y120.983 I18.6005 J37.2494
G3 X83.1649 Y117.7481 I38.1787 J-16.6098
G1 F300.0 X84.3013 Y117.3626
G3 F2500.0 X91.4649 Y78.5657 I38.2921 J-12.9895
G3 X81.9772 Y78.0289 I-2.4756 J-40.3594
G3 X81.9649 Y78.1545 I-38.7587 J-3.7293
G1 Y123.5752
G3 X86.0076 Y121.5922 I19.8005 J35.2555
G3 X84.3013 Y117.3626 I36.5857 J-17.2191
G1 F300.0 X85.4377 Y116.9771
G3 F2500.0 X94.4227 Y77.0635 I37.1557 J-12.604
G3 X80.8862 Y76.5957 I-5.4335 J-38.8572
G3 X80.7649 Y78.0944 I-37.6678 J-2.2961
G1 Y125.6888
G3 X82.1478 Y124.852 I21.0005 J33.1419
G3 X87.6528 Y122.2214 I19.6176 J33.9788
G3 X85.4377 Y116.9771 I34.9406 J-17.8482
G1 F300.0 X86.5741 Y116.5916
G3 F2500.0 X98.3392 Y75.0744 I36.0193 J-12.2185
G3 X79.7474 Y75.1016 I-9.35 J-36.8681
G3 X79.5649 Y78.0335 I-36.5289 J-0.802
G1 Y127.9467
G3 X82.7478 Y125.8912 I22.2005 J30.884
G3 X89.3613 Y122.8749 I19.0176 J32.9395
G3 X86.5741 Y116.5916 I33.2321 J-18.5017
G1 F300.0 X87.7105 Y116.2062
G3 F2500.0 X101.7775 Y73.9834 I34.8829 J-11.833
G3 X99.9106 Y73.3852 I9.0395 J-31.4257
G3 X78.5478 Y73.5307 I-10.9214 J-35.179
G3 X78.5562 Y74.2996 I-35.3293 J0.7689
G3 X78.3649 Y77.9715 I-35.3377 J0.0
G1 Y130.3833
G3 X83.3478 Y126.9304 I23.4005 J28.4474
G3 X91.1488 Y123.5585 I18.4176 J31.9003
G3 X87.7105 Y116.2062 I31.4446 J-19.1854
G1 F300.0 X88.8469 Y115.8207
G3 F2500.0 X104.7757 Y73.5121 I33.7465 J-11.4475
G3 X104.8266 Y73.4828 I17.8176 J30.8611
G3 X99.9358 Y72.1186 I5.9904 J-30.9252
G3 X77.2688 Y71.859 I-10.9466 J-33.9123
G3 X77.3562 Y74.2996 I-34.0503 J2.4406
G3 X77.1649 Y77.9084 I-34.1377 J0.0
G1 Y132.7075
G1 X77.528
G3 X83.9478 Y127.9696 I24.2374 J26.1232
G3 X93.0374 Y124.2808 I17.8176 J30.8611
G3 X88.8469 Y115.8207 I29.556 J-19.9077
G1 F300.0 X89.9833 Y115.4352
G3 F2500.0 X105.3757 Y74.5513 I32.6101 J-11.062
G3 X108.8612 Y72.7944 I17.2176 J29.8218
G3 X99.962 Y70.8465 I1.9558 J-30.2368
G3 X75.8807 Y70.0489 I-10.9728 J-32.6403
G3 X76.1562 Y74.2996 I-32.6623 J4.2507
G3 X75.9649 Y77.8442 I-32.9377 J0.0
G1 Y133.9075
G1 X78.0036
G3 X84.5478 Y129.0089 I23.7618 J24.9232
G3 X95.0603 Y125.0545 I17.2176 J29.8218
G3 X89.9833 Y115.4352 I27.5331 J-20.6814
G1 F300.0 X91.1197 Y115.0497
G3 F2500.0 X105.9757 Y75.5906 I31.4737 J-10.6765
G3 X116.7386 Y71.6576 I16.6176 J28.7826
G1 X110.817
G3 X99.9895 Y69.5683 I0.0 J-29.1
G3 X74.3317 Y68.0348 I-11.0003 J-31.362
G3 X74.9562 Y74.2996 I-31.1132 J6.2648
G3 X74.7649 Y77.7789 I-31.7377 J0.0
G1 Y135.1075
G1 X78.4889
G3 X85.1478 Y130.0481 I23.2765 J23.7232
G3 X97.2723 Y125.9005 I16.6176 J28.7826
G3 X91.1197 Y115.0497 I25.3211 J-21.5274
G1 F300.0 X92.256 Y114.6642
G3 F2500.0 X106.5757 Y76.6298 I30.3373 J-10.291
G3 X154.6287 Y104.3732 I16.0176 J27.7434
G3 X125.1346 Y136.3075 I-32.0353 J0.0
G1 X126.9622
G1 X127.4591
G1 X161.9155
G3 X162.0715 Y136.1508 I22.7808 J22.5232
G1 Y77.9382
G3 X156.7897 Y70.4576 I23.2598 J-22.0282
G1 X110.817
G3 X100.0184 Y68.2831 I0.0 J-27.9
G3 X72.9716 Y65.9496 I-11.0292 J-30.0769
G3 X72.5146 Y65.6807 I16.0176 J-27.7434
G3 X73.7562 Y74.2996 I-29.2962 J8.6189
G3 X73.5649 Y77.7123 I-30.5377 J0.0
G1 Y136.1255
G3 X73.7463 Y136.3075 I-22.5994 J22.7052
G1 X78.6006
G1 X78.9846
G3 X85.7478 Y131.0873 I22.7808 J22.5232
G3 X99.7741 Y126.8574 I16.0176 J27.7434
G3 X92.256 Y114.6642 I22.8193 J-22.4842
G1 F300.0 X93.3924 Y114.2787
G3 F2500.0 X107.1757 Y77.669 I29.2009 J-9.9055
G3 X153.4287 Y104.3732 I15.4176 J26.7041
G3 X121.5642 Y135.1913 I-30.8353 J0.0
G3 X124.0395 Y137.5075 I-19.7988 J23.6394
G1 X126.9622
G1 X127.4591
G1 X162.4222
G3 X163.2715 Y136.6543 I22.2741 J21.3232
G1 Y77.4548
G3 X157.5346 Y69.2576 I22.0598 J-21.5448
G1 X110.817
G3 X100.0488 Y66.9899 I0.0 J-26.7
G3 X73.5716 Y64.9104 I-11.0596 J-28.7837
G3 X70.1197 Y62.5938 I15.4176 J-26.7041
G3 X72.5562 Y74.2996 I-26.9012 J11.7058
G3 X72.3649 Y77.6443 I-29.3377 J0.0
G1 Y136.6298
G3 X73.2396 Y137.5075 I-21.3994 J22.2009
G1 X78.6006
G1 X79.0975
G1 X79.4913
G3 X86.3478 Y132.1266 I22.2741 J21.3232
G3 X102.7946 Y128.0126 I15.4176 J26.7041
G3 X93.3924 Y114.2787 I19.7988 J-23.6394
G0 Z3.0
G0 X60.8741 Y50.8693
G0 Z1.0
G1 F300.0 Z-3.0
G3 F2500.0 X60.6744 Y50.4162 I28.1152 J-12.663
G3 X60.5119 Y50.6007 I-23.2217 J-20.2871
G3 X60.8741 Y50.8693 I-17.2934 J23.6989
G1 F300.0 X60.1519 Y51.8277
G3 F2500.0 X71.3562 Y74.2996 I-16.9334 J22.4719
G3 X71.1649 Y77.575 I-28.1377 J0.0
G1 Y137.1458
G3 X72.7211 Y138.7075 I-20.1994 J21.6849
G1 X78.6006
G1 X79.0975
G1 X80.0098
G3 X86.9478 Y133.1658 I21.7556 J20.1232
G3 X107.2025 Y129.6984 I14.8176 J25.6649
G3 X107.7757 Y78.7083 I15.3909 J-25.3253
G3 X152.2287 Y104.3732 I14.8176 J25.6649
G3 X117.1563 Y133.5054 I-29.6353 J0.0
G3 X123.521 Y138.7075 I-15.3909 J25.3253
G1 X126.9622
G1 X127.4591
G1 X162.9407
G3 X164.4715 Y137.1695 I21.7556 J20.1232
G1 Y76.9604
G3 X158.3001 Y68.0576 I20.8598 J-21.0504
G1 X110.817
G3 X100.0811 Y65.6875 I0.0 J-25.5
G3 X74.1716 Y63.8711 I-11.0919 J-27.4813
G3 X61.0425 Y48.0669 I14.8176 J-25.6649
G3 X58.6908 Y50.7977 I-23.5899 J-17.9379
G3 X60.1519 Y51.8277 I-15.4723 J23.5019
G0 Z3.0
G0 X36.1761 Y17.3574
G0 Z1.0
G1 F300.0 Z-3.0
G1 F2500.0 X33.6264 Y16.1687
G1 X32.671 Y18.2177
G3 X36.1761 Y17.3574 I4.7817 J11.9113
G0 Z3.0
G0 X36.7728 Y23.3277
G0 Z1.0
G1 F300.0 Z-3.0
G3 F2500.0 X44.288 Y30.129 I0.6798 J6.8014
G3 X34.035 Y36.0486 I-6.8353 J0.0
G3 Y24.2095 I3.4176 J-5.9195
G3 X36.7728 Y23.3277 I3.4176 J5.9195
G1 F300.0 X36.892 Y24.5193
G3 F2500.0 X43.0904 Y30.129 I0.5607 J5.6097
G3 X34.6338 Y35.0114 I-5.6377 J0.0
G3 Y25.2467 I2.8188 J-4.8824
G3 X36.892 Y24.5193 I2.8188 J4.8824
G0 Z3.0
G0 X36.6535 Y22.1336
G0 Z1.0
G1 F300.0 Z-3.0
G2 F2500.0 X33.435 Y23.1703 I0.7992 J7.9954
G2 Y37.0878 I4.0176 J6.9588
G2 X45.488 Y30.129 I4.0176 J-6.9588
G2 X36.6535 Y22.1336 I-8.0353 J0.0
G1 F300.0 X36.5341 Y20.9396
G2 F2500.0 X32.835 Y22.1311 I0.9185 J9.1895
G2 Y38.127 I4.6176 J7.998
G2 X46.688 Y30.129 I4.6176 J-7.998
G2 X36.5341 Y20.9396 I-9.2353 J0.0
G1 F300.0 X36.4148 Y19.7455
G2 F2500.0 X32.235 Y21.0918 I1.0379 J10.3835
G2 Y39.1663 I5.2176 J9.0372
G2 X47.888 Y30.129 I5.2176 J-9.0372
G2 X36.4148 Y19.7455 I-10.4353 J0.0
G0 Z3.0
G0 X117.7164 Y99.584
G0 Z1.0
G1 F300.0 Z-3.0
G3 F2500.0 X119.1757 Y98.4536 I4.877 J4.7892
G3 X129.4287 Y104.3732 I3.4176 J5.9195
G3 X119.1757 Y110.2927 I-6.8353 J0.0
G3 X117.7164 Y99.584 I3.4176 J-5.9195
G1 F300.0 X118.5709 Y100.4231
G3 F2500.0 X119.7745 Y99.4908 I4.0225 J3.9501
G3 X128.2311 Y104.3732 I2.8188 J4.8824
G3 X119.7745 Y109.2555 I-5.6377 J0.0
G3 X118.5709 Y100.4231 I2.8188 J-4.8824
G0 Z3.0
G0 X116.8602 Y98.7432
G0 Z1.0
G1 F300.0 Z-3.0
G2 F2500.0 X118.5757 Y111.3319 I5.7332 J5.63
G2 X130.6287 Y104.3732 I4.0176 J-6.9588
G2 X118.5757 Y97.4144 I-8.0353 J0.0
G2 X116.8602 Y98.7432 I4.0176 J6.9588
G1 F300.0 X116.004 Y97.9024
G2 F2500.0 X117.9757 Y112.3712 I6.5894 J6.4708
G2 X131.8287 Y104.3732 I4.6176 J-7.998
G2 X117.9757 Y96.3752 I-9.2353 J0.0
G2 X116.004 Y97.9024 I4.6176 J7.998
G1 F300.0 X115.1478 Y97.0616
G2 F2500.0 X117.3757 Y113.4104 I7.4456 J7.3116
G2 X133.0287 Y104.3732 I5.2176 J-9.0372
G2 X117.3757 Y95.3359 I-10.4353 J0.0
G2 X115.1478 Y97.0616 I5.2176 J9.0372
G1 F300.0 X114.2916 Y96.2208
G2 F2500.0 X116.7757 Y114.4496 I8.3018 J8.1523
G2 X134.2287 Y104.3732 I5.8176 J-10.0765
G2 X116.7757 Y94.2967 I-11.6353 J0.0
G2 X114.2916 Y96.2208 I5.8176 J10.0765
G1 F300.0 X113.4354 Y95.38
G2 F2500.0 X116.1757 Y115.4888 I9.1579 J8.9931
G2 X135.4287 Y104.3732 I6.4176 J-11.1157
G2 X116.1757 Y93.2575 I-12.8353 J0.0
G2 X113.4354 Y95.38 I6.4176 J11.1157
G1 F300.0 X112.5792 Y94.5392
G2 F2500.0 X115.5757 Y116.5281 I10.0141 J9.8339
G2 X136.6287 Y104.3732 I7.0176 J-12.1549
G2 X115.5757 Y92.2183 I-14.0353 J0.0
G2 X112.5792 Y94.5392 I7.0176 J12.1549
G1 F300.0 X111.723 Y93.6985
G2 F2500.0 X114.9757 Y117.5673 I10.8703 J10.6747
G2 X137.8287 Y104.3732 I7.6176 J-13.1941
G2 X114.9757 Y91.179 I-15.2353 J0.0
G2 X111.723 Y93.6985 I7.6176 J13.1941
G1 F300.0 X110.8668 Y92.8577
G2 F2500.0 X114.3757 Y118.6065 I11.7265 J11.5155
G2 X139.0287 Y104.3732 I8.2176 J-14.2334
G2 X114.3757 Y90.1398 I-16.4353 J0.0
G2 X110.8668 Y92.8577 I8.2176 J14.2334
G1 F300.0 X110.0106 Y92.0169
G2 F2500.0 X113.7757 Y119.6458 I12.5827 J12.3563
G2 X140.2287 Y104.3732 I8.8176 J-15.2726
G2 X113.7757 Y89.1006 I-17.6353 J0.0
G2 X110.0106 Y92.0169 I8.8176 J15.2726
G1 F300.0 X109.1544 Y91.1761
G2 F2500.0 X113.1757 Y120.685 I13.4389 J13.1971
G2 X141.4287 Y104.3732 I9.4176 J-16.3118
G2 X113.1757 Y88.0613 I-18.8353 J0.0
G2 X109.1544 Y91.1761 I9.4176 J16.3118
G1 F300.0 X108.2982 Y90.3353
G2 F2500.0 X112.5757 Y121.7242 I14.2951 J14.0379
G2 X142.6287 Y104.3732 I10.0176 J-17.3511
G2 X112.5757 Y87.0221 I-20.0353 J0.0
G2 X108.2982 Y90.3353 I10.0176 J17.3511
G1 F300.0 X107.4421 Y89.4945
G2 F2500.0 X111.9757 Y122.7635 I15.1513 J14.8787
G2 X143.8287 Y104.3732 I10.6176 J-18.3903
G2 X111.9757 Y85.9829 I-21.2353 J0.0
G2 X107.4421 Y89.4945 I10.6176 J18.3903
G1 F300.0 X106.5859 Y88.6537
G2 F2500.0 X111.3757 Y123.8027 I16.0075 J15.7194
G2 X145.0287 Y104.3732 I11.2176 J-19.4295
G2 X111.3757 Y84.9436 I-22.4353 J0.0
G2 X106.5859 Y88.6537 I11.2176 J19.4295
G1 F300.0 X105.7297 Y87.8129
G2 F2500.0 X110.7757 Y124.8419 I16.8637 J16.5602
G2 X146.2287 Y104.3732 I11.8176 J-20.4688
G2 X110.7757 Y83.9044 I-23.6353 J0.0
G2 X105.7297 Y87.8129 I11.8176 J20.4688
G1 F300.0 X104.8735 Y86.9721
G2 F2500.0 X110.1757 Y125.8812 I17.7199 J17.401
G2 X147.4287 Y104.3732 I12.4176 J-21.508
G2 X110.1757 Y82.8652 I-24.8353 J0.0
G2 X104.8735 Y86.9721 I12.4176 J21.508
G1 F300.0 X104.0173 Y86.1314
G2 F2500.0 X109.5757 Y126.9204 I18.5761 J18.2418
G2 X148.6287 Y104.3732 I13.0176 J-22.5472
G2 X109.5757 Y81.8259 I-26.0353 J0.0
G2 X104.0173 Y86.1314 I13.0176 J22.5472
G1 F300.0 X103.1611 Y85.2906
G2 F2500.0 X108.9757 Y127.9596 I19.4323 J19.0826
G2 X149.8287 Y104.3732 I13.6176 J-23.5864
G2 X108.9757 Y80.7867 I-27.2353 J0.0
G2 X103.1611 Y85.2906 I13.6176 J23.5864
G1 F300.0 X102.3049 Y84.4498
G2 F2500.0 X108.3757 Y128.9988 I20.2885 J19.9234
G2 X151.0287 Y104.3732 I14.2176 J-24.6257
G2 X108.3757 Y79.7475 I-28.4353 J0.0
G2 X102.3049 Y84.4498 I14.2176 J24.6257
G0 Z3.0
G0 X105.9783 Y66.371
G0 Z1.0
G1 F300.0 Z-3.0
G3 F2500.0 X100.5489 Y64.5816 I4.8387 J-23.8134
G1 X100.1097 Y64.3768
G3 X74.7716 Y62.8319 I-11.1205 J-26.1706
G3 X61.7944 Y46.5134 I14.2176 J-24.6257
G1 X60.962 Y46.1253
G3 X56.7545 Y51.0098 I-23.5093 J-15.9962
G3 X70.1562 Y74.2996 I-13.536 J23.2898
G3 X69.9649 Y77.5041 I-26.9377 J0.0
G1 Y137.6744
G3 X72.1899 Y139.9075 I-18.9994 J21.1563
G1 X78.6006
G1 X79.0975
G1 X80.541
G3 X87.5478 Y134.205 I21.2245 J18.9232
G3 X122.9899 Y139.9075 I14.2176 J24.6257
G1 X126.9622
G1 X127.4591
G1 X163.4719
G3 X165.6715 Y137.6973 I21.2245 J18.9232
G1 Y76.4541
G3 X159.0879 Y66.8576 I19.6598 J-20.544
G1 X110.817
G3 X105.9783 Y66.371 I0.0 J-24.3
G1 F300.0 X106.2173 Y65.195
G3 F2500.0 X101.056 Y63.494 I4.5997 J-22.6374
G1 X100.126 Y63.0605
G3 X75.3716 Y61.7927 I-11.1368 J-24.8542
G3 X62.7922 Y45.6546 I13.6176 J-23.5864
G1 X60.5265 Y44.5983
G3 X54.6562 Y51.243 I-23.0738 J-14.4692
G3 X68.9562 Y74.2996 I-11.4377 J23.0566
G3 X68.7649 Y77.4317 I-25.7377 J0.0
G1 Y138.2166
G3 X71.6451 Y141.1075 I-17.7994 J20.6141
G1 X78.6006
G1 X79.0975
G1 X81.0857
G3 X88.1478 Y135.2443 I20.6797 J17.7232
G3 X122.4451 Y141.1075 I13.6176 J23.5864
G1 X126.9622
G1 X127.4591
G1 X164.0166
G3 X166.8715 Y138.2385 I20.6797 J17.7232
G1 Y75.9349
G3 X159.9001 Y65.6576 I18.4598 J-20.0249
G1 X110.817
G3 X106.2173 Y65.195 I0.0 J-23.1
G1 F300.0 X106.4562 Y64.0191
G3 F2500.0 X101.5631 Y62.4064 I4.3608 J-21.4614
G1 X100.1291 Y61.7379
G3 X75.9716 Y60.7535 I-11.1399 J-23.5316
G3 X63.8033 Y44.8019 I13.0176 J-22.5472
G1 X60.0534 Y43.0537
G3 X52.3105 Y51.5085 I-22.6007 J-12.9246
G3 X67.7562 Y74.2996 I-9.092 J22.7911
G3 X67.5649 Y77.3575 I-24.5377 J0.0
G1 Y138.7734
G3 X71.0856 Y142.3075 I-16.5994 J20.0573
G1 X78.6006
G1 X79.0975
G1 X81.6453
G3 X88.7478 Y136.2835 I20.1201 J16.5232
G3 X121.8855 Y142.3075 I13.0176 J22.5472
G1 X126.9622
G1 X127.4591
G1 X164.5762
G3 X168.0715 Y138.7944 I20.1201 J16.5232
G1 Y75.4019
G3 X160.7392 Y64.4576 I17.2598 J-19.4919
G1 X110.817
G3 X106.4562 Y64.0191 I0.0 J-21.9
G1 F300.0 X106.6952 Y62.8431
G3 F2500.0 X102.0701 Y61.3188 I4.1219 J-20.2855
G1 X100.1178 Y60.4086
G3 X76.5716 Y59.7142 I-11.1286 J-22.2024
G3 X64.8287 Y43.956 I12.4176 J-21.508
G1 X59.5375 Y41.4891
G3 X49.5281 Y51.831 I-22.0848 J-11.3601
G3 X66.5562 Y74.2996 I-6.3096 J22.4686
G3 X66.3649 Y77.2815 I-23.3377 J0.0
G1 Y139.3461
G3 X70.51 Y143.5075 I-15.3994 J19.4846
G1 X78.6006
G1 X79.0975
G1 X82.2208
G3 X89.3478 Y137.3227 I19.5446 J15.3232
G3 X121.31 Y143.5075 I12.4176 J21.508
G1 X126.9622
G1 X127.4591
G1 X165.1517
G3 X169.2715 Y139.3662 I19.5446 J15.3232
G1 Y74.854
G3 X161.6078 Y63.2576 I16.0598 J-18.944
G1 X110.817
G3 X106.6952 Y62.8431 I0.0 J-20.7
G1 F300.0 X106.9341 Y61.6671
G3 F2500.0 X102.5772 Y60.2312 I3.8829 J-19.1095
G1 X100.0908 Y59.072
G3 X77.1716 Y58.675 I-11.1016 J-20.8658
G3 X65.8698 Y43.1174 I11.8176 J-20.4688
G1 X58.9729 Y39.9019
G3 X45.653 Y52.2962 I-21.5202 J-9.7728
G3 X65.3562 Y74.2996 I-2.4345 J22.0034
G3 X65.1649 Y77.2035 I-22.1377 J0.0
G1 Y139.9362
G3 X69.917 Y144.7075 I-14.1994 J18.8945
G1 X78.6006
G1 X79.0975
G1 X82.8138
G3 X89.9478 Y138.3619 I18.9516 J14.1232
G3 X120.717 Y144.7075 I11.8176 J20.4688
G1 X126.9622
G1 X127.4591
G1 X165.7448
G3 X170.4715 Y139.9553 I18.9516 J14.1232
G1 Y74.2897
G3 X162.5095 Y62.0576 I14.8598 J-18.3797
G1 X110.817
G3 X106.9341 Y61.6671 I0.0 J-19.5
G1 F300.0 X107.1731 Y60.4912
G3 F2500.0 X103.0843 Y59.1436 I3.644 J-17.9335
G1 X100.0466 Y57.7274
G3 X77.7716 Y57.6358 I-11.0574 J-19.5212
G3 X66.9282 Y42.2868 I11.2176 J-19.4295
G1 X58.3517 Y38.2883
G3 X36.7456 Y52.5532 I-20.899 J-8.1592
G1 X39.2811 Y53.7355
G3 X43.2185 Y53.3619 I3.9374 J20.5641
G3 X64.1562 Y74.2996 I0.0 J20.9377
G3 X63.9649 Y77.1234 I-20.9377 J0.0
G1 Y140.5453
G3 X69.3048 Y145.9075 I-12.9994 J18.2854
G1 X78.6006
G1 X79.0975
G1 X83.426
G3 X90.5478 Y139.4012 I18.3394 J12.9232
G3 X120.1048 Y145.9075 I11.2176 J19.4295
G1 X126.9622
G1 X127.4591
G1 X166.3569
G3 X171.6715 Y140.5633 I18.3394 J12.9232
G1 Y73.7075
G3 X163.4484 Y60.8576 I13.6598 J-17.7975
G1 X110.817
G3 X107.1731 Y60.4912 I0.0 J-18.3
G1 F300.0 X107.412 Y59.3152
G3 F2500.0 X103.5913 Y58.056 I3.405 J-16.7576
G1 X99.9834 Y56.3739
G3 X78.3716 Y56.5965 I-10.9942 J-18.1677
G3 X68.0055 Y41.4651 I10.6176 J-18.3903
G1 X57.664 Y36.6436
G3 X27.6108 Y48.9459 I-20.2113 J-6.5146
G1 X27.3535 Y49.4977
G1 X39.1314 Y54.9897
G3 X43.2185 Y54.5619 I4.0871 J19.3099
G3 X62.9562 Y74.2996 I0.0 J19.7377
G3 X62.7649 Y77.0409 I-19.7377 J0.0
G1 Y141.1754
G3 X68.6715 Y147.1075 I-11.7994 J17.6553
G1 X78.6006
G1 X79.0975
G1 X84.0594
G3 X91.1478 Y140.4404 I17.706 J11.7232
G3 X119.4714 Y147.1075 I10.6176 J18.3903
G1 X126.9622
G1 X127.4591
G1 X166.9903
G3 X172.8715 Y141.1924 I17.706 J11.7232
G1 Y73.1057
G3 X164.4293 Y59.6576 I12.4598 J-17.1957
G1 X110.817
G3 X107.412 Y59.3152 I0.0 J-17.1
G1 F300.0 X107.651 Y58.1392
G3 F2500.0 X104.0984 Y56.9684 I3.1661 J-15.5816
G1 X99.8991 Y55.0106
G3 X78.9716 Y55.5573 I-10.9099 J-16.8044
G3 X69.1039 Y40.6532 I10.0176 J-17.3511
G1 X56.8964 Y34.9617
G3 X27.435 Y47.4801 I-19.4437 J-4.8327
G3 X27.0707 Y47.2646 I10.0176 J-17.3511
G1 X25.7588 Y50.0781
G1 X38.994 Y56.2497
G3 X43.2185 Y55.7619 I4.2245 J18.0499
G3 X61.7562 Y74.2996 I0.0 J18.5377
G3 X61.5649 Y76.9558 I-18.5377 J0.0
G1 Y141.8288
G3 X68.0147 Y148.3075 I-10.5994 J17.0019
G1 X78.6006
G1 X79.0975
G1 X84.7162
G3 X91.7478 Y141.4796 I17.0492 J10.5232
G3 X118.8146 Y148.3075 I10.0176 J17.3511
G1 X126.9622
G1 X127.4591
G1 X167.6471
G3 X174.0715 Y141.8446 I17.0492 J10.5232
G1 Y72.482
G3 X165.4587 Y58.4576 I11.2598 J-16.5719
G1 X110.817
G3 X107.651 Y58.1392 I0.0 J-15.9
G1 F300.0 X107.8899 Y56.9633
G3 F2500.0 X104.6055 Y55.8808 I2.9271 J-14.4056
G1 X99.7912 Y53.6363
G3 X79.5716 Y54.5181 I-10.802 J-15.43
G3 X70.226 Y39.8523 I9.4176 J-16.3118
G1 X56.0303 Y33.2339
G3 X28.035 Y46.4409 I-18.5776 J-3.1049
G3 X26.5689 Y45.5014 I9.4176 J-16.3118
G1 X24.1641 Y50.6585
G1 X38.8702 Y57.516
G3 X43.2185 Y56.9619 I4.3483 J16.7836
G3 X60.5562 Y74.2996 I0.0 J17.3377
G3 X60.3649 Y76.8679 I-17.3377 J0.0
G1 Y142.5084
G3 X67.3315 Y149.5075 I-9.3994 J16.3223
G1 X78.6006
G1 X79.0975
G1 X85.3994
G3 X92.3478 Y142.5189 I16.366 J9.3232
G3 X118.1314 Y149.5075 I9.4176 J16.3118
G1 X126.9622
G1 X127.4591
G1 X168.3303
G3 X175.2715 Y142.523 I16.366 J9.3232
G1 Y71.8338
G3 X166.5443 Y57.2576 I10.0598 J-15.9238
G1 X110.817
G3 X107.8899 Y56.9633 I0.0 J-14.7
G1 F300.0 X108.1289 Y55.7873
G3 F2500.0 X105.1125 Y54.7932 I2.6882 J-13.2297
G1 X99.6565 Y52.2495
G3 X80.1716 Y53.4788 I-10.6673 J-14.0432
G3 X71.3748 Y39.0639 I8.8176 J-15.2726
G1 X55.0386 Y31.4476
G3 X28.635 Y45.4016 I-17.5859 J-1.3185
G3 X26.1145 Y43.6364 I8.8176 J-15.2726
G1 X22.5694 Y51.239
G1 X38.7618 Y58.7895
G3 X43.2185 Y58.1619 I4.4567 J15.5101
G3 X59.3562 Y74.2996 I0.0 J16.1377
G3 X59.1649 Y76.7769 I-16.1377 J0.0
G1 Y143.2175
G3 X66.6185 Y150.7075 I-8.1994 J15.6132
G1 X78.6006
G1 X79.0975
G1 X86.1124
G3 X92.9478 Y143.5581 I15.653 J8.1232
G3 X117.4184 Y150.7075 I8.8176 J15.2726
G1 X126.9622
G1 X127.4591
G1 X169.0433
G3 X175.8787 Y143.5581 I15.653 J8.1232
G3 X176.4715 Y143.2308 I8.8176 J15.2726
G1 Y71.1582
G3 X167.6967 Y56.0576 I8.8598 J-15.2482
G1 X110.817
G3 X108.1289 Y55.7873 I0.0 J-13.5
G1 F300.0 X108.3678 Y54.6113
G3 F2500.0 X105.6196 Y53.7056 I2.4492 J-12.0537
G1 X99.4913 Y50.8484
G3 X80.7716 Y52.4396 I-10.5021 J-12.6422
G3 X72.5542 Y38.2897 I8.2176 J-14.2334
G1 X53.8789 Y29.5829
G3 X53.888 Y30.129 I-16.4262 J0.5462
G3 X29.235 Y44.3624 I-16.4353 J0.0
G3 X25.7214 Y41.6398 I8.2176 J-14.2334
G1 X20.9747 Y51.8194
G1 X38.6706 Y60.0711
G3 X43.2185 Y59.3619 I4.5479 J14.2285
G3 X58.1562 Y74.2996 I0.0 J14.9377
G3 X57.9649 Y76.6825 I-14.9377 J0.0
G1 Y143.9604
G3 X65.8714 Y151.9075 I-6.9994 J14.8703
G1 X78.6006
G1 X79.0975
G1 X86.8594
G3 X93.5478 Y144.5973 I14.906 J6.9232
G3 X116.6714 Y151.9075 I8.2176 J14.2334
G1 X126.9622
G1 X127.4591
G1 X169.7904
G3 X176.4787 Y144.5973 I14.906 J6.9232
G3 X177.6715 Y143.9724 I8.2176 J14.2334
G1 Y70.4512
G3 X177.1137 Y70.1434 I7.6598 J-14.5412
G3 X168.9298 Y54.8576 I8.2176 J-14.2334
G1 X110.817
G3 X108.3678 Y54.6113 I0.0 J-12.3
G1 F300.0 X108.6068 Y53.4353
G3 F2500.0 X106.1267 Y52.618 I2.2103 J-10.8777
G1 X99.2907 Y49.4309
G3 X81.3716 Y51.4004 I-10.3015 J-11.2247
G3 X73.7689 Y37.532 I7.6176 J-13.1941
G1 X52.4775 Y27.6055
G3 X52.688 Y30.129 I-15.0248 J2.5235
G3 X29.835 Y43.3232 I-15.2353 J0.0
G3 X25.4121 Y39.4638 I7.6176 J-13.1941
G1 X19.38 Y52.3998
G1 X38.5992 Y61.3618
G3 X43.2185 Y60.5619 I4.6193 J12.9378
G3 X56.9562 Y74.2996 I0.0 J13.7377
G3 X56.7649 Y76.5841 I-13.7377 J0.0
G1 Y144.7424
G3 X65.0849 Y153.1075 I-5.7994 J14.0883
G1 X78.6006
G1 X79.0975
G1 X87.646
G3 X94.1478 Y145.6366 I14.1194 J5.7232
G3 X115.8849 Y153.1075 I7.6176 J13.1941
G1 X126.9622
G1 X127.4591
G1 X170.5769
G3 X177.0787 Y145.6366 I14.1194 J5.7232
G3 X178.8715 Y144.7529 I7.6176 J13.1941
G1 Y69.708
G3 X177.7137 Y69.1042 I6.4598 J-13.798
G3 X170.2634 Y53.6576 I7.6176 J-13.1941
G1 X110.817
G3 X108.6068 Y53.4353 I0.0 J-11.1
G1 F300.0 X108.8457 Y52.2594
G3 F2500.0 X106.6337 Y51.5304 I1.9713 J-9.7017
G1 X99.0485 Y47.994
G3 X81.9716 Y50.3611 I-10.0593 J-9.7877
G3 X75.0252 Y36.7938 I7.0176 J-12.1549
G1 X50.6833 Y25.445
G3 X51.488 Y30.129 I-13.2306 J4.684
G3 X30.435 Y42.284 I-14.0353 J0.0
G3 X25.2266 Y37.022 I7.0176 J-12.1549
G1 X17.7853 Y52.9803
G1 X38.5506 Y62.6632
G3 X43.2185 Y61.7619 I4.6678 J11.6364
G3 X55.7562 Y74.2996 I0.0 J12.5377
G3 X55.5649 Y76.4813 I-12.5377 J0.0
G1 Y145.5704
G3 X64.2519 Y154.3075 I-4.5994 J13.2603
G1 X78.6006
G1 X79.0975
G1 X88.479
G3 X94.7478 Y146.6758 I13.2865 J4.5232
G3 X115.0519 Y154.3075 I7.0176 J12.1549
G1 X115.456
G1 X126.9622
G1 X127.4591
G1 X171.4099
G3 X177.6787 Y146.6758 I13.2865 J4.5232
G3 X180.0715 Y145.5793 I7.0176 J12.1549
G1 Y68.9225
G3 X178.3137 Y68.0649 I5.2598 J-13.0124
G3 X171.7273 Y52.4576 I7.0176 J-12.1549
G1 X110.817
G3 X108.8457 Y52.2594 I0.0 J-9.9
G1 F300.0 X109.0847 Y51.0834
G3 F2500.0 X107.1408 Y50.4428 I1.7324 J-8.5258
G1 X98.7564 Y46.5338
G3 X82.5716 Y49.3219 I-9.7671 J-8.3275
G3 X76.3315 Y36.0788 I6.4176 J-11.1157
G1 X48.0559 Y22.8961
G3 X50.288 Y30.129 I-10.6032 J7.233
G3 X31.035 Y41.2447 I-12.8353 J0.0
G3 X25.2545 Y34.1227 I6.4176 J-11.1157
G1 X16.1906 Y53.5607
G1 X38.529 Y63.9772
G3 X43.2185 Y62.9619 I4.6895 J10.3224
G3 X54.5562 Y74.2996 I0.0 J11.3377
G3 X54.3649 Y76.3735 I-11.3377 J0.0
G1 Y146.4538
G3 X63.3631 Y155.5075 I-3.3994 J12.3769
G1 X78.6006
G1 X79.0975
G1 X89.3678
G3 X95.3478 Y147.715 I12.3976 J3.3232
G3 X114.163 Y155.5075 I6.4176 J11.1157
G1 X114.9591
G1 X115.456
G1 X126.9622
G1 X127.4591
G1 X172.2987
G3 X178.2787 Y147.715 I12.3976 J3.3232
G3 X181.2715 Y146.4608 I6.4176 J11.1157
G1 Y68.0863
G3 X178.9137 Y67.0257 I4.0598 J-12.1763
G3 X173.3689 Y51.2576 I6.4176 J-11.1157
G1 X110.817
G3 X109.0847 Y51.0834 I0.0 J-8.7
G1 F300.0 X109.3236 Y49.9074
G3 F2500.0 X107.6479 Y49.3552 I1.4934 J-7.3498
G1 X98.4027 Y45.0448
G3 X83.1716 Y48.2827 I-9.4135 J-6.8386
G3 X77.6993 Y35.3925 I5.8176 J-10.0765
G1 X33.046 Y14.5741
G1 X29.9328 Y21.2503
G3 X31.635 Y20.0526 I7.5199 J8.8787
G3 X49.088 Y30.129 I5.8176 J10.0765
G3 X31.635 Y40.2055 I-11.6353 J0.0
G3 X25.8175 Y30.0758 I5.8176 J-10.0765
G1 X14.5959 Y54.1411
G1 X38.5396 Y65.3062
G3 X43.2185 Y64.1619 I4.6788 J8.9934
G3 X53.3562 Y74.2996 I0.0 J10.1377
G3 X53.1649 Y76.2597 I-10.1377 J0.0
G1 Y147.4052
G3 X62.4054 Y156.7075 I-2.1994 J11.4255
G1 X78.6006
G1 X79.0975
G1 X90.3255
G3 X95.9478 Y148.7543 I11.4399 J2.1232
G3 X113.2053 Y156.7075 I5.8176 J10.0765
G1 X114.9591
G1 X115.456
G1 X126.9622
G1 X127.4591
G1 X173.2564
G3 X178.8787 Y148.7543 I11.4399 J2.1232
G3 X182.4715 Y147.4101 I5.8176 J10.0765
G1 Y67.1884
G3 X179.5137 Y65.9865 I2.8598 J-11.2784
G3 X175.275 Y50.0576 I5.8176 J-10.0765
G1 X110.817
G3 X109.3236 Y49.9074 I0.0 J-7.5
G1 F300.0 X109.5626 Y48.7315
G3 F2500.0 X108.1549 Y48.2676 I1.2545 J-6.1738
G1 X97.9706 Y43.5194
G3 X83.7716 Y47.2435 I-8.9814 J-5.3132
G3 X79.1455 Y34.7427 I5.2176 J-9.0372
G1 X32.4655 Y12.9794
G1 X13.0012 Y54.7216
G1 X38.59 Y66.6537
G3 X43.2185 Y65.3619 I4.6285 J7.6459
G3 X52.1562 Y74.2996 I0.0 J8.9377
G3 X51.9649 Y76.1388 I-8.9377 J0.0
G1 Y148.4434
G3 X61.3598 Y157.9075 I-0.9994 J10.3873
G1 X61.4303
G1 X78.6006
G1 X79.0975
G1 X91.371
G3 X96.5478 Y149.7935 I10.3944 J0.9232
G3 X112.1598 Y157.9075 I5.2176 J9.0372
G1 X114.9591
G1 X115.456
G1 X126.9622
G1 X127.4591
G1 X174.302
G3 X179.4787 Y149.7935 I10.3944 J0.9232
G3 X183.6715 Y148.4459 I5.2176 J9.0372
G1 Y66.2125
G3 X180.1137 Y64.9472 I1.6598 J-10.3024
G3 X177.5942 Y48.9077 I5.2176 J-9.0372
G1 X177.5441 Y48.8576
G1 X110.817
G3 X109.5626 Y48.7315 I0.0 J-6.3
G1 F300.0 X109.8015 Y47.5555
G3 F2500.0 X108.662 Y47.18 I1.0155 J-4.9979
G1 X97.4338 Y41.9451
G3 X84.3716 Y46.2042 I-8.4446 J-3.7389
G3 X80.6964 Y34.1418 I4.6176 J-7.998
G1 X32.3201 Y11.5876
G1 X31.6823 Y11.8195
G1 X11.6094 Y54.8668
G1 X11.8419 Y55.5051
G1 X38.6909 Y68.0248
G3 X43.2185 Y66.5619 I4.5276 J6.2748
G3 X50.9562 Y74.2996 I0.0 J7.7377
G3 X50.7649 Y76.0095 I-7.7377 J0.0
G1 Y149.5976
G3 X60.2007 Y158.8307 I0.2006 J9.2331
G3 X60.1966 Y159.1075 I-9.2353 J0.0
G1 X60.9333
G1 X61.4303
G1 X78.6006
G1 X79.0975
G1 X92.5343
G3 X97.1478 Y150.8327 I9.2311 J-0.2768
G3 X111.0007 Y158.8307 I4.6176 J7.998
G3 X110.9965 Y159.1075 I-9.2353 J0.0
G1 X114.9591
G1 X115.456
G1 X126.9622
G1 X127.4591
G1 X175.4652
G3 X180.0787 Y150.8327 I9.2311 J-0.2768
G3 X184.8715 Y149.5971 I4.6176 J7.998
G1 Y65.1338
G3 X180.7137 Y63.908 I0.4598 J-9.2238
G3 X179.2998 Y48.9163 I4.6176 J-7.998
G1 X178.0411 Y47.6576
G1 X110.817
G3 X109.8015 Y47.5555 I0.0 J-5.1
G1 F300.0 X110.0404 Y46.3795
G3 F2500.0 X109.1691 Y46.0923 I0.7766 J-3.8219
G1 X96.7467 Y40.3008
G3 X84.9716 Y45.165 I-7.7575 J-2.0945
G3 X82.3977 Y33.6109 I4.0176 J-6.9588
G1 X32.3769 Y10.2901
G1 X30.8049 Y10.8617
G1 X10.3117 Y54.8103
G1 X10.8844 Y56.3826
G1 X38.8592 Y69.4274
G3 X43.2185 Y67.7619 I4.3592 J4.8722
G3 X49.7562 Y74.2996 I0.0 J6.5377
G3 X49.5649 Y75.8695 I-6.5377 J0.0
G1 Y150.9184
G3 X59.0007 Y158.8307 I1.4006 J7.9123
G3 X58.8639 Y160.3075 I-8.0353 J0.0
G1 X60.9333
G1 X61.4303
G1 X78.6006
G1 X79.0975
G1 X93.867
G3 X97.7478 Y151.8719 I7.8984 J-1.4768
G3 X109.8007 Y158.8307 I4.0176 J6.9588
G3 X109.6638 Y160.3075 I-8.0353 J0.0
G1 X114.9591
G1 X115.456
G1 X126.9622
G1 X127.4591
G1 X176.7979
G3 X180.6787 Y151.8719 I7.8984 J-1.4768
G3 X186.0715 Y150.914 I4.0176 J6.9588
G1 Y63.9111
G3 X181.3137 Y62.8688 I-0.7402 J-8.0011
G3 X181.1369 Y49.0563 I4.0176 J-6.9588
G1 X178.5382 Y46.4576
G1 X110.817
G3 X110.0404 Y46.3795 I0.0 J-3.9
G1 F300.0 X110.2794 Y45.2036
G3 F2500.0 X109.6761 Y45.0047 I0.5376 J-2.6459
G1 X95.8162 Y38.5429
G3 X85.5716 Y44.1258 I-6.827 J-0.3367
G3 X84.3423 Y33.1935 I3.4176 J-5.9195
G1 X32.4337 Y8.9926
G1 X29.9275 Y9.9039
G1 X9.014 Y54.7538
G1 X9.927 Y57.2602
G1 X39.1242 Y70.875
G3 X43.2185 Y68.9619 I4.0943 J3.4246
G3 X48.5562 Y74.2996 I0.0 J5.3377
G3 X48.3649 Y75.7157 I-5.3377 J0.0
G1 Y152.5095
G3 X57.8007 Y158.8307 I2.6006 J6.3212
G3 X57.2548 Y161.5075 I-6.8353 J0.0
G1 X60.9333
G1 X61.4303
G1 X78.6006
G1 X79.0975
G1 X95.4761
G3 X98.3478 Y152.9112 I6.2893 J-2.6768
G3 X108.6007 Y158.8307 I3.4176 J5.9195
G3 X108.0548 Y161.5075 I-6.8353 J0.0
G1 X114.9591
G1 X115.456
G1 X126.9622
G1 X127.4591
G1 X178.407
G3 X181.2787 Y152.9112 I6.2893 J-2.6768
G3 X187.2715 Y152.4991 I3.4176 J5.9195
G1 Y62.4642
G3 X181.9137 Y61.8295 I-1.9402 J-6.5541
G3 Y49.9905 I3.4176 J-5.9195
G3 X183.1948 Y49.4172 I3.4176 J5.9195
G1 X179.0353 Y45.2576
G1 X110.817
G3 X110.2794 Y45.2036 I0.0 J-2.7
G1 F300.0 X110.5183 Y44.0276
G3 F2500.0 X110.1832 Y43.9171 I0.2987 J-1.47
G1 X94.3776 Y36.5482
G3 X94.6269 Y38.2062 I-5.3884 J1.658
G3 X86.1704 Y43.0886 I-5.6377 J0.0
G3 Y33.3239 I2.8188 J-4.8824
G3 X86.7951 Y33.0131 I2.8188 J4.8824
G1 X32.4905 Y7.695
G1 X29.05 Y8.9461
G1 X7.7163 Y54.6973
G1 X8.9695 Y58.1378
G1 X39.5451 Y72.3953
G3 X43.2185 Y70.1619 I3.6734 J1.9043
G3 X47.3562 Y74.2996 I0.0 J4.1377
G3 X47.1649 Y75.5431 I-4.1377 J0.0
G1 Y154.6667
G3 X48.1466 Y153.9483 I3.8006 J4.164
G3 X56.6031 Y158.8307 I2.8188 J4.8824
G3 X55.0586 Y162.7075 I-5.6377 J0.0
G1 X60.9333
G1 X61.4303
G1 X78.6006
G1 X79.0975
G1 X97.6723
G3 X98.9466 Y153.9483 I4.0932 J-3.8768
G3 X107.4031 Y158.8307 I2.8188 J4.8824
G3 X105.8586 Y162.7075 I-5.6377 J0.0
G1 X114.9591
G1 X115.456
G1 X126.9622
G1 X127.4591
G1 X180.6032
G3 X181.8775 Y153.9483 I4.0932 J-3.8768
G3 X188.4715 Y154.6437 I2.8188 J4.8824
G1 Y60.5922
G3 X182.5125 Y60.7924 I-3.1402 J-4.6822
G3 Y51.0276 I2.8188 J-4.8824
G3 X185.7636 Y50.2889 I2.8188 J4.8824
G1 X179.5323 Y44.0576
G1 X110.817
G3 X110.5183 Y44.0276 I0.0 J-1.5
G0 Z3.0
G0 X85.6601 Y81.5137
G0 Z-2.0
G1 F300.0 Z-6.0
G3 F2500.0 X84.9649 Y81.4547 I3.3292 J-43.3075
G1 Y82.6771
G3 X85.6601 Y81.5137 I37.6285 J21.6961
G1 F300.0 X86.1702 Y81.8295
G3 F2500.0 X86.7094 Y80.9808 I36.4231 J22.5436
G3 X84.3649 Y80.7912 I2.2798 J-42.7746
G1 Y85.0485
G3 X86.1702 Y81.8295 I38.2285 J19.3247
G1 F300.0 X87.1906 Y82.4611
G3 F2500.0 X88.9527 Y79.8415 I35.4028 J21.9121
G3 X83.1649 Y79.4321 I0.0365 J-41.6353
G1 Y90.9982
G3 X87.1906 Y82.4611 I39.4285 J13.3749
G0 Z3.0
G0 X83.1649 Y117.7481
G0 Z-2.0
G1 F300.0 Z-6.0
G1 F2500.0 Y121.5813
G3 X84.4147 Y120.983 I18.6005 J37.2494
G3 X83.1649 Y117.7481 I38.1787 J-16.6098
G1 F300.0 X84.3013 Y117.3626
G3 F2500.0 X91.4649 Y78.5657 I38.2921 J-12.9895
G3 X81.9772 Y78.0289 I-2.4756 J-40.3594
G3 X81.9649 Y78.1545 I-38.7587 J-3.7293
G1 Y123.5752
G3 X86.0076 Y121.5922 I19.8005 J35.2555
G3 X84.3013 Y117.3626 I36.5857 J-17.2191
G1 F300.0 X85.4377 Y116.9771
G3 F2500.0 X94.4227 Y77.0635 I37.1557 J-12.604
G3 X80.8862 Y76.5957 I-5.4335 J-38.8572
G3 X80.7649 Y78.0944 I-37.6678 J-2.2961
G1 Y125.6888
G3 X82.1478 Y124.852 I21.0005 J33.1419
G3 X87.6528 Y122.2214 I19.6176 J33.9788
G3 X85.4377 Y116.9771 I34.9406 J-17.8482
G1 F300.0 X86.5741 Y116.5916
G3 F2500.0 X98.3392 Y75.0744 I36.0193 J-12.2185
G3 X79.7474 Y75.1016 I-9.35 J-36.8681
G3 X79.5649 Y78.0335 I-36.5289 J-0.802
G1 Y127.9467
G3 X82.7478 Y125.8912 I22.2005 J30.884
G3 X89.3613 Y122.8749 I19.0176 J32.9395
G3 X86.5741 Y116.5916 I33.2321 J-18.5017
G1 F300.0 X87.7105 Y116.2062
G3 F2500.0 X101.7775 Y73.9834 I34.8829 J-11.833
G3 X99.9106 Y73.3852 I9.0395 J-31.4257
G3 X78.5478 Y73.5307 I-10.9214 J-35.179
G3 X78.5562 Y74.2996 I-35.3293 J0.7689
G3 X78.3649 Y77.9715 I-35.3377 J0.0
G1 Y130.3833
G3 X83.3478 Y126.9304 I23.4005 J28.4474
G3 X91.1488 Y123.5585 I18.4176 J31.9003
G3 X87.7105 Y116.2062 I31.4446 J-19.1854
G1 F300.0 X88.8469 Y115.8207
G3 F2500.0 X104.7757 Y73.5121 I33.7465 J-11.4475
G3 X104.8266 Y73.4828 I17.8176 J30.8611
G3 X99.9358 Y72.1186 I5.9904 J-30.9252
G3 X77.2688 Y71.859 I-10.9466 J-33.9123
G3 X77.3562 Y74.2996 I-34.0503 J2.4406
G3 X77.1649 Y77.9084 I-34.1377 J0.0
G1 Y132.7075
G1 X77.528
G3 X83.9478 Y127.9696 I24.2374 J26.1232
G3 X93.0374 Y124.2808 I17.8176 J30.8611
G3 X88.8469 Y115.8207 I29.556 J-19.9077
G1 F300.0 X89.9833 Y115.4352
G3 F2500.0 X105.3757 Y74.5513 I32.6101 J-11.062
G3 X108.8612 Y72.7944 I17.2176 J29.8218
G3 X99.962 Y70.8465 I1.9558 J-30.2368
G3 X75.8807 Y70.0489 I-10.9728 J-32.6403
G3 X76.1562 Y74.2996 I-32.6623 J4.2507
G3 X75.9649 Y77.8442 I-32.9377 J0.0
G1 Y133.9075
G1 X78.0036
G3 X84.5478 Y129.0089 I23.7618 J24.9232
G3 X95.0603 Y125.0545 I17.2176 J29.8218
G3 X89.9833 Y115.4352 I27.5331 J-20.6814
G1 F300.0 X91.1197 Y115.0497
G3 F2500.0 X105.9757 Y75.5906 I31.4737 J-10.6765
G3 X116.7386 Y71.6576 I16.6176 J28.7826
G1 X110.817
G3 X99.9895 Y69.5683 I0.0 J-29.1
G3 X74.3317 Y68.0348 I-11.0003 J-31.362
G3 X74.9562 Y74.2996 I-31.1132 J6.2648
G3 X74.7649 Y77.7789 I-31.7377 J0.0
G1 Y135.1075
G1 X78.4889
G3 X85.1478 Y130.0481 I23.2765 J23.7232
G3 X97.2723 Y125.9005 I16.6176 J28.7826
G3 X91.1197 Y115.0497 I25.3211 J-21.5274
G0 Z3.0
G0 X153.0502 Y129.1075
G0 Z-2.0
G1 F300.0 Z-6.0
G1 F2500.0 X154.8715
G1 Y126.6785
G3 X153.0502 Y129.1075 I-32.2781 J-22.3054
G1 F300.0 Y130.3075
G1 F2500.0 X156.0715
G1 Y122.4258
G3 X150.4159 Y130.3075 I-33.4781 J-18.0526
G1 X153.0502
G1 F300.0 Y131.5075
G1 F2500.0 X157.2715
G1 Y116.7935
G3 X147.5045 Y131.5075 I-34.6781 J-12.4204
G1 X153.0502
G0 Z3.0
G0 X154.8715 Y82.0678
G0 Z-2.0
G1 F300.0 Z-6.0
G1 F2500.0 Y80.6407
G3 X152.6748 Y77.6576 I30.4598 J-24.7307
G1 X151.3282
G3 X154.8715 Y82.0678 I-28.7348 J26.7155
G1 F300.0 X156.0715
G1 F2500.0 Y80.2112
G3 X153.3238 Y76.4576 I29.2598 J-24.3012
G1 X148.4276
G3 X156.0715 Y86.3205 I-25.8342 J27.9155
G1 Y82.0678
G1 F300.0 X157.2715
G1 F2500.0 Y79.7739
G3 X153.9863 Y75.2576 I28.0598 J-23.8639
G1 X145.1572
G3 X157.2715 Y91.9528 I-22.5638 J29.1155
G1 Y82.0678
G1 F300.0 X158.4715
G1 F2500.0 Y79.3285
G3 X154.6631 Y74.0576 I26.8598 J-23.4185
G1 X141.3242
G3 X158.2287 Y104.3732 I-18.7308 J30.3155
G3 X144.2045 Y132.7075 I-35.6353 J0.0
G1 X158.4715
G1 Y82.0678
G1 F300.0 X159.6715
G1 F2500.0 Y78.8744
G3 X155.3552 Y72.8576 I25.6598 J-22.9644
G1 X136.47
G3 X157.0287 Y104.3732 I-13.8766 J31.5155
G3 X140.2997 Y133.9075 I-34.4353 J0.0
G1 X159.6715
G1 Y82.0678
G1 F300.0 X160.8715
G1 F2500.0 Y78.4112
G3 X156.0636 Y71.6576 I24.4598 J-22.5012
G1 X128.4481
G3 X155.8287 Y104.3732 I-5.8547 J32.7155
G3 X135.2419 Y135.1075 I-33.2353 J0.0
G1 X160.8715
G1 Y82.0678
G1 F300.0 X162.0715
G1 F2500.0 Y77.9382
G3 X156.7897 Y70.4576 I23.2598 J-22.0282
G1 X110.817
G3 X100.0184 Y68.2831 I0.0 J-27.9
G3 X72.9716 Y65.9496 I-11.0292 J-30.0769
G3 X72.5146 Y65.6807 I16.0176 J-27.7434
G3 X73.7562 Y74.2996 I-29.2962 J8.6189
G3 X73.5649 Y77.7123 I-30.5377 J0.0
G1 Y136.1255
G3 X73.7463 Y136.3075 I-22.5994 J22.7052
G1 X78.6006
G1 X78.9846
G3 X85.7478 Y131.0873 I22.7808 J22.5232
G3 X99.7741 Y126.8574 I16.0176 J27.7434
G3 X106.5757 Y76.6298 I22.8193 J-22.4842
G3 X154.6287 Y104.3732 I16.0176 J27.7434
G3 X125.1346 Y136.3075 I-32.0353 J0.0
G1 X126.9622
G1 X127.4591
G1 X161.9155
G3 X162.0715 Y136.1508 I22.7808 J22.5232
G1 Y82.0678
G1 F300.0 X163.2715
G1 F2500.0 Y77.4548
G3 X157.5346 Y69.2576 I22.0598 J-21.5448
G1 X110.817
G3 X100.0488 Y66.9899 I0.0 J-26.7
G3 X73.5716 Y64.9104 I-11.0596 J-28.7837
G3 X70.1197 Y62.5938 I15.4176 J-26.7041
G3 X72.5562 Y74.2996 I-26.9012 J11.7058
G3 X72.3649 Y77.6443 I-29.3377 J0.0
G1 Y136.6298
G3 X73.2396 Y137.5075 I-21.3994 J22.2009
G1 X78.6006
G1 X79.0975
G1 X79.4913
G3 X86.3478 Y132.1266 I22.2741 J21.3232
G3 X102.7946 Y128.0126 I15.4176 J26.7041
G3 X107.1757 Y77.669 I19.7988 J-23.6394
G3 X153.4287 Y104.3732 I15.4176 J26.7041
G3 X121.5642 Y135.1913 I-30.8353 J0.0
G3 X124.0395 Y137.5075 I-19.7988 J23.6394
G1 X126.9622
G1 X127.4591
G1 X162.4222
G3 X163.2715 Y136.6543 I22.2741 J21.3232
G1 Y82.0678
G0 Z3.0
G0 X60.8741 Y50.8693
G0 Z-2.0
G1 F300.0 Z-6.0
G3 F2500.0 X60.6744 Y50.4162 I28.1152 J-12.663
G3 X60.5119 Y50.6007 I-23.2217 J-20.2871
G3 X60.8741 Y50.8693 I-17.2934 J23.6989
G1 F300.0 X60.1519 Y51.8277
G3 F2500.0 X71.3562 Y74.2996 I-16.9334 J22.4719
G3 X71.1649 Y77.575 I-28.1377 J0.0
G1 Y137.1458
G3 X72.7211 Y138.7075 I-20.1994 J21.6849
G1 X78.6006
G1 X79.0975
G1 X80.0098
G3 X86.9478 Y133.1658 I21.7556 J20.1232
G3 X107.2025 Y129.6984 I14.8176 J25.6649
G3 X107.7757 Y78.7083 I15.3909 J-25.3253
G3 X152.2287 Y104.3732 I14.8176 J25.6649
G3 X117.1563 Y133.5054 I-29.6353 J0.0
G3 X123.521 Y138.7075 I-15.3909 J25.3253
G1 X126.9622
G1 X127.4591
G1 X162.9407
G3 X164.4715 Y137.1695 I21.7556 J20.1232
G1 Y76.9604
G3 X158.3001 Y68.0576 I20.8598 J-21.0504
G1 X110.817
G3 X100.0811 Y65.6875 I0.0 J-25.5
G3 X74.1716 Y63.8711 I-11.0919 J-27.4813
G3 X61.0425 Y48.0669 I14.8176 J-25.6649
G3 X58.6908 Y50.7977 I-23.5899 J-17.9379
G3 X60.1519 Y51.8277 I-15.4723 J23.5019
G0 Z3.0
G0 X36.1761 Y17.3574
G0 Z-2.0
G1 F300.0 Z-6.0
G1 F2500.0 X33.6264 Y16.1687
G1 X32.671 Y18.2177
G3 X36.1761 Y17.3574 I4.7817 J11.9113
G0 Z3.0
G0 X36.7728 Y23.3277
G0 Z-2.0
G1 F300.0 Z-6.0
G3 F2500.0 X44.288 Y30.129 I0.6798 J6.8014
G3 X34.035 Y36.0486 I-6.8353 J0.0
G3 Y24.2095 I3.4176 J-5.9195
G3 X36.7728 Y23.3277 I3.4176 J5.9195
G1 F300.0 X36.892 Y24.5193
G3 F2500.0 X43.0904 Y30.129 I0.5607 J5.6097
G3 X34.6338 Y35.0114 I-5.6377 J0.0
G3 Y25.2467 I2.8188 J-4.8824
G3 X36.892 Y24.5193 I2.8188 J4.8824
G0 Z3.0
G0 X36.6535 Y22.1336
G0 Z-2.0
G1 F300.0 Z-6.0
G2 F2500.0 X33.435 Y23.1703 I0.7992 J7.9954
G2 Y37.0878 I4.0176 J6.9588
G2 X45.488 Y30.129 I4.0176 J-6.9588
G2 X36.6535 Y22.1336 I-8.0353 J0.0
G1 F300.0 X36.5341 Y20.9396
G2 F2500.0 X32.835 Y22.1311 I0.9185 J9.1895
G2 Y38.127 I4.6176 J7.998
G2 X46.688 Y30.129 I4.6176 J-7.998
G2 X36.5341 Y20.9396 I-9.2353 J0.0
G1 F300.0 X36.4148 Y19.7455
G2 F2500.0 X32.235 Y21.0918 I1.0379 J10.3835
G2 Y39.1663 I5.2176 J9.0372
G2 X47.888 Y30.129 I5.2176 J-9.0372
G2 X36.4148 Y19.7455 I-10.4353 J0.0
G0 Z3.0
G0 X117.7164 Y99.584
G0 Z-2.0
G1 F300.0 Z-6.0
G3 F2500.0 X119.1757 Y98.4536 I4.877 J4.7892
G3 X129.4287 Y104.3732 I3.4176 J5.9195
G3 X119.1757 Y110.2927 I-6.8353 J0.0
G3 X117.7164 Y99.584 I3.4176 J-5.9195
G1 F300.0 X118.5709 Y100.4231
G3 F2500.0 X119.7745 Y99.4908 I4.0225 J3.9501
G3 X128.2311 Y104.3732 I2.8188 J4.8824
G3 X119.7745 Y109.2555 I-5.6377 J0.0
G3 X118.5709 Y100.4231 I2.8188 J-4.8824
G0 Z3.0
G0 X116.8602 Y98.7432
G0 Z-2.0
G1 F300.0 Z-6.0
G2 F2500.0 X118.5757 Y111.3319 I5.7332 J5.63
G2 X130.6287 Y104.3732 I4.0176 J-6.9588
G2 X118.5757 Y97.4144 I-8.0353 J0.0
G2 X116.8602 Y98.7432 I4.0176 J6.9588
G1 F300.0 X116.004 Y97.9024
G2 F2500.0 X117.9757 Y112.3712 I6.5894 J6.4708
G2 X131.8287 Y104.3732 I4.6176 J-7.998
G2 X117.9757 Y96.3752 I-9.2353 J0.0
G2 X116.004 Y97.9024 I4.6176 J7.998
G1 F300.0 X115.1478 Y97.0616
G2 F2500.0 X117.3757 Y113.4104 I7.4456 J7.3116
G2 X133.0287 Y104.3732 I5.2176 J-9.0372
G2 X117.3757 Y95.3359 I-10.4353 J0.0
G2 X115.1478 Y97.0616 I5.2176 J9.0372
G1 F300.0 X114.2916 Y96.2208
G2 F2500.0 X116.7757 Y114.4496 I8.3018 J8.1523
G2 X134.2287 Y104.3732 I5.8176 J-10.0765
G2 X116.7757 Y94.2967 I-11.6353 J0.0
G2 X114.2916 Y96.2208 I5.8176 J10.0765
G1 F300.0 X113.4354 Y95.38
G2 F2500.0 X116.1757 Y115.4888 I9.1579 J8.9931
G2 X135.4287 Y104.3732 I6.4176 J-11.1157
G2 X116.1757 Y93.2575 I-12.8353 J0.0
G2 X113.4354 Y95.38 I6.4176 J11.1157
G1 F300.0 X112.5792 Y94.5392
G2 F2500.0 X115.5757 Y116.5281 I10.0141 J9.8339
G2 X136.6287 Y104.3732 I7.0176 J-12.1549
G2 X115.5757 Y92.2183 I-14.0353 J0.0
G2 X112.5792 Y94.5392 I7.0176 J12.1549
G1 F300.0 X111.723 Y93.6985
G2 F2500.0 X114.9757 Y117.5673 I10.8703 J10.6747
G2 X137.8287 Y104.3732 I7.6176 J-13.1941
G2 X114.9757 Y91.179 I-15.2353 J0.0
G2 X111.723 Y93.6985 I7.6176 J13.1941
G1 F300.0 X110.8668 Y92.8577
G2 F2500.0 X114.3757 Y118.6065 I11.7265 J11.5155
G2 X139.0287 Y104.3732 I8.2176 J-14.2334
G2 X114.3757 Y90.1398 I-16.4353 J0.0
G2 X110.8668 Y92.8577 I8.2176 J14.2334
G1 F300.0 X110.0106 Y92.0169
G2 F2500.0 X113.7757 Y119.6458 I12.5827 J12.3563
G2 X140.2287 Y104.3732 I8.8176 J-15.2726
G2 X113.7757 Y89.1006 I-17.6353 J0.0
G2 X110.0106 Y92.0169 I8.8176 J15.2726
G1 F300.0 X109.1544 Y91.1761
G2 F2500.0 X113.1757 Y120.685 I13.4389 J13.1971
G2 X141.4287 Y104.3732 I9.4176 J-16.3118
G2 X113.1757 Y88.0613 I-18.8353 J0.0
G2 X109.1544 Y91.1761 I9.4176 J16.3118
G1 F300.0 X108.2982 Y90.3353
G2 F2500.0 X112.5757 Y121.7242 I14.2951 J14.0379
G2 X142.6287 Y104.3732 I10.0176 J-17.3511
G2 X112.5757 Y87.0221 I-20.0353 J0.0
G2 X108.2982 Y90.3353 I10.0176 J17.3511
G1 F300.0 X107.4421 Y89.4945
G2 F2500.0 X111.9757 Y122.7635 I15.1513 J14.8787
G2 X143.8287 Y104.3732 I10.6176 J-18.3903
G2 X111.9757 Y85.9829 I-21.2353 J0.0
G2 X107.4421 Y89.4945 I10.6176 J18.3903
G1 F300.0 X106.5859 Y88.6537
G2 F2500.0 X111.3757 Y123.8027 I16.0075 J15.7194
G2 X145.0287 Y104.3732 I11.2176 J-19.4295
G2 X111.3757 Y84.9436 I-22.4353 J0.0
G2 X106.5859 Y88.6537 I11.2176 J19.4295
G1 F300.0 X105.7297 Y87.8129
G2 F2500.0 X110.7757 Y124.8419 I16.8637 J16.5602
G2 X146.2287 Y104.3732 I11.8176 J-20.4688
G2 X110.7757 Y83.9044 I-23.6353 J0.0
G2 X105.7297 Y87.8129 I11.8176 J20.4688
G1 F300.0 X104.8735 Y86.9721
G2 F2500.0 X110.1757 Y125.8812 I17.7199 J17.401
G2 X147.4287 Y104.3732 I12.4176 J-21.508
G2 X110.1757 Y82.8652 I-24.8353 J0.0
G2 X104.8735 Y86.9721 I12.4176 J21.508
G1 F300.0 X104.0173 Y86.1314
G2 F2500.0 X109.5757 Y126.9204 I18.5761 J18.2418
G2 X148.6287 Y104.3732 I13.0176 J-22.5472
G2 X109.5757 Y81.8259 I-26.0353 J0.0
G2 X104.0173 Y86.1314 I13.0176 J22.5472
G1 F300.0 X103.1611 Y85.2906
G2 F2500.0 X108.9757 Y127.9596 I19.4323 J19.0826
G2 X149.8287 Y104.3732 I13.6176 J-23.5864
G2 X108.9757 Y80.7867 I-27.2353 J0.0
G2 X103.1611 Y85.2906 I13.6176 J23.5864
G1 F300.0 X102.3049 Y84.4498
G2 F2500.0 X108.3757 Y128.9988 I20.2885 J19.9234
G2 X151.0287 Y104.3732 I14.2176 J-24.6257
G2 X108.3757 Y79.7475 I-28.4353 J0.0
G2 X102.3049 Y84.4498 I14.2176 J24.6257
G0 Z3.0
G0 X105.9783 Y66.371
G0 Z-2.0
G1 F300.0 Z-6.0
G3 F2500.0 X100.5489 Y64.5816 I4.8387 J-23.8134
G1 X100.1097 Y64.3768
G3 X74.7716 Y62.8319 I-11.1205 J-26.1706
G3 X61.7944 Y46.5134 I14.2176 J-24.6257
G1 X60.962 Y46.1253
G3 X56.7545 Y51.0098 I-23.5093 J-15.9962
G3 X70.1562 Y74.2996 I-13.536 J23.2898
G3 X69.9649 Y77.5041 I-26.9377 J0.0
G1 Y137.6744
G3 X72.1899 Y139.9075 I-18.9994 J21.1563
G1 X78.6006
G1 X79.0975
G1 X80.541
G3 X87.5478 Y134.205 I21.2245 J18.9232
G3 X122.9899 Y139.9075 I14.2176 J24.6257
G1 X126.9622
G1 X127.4591
G1 X163.4719
G3 X165.6715 Y137.6973 I21.2245 J18.9232
G1 Y76.4541
G3 X159.0879 Y66.8576 I19.6598 J-20.544
G1 X110.817
G3 X105.9783 Y66.371 I0.0 J-24.3
G1 F300.0 X106.2173 Y65.195
G3 F2500.0 X101.056 Y63.494 I4.5997 J-22.6374
G1 X100.126 Y63.0605
G3 X75.3716 Y61.7927 I-11.1368 J-24.8542
G3 X62.7922 Y45.6546 I13.6176 J-23.5864
G1 X60.5265 Y44.5983
G3 X54.6562 Y51.243 I-23.0738 J-14.4692
G3 X68.9562 Y74.2996 I-11.4377 J23.0566
G3 X68.7649 Y77.4317 I-25.7377 J0.0
G1 Y138.2166
G3 X71.6451 Y141.1075 I-17.7994 J20.6141
G1 X78.6006
G1 X79.0975
G1 X81.0857
G3 X88.1478 Y135.2443 I20.6797 J17.7232
G3 X122.4451 Y141.1075 I13.6176 J23.5864
G1 X126.9622
G1 X127.4591
G1 X164.0166
G3 X166.8715 Y138.2385 I20.6797 J17.7232
G1 Y75.9349
G3 X159.9001 Y65.6576 I18.4598 J-20.0249
G1 X110.817
G3 X106.2173 Y65.195 I0.0 J-23.1
G1 F300.0 X106.4562 Y64.0191
G3 F2500.0 X101.5631 Y62.4064 I4.3608 J-21.4614
G1 X100.1291 Y61.7379
G3 X75.9716 Y60.7535 I-11.1399 J-23.5316
G3 X63.8033 Y44.8019 I13.0176 J-22.5472
G1 X60.0534 Y43.0537
G3 X52.3105 Y51.5085 I-22.6007 J-12.9246
G3 X67.7562 Y74.2996 I-9.092 J22.7911
G3 X67.5649 Y77.3575 I-24.5377 J0.0
G1 Y138.7734
G3 X71.0856 Y142.3075 I-16.5994 J20.0573
G1 X78.6006
G1 X79.0975
G1 X81.6453
G3 X88.7478 Y136.2835 I20.1201 J16.5232
G3 X121.8855 Y142.3075 I13.0176 J22.5472
G1 X126.9622
G1 X127.4591
G1 X164.5762
G3 X168.0715 Y138.7944 I20.1201 J16.5232
G1 Y75.4019
G3 X160.7392 Y64.4576 I17.2598 J-19.4919
G1 X110.817
G3 X106.4562 Y64.0191 I0.0 J-21.9
G1 F300.0 X106.6952 Y62.8431
G3 F2500.0 X102.0701 Y61.3188 I4.1219 J-20.2855
G1 X100.1178 Y60.4086
G3 X76.5716 Y59.7142 I-11.1286 J-22.2024
G3 X64.8287 Y43.956 I12.4176 J-21.508
G1 X59.5375 Y41.4891
G3 X49.5281 Y51.831 I-22.0848 J-11.3601
G3 X66.5562 Y74.2996 I-6.3096 J22.4686
G3 X66.3649 Y77.2815 I-23.3377 J0.0
G1 Y139.3461
G3 X70.51 Y143.5075 I-15.3994 J19.4846
G1 X78.6006
G1 X79.0975
G1 X82.2208
G3 X89.3478 Y137.3227 I19.5446 J15.3232
G3 X121.31 Y143.5075 I12.4176 J21.508
G1 X126.9622
G1 X127.4591
G1 X165.1517
G3 X169.2715 Y139.3662 I19.5446 J15.3232
G1 Y74.854
G3 X161.6078 Y63.2576 I16.0598 J-18.944
G1 X110.817
G3 X106.6952 Y62.8431 I0.0 J-20.7
G1 F300.0 X106.9341 Y61.6671
G3 F2500.0 X102.5772 Y60.2312 I3.8829 J-19.1095
G1 X100.0908 Y59.072
G3 X77.1716 Y58.675 I-11.1016 J-20.8658
G3 X65.8698 Y43.1174 I11.8176 J-20.4688
G1 X58.9729 Y39.9019
G3 X45.653 Y52.2962 I-21.5202 J-9.7728
G3 X65.3562 Y74.2996 I-2.4345 J22.0034
G3 X65.1649 Y77.2035 I-22.1377 J0.0
G1 Y139.9362
G3 X69.917 Y144.7075 I-14.1994 J18.8945
G1 X78.6006
G1 X79.0975
G1 X82.8138
G3 X89.9478 Y138.3619 I18.9516 J14.1232
G3 X120.717 Y144.7075 I11.8176 J20.4688
G1 X126.9622
G1 X127.4591
G1 X165.7448
G3 X170.4715 Y139.9553 I18.9516 J14.1232
G1 Y74.2897
G3 X162.5095 Y62.0576 I14.8598 J-18.3797
G1 X110.817
G3 X106.9341 Y61.6671 I0.0 J-19.5
G1 F300.0 X107.1731 Y60.4912
G3 F2500.0 X103.0843 Y59.1436 I3.644 J-17.9335
G1 X100.0466 Y57.7274
G3 X77.7716 Y57.6358 I-11.0574 J-19.5212
G3 X66.9282 Y42.2868 I11.2176 J-19.4295
G1 X58.3517 Y38.2883
G3 X36.7456 Y52.5532 I-20.899 J-8.1592
G1 X39.2811 Y53.7355
G3 X43.2185 Y53.3619 I3.9374 J20.5641
G3 X64.1562 Y74.2996 I0.0 J20.9377
G3 X63.9649 Y77.1234 I-20.9377 J0.0
G1 Y140.5453
G3 X69.3048 Y145.9075 I-12.9994 J18.2854
G1 X78.6006
G1 X79.0975
G1 X83.426
G3 X90.5478 Y139.4012 I18.3394 J12.9232
G3 X120.1048 Y145.9075 I11.2176 J19.4295
G1 X126.9622
G1 X127.4591
G1 X166.3569
G3 X171.6715 Y140.5633 I18.3394 J12.9232
G1 Y73.7075
G3 X163.4484 Y60.8576 I13.6598 J-17.7975
G1 X110.817
G3 X107.1731 Y60.4912 I0.0 J-18.3
G1 F300.0 X107.412 Y59.3152
G3 F2500.0 X103.5913 Y58.056 I3.405 J-16.7576
G1 X99.9834 Y56.3739
G3 X78.3716 Y56.5965 I-10.9942 J-18.1677
G3 X68.0055 Y41.4651 I10.6176 J-18.3903
G1 X57.664 Y36.6436
G3 X27.6108 Y48.9459 I-20.2113 J-6.5146
G1 X27.3535 Y49.4977
G1 X39.1314 Y54.9897
G3 X43.2185 Y54.5619 I4.0871 J19.3099
G3 X62.9562 Y74.2996 I0.0 J19.7377
G3 X62.7649 Y77.0409 I-19.7377 J0.0
G1 Y141.1754
G3 X68.6715 Y147.1075 I-11.7994 J17.6553
G1 X78.6006
G1 X79.0975
G1 X84.0594
G3 X91.1478 Y140.4404 I17.706 J11.7232
G3 X119.4714 Y147.1075 I10.6176 J18.3903
G1 X126.9622
G1 X127.4591
G1 X166.9903
G3 X172.8715 Y141.1924 I17.706 J11.7232
G1 Y73.1057
G3 X164.4293 Y59.6576 I12.4598 J-17.1957
G1 X110.817
G3 X107.412 Y59.3152 I0.0 J-17.1
G1 F300.0 X107.651 Y58.1392
G3 F2500.0 X104.0984 Y56.9684 I3.1661 J-15.5816
G1 X99.8991 Y55.0106
G3 X78.9716 Y55.5573 I-10.9099 J-16.8044
G3 X69.1039 Y40.6532 I10.0176 J-17.3511
G1 X56.8964 Y34.9617
G3 X27.435 Y47.4801 I-19.4437 J-4.8327
G3 X27.0707 Y47.2646 I10.0176 J-17.3511
G1 X25.7588 Y50.0781
G1 X38.994 Y56.2497
G3 X43.2185 Y55.7619 I4.2245 J18.0499
G3 X61.7562 Y74.2996 I0.0 J18.5377
G3 X61.5649 Y76.9558 I-18.5377 J0.0
G1 Y141.8288
G3 X68.0147 Y148.3075 I-10.5994 J17.0019
G1 X78.6006
G1 X79.0975
G1 X84.7162
G3 X91.7478 Y141.4796 I17.0492 J10.5232
G3 X118.8146 Y148.3075 I10.0176 J17.3511
G1 X126.9622
G1 X127.4591
G1 X167.6471
G3 X174.0715 Y141.8446 I17.0492 J10.5232
G1 Y72.482
G3 X165.4587 Y58.4576 I11.2598 J-16.5719
G1 X110.817
G3 X107.651 Y58.1392 I0.0 J-15.9
G1 F300.0 X107.8899 Y56.9633
G3 F2500.0 X104.6055 Y55.8808 I2.9271 J-14.4056
G1 X99.7912 Y53.6363
G3 X79.5716 Y54.5181 I-10.802 J-15.43
G3 X70.226 Y39.8523 I9.4176 J-16.3118
G1 X56.0303 Y33.2339
G3 X28.035 Y46.4409 I-18.5776 J-3.1049
G3 X26.5689 Y45.5014 I9.4176 J-16.3118
G1 X24.1641 Y50.6585
G1 X38.8702 Y57.516
G3 X43.2185 Y56.9619 I4.3483 J16.7836
G3 X60.5562 Y74.2996 I0.0 J17.3377
G3 X60.3649 Y76.8679 I-17.3377 J0.0
G1 Y142.5084
G3 X67.3315 Y149.5075 I-9.3994 J16.3223
G1 X78.6006
G1 X79.0975
G1 X85.3994
G3 X92.3478 Y142.5189 I16.366 J9.3232
G3 X118.1314 Y149.5075 I9.4176 J16.3118
G1 X126.9622
G1 X127.4591
G1 X168.3303
G3 X175.2715 Y142.523 I16.366 J9.3232
G1 Y71.8338
G3 X166.5443 Y57.2576 I10.0598 J-15.9238
G1 X110.817
G3 X107.8899 Y56.9633 I0.0 J-14.7
G1 F300.0 X108.1289 Y55.7873
G3 F2500.0 X105.1125 Y54.7932 I2.6882 J-13.2297
G1 X99.6565 Y52.2495
G3 X80.1716 Y53.4788 I-10.6673 J-14.0432
G3 X71.3748 Y39.0639 I8.8176 J-15.2726
G1 X55.0386 Y31.4476
G3 X28.635 Y45.4016 I-17.5859 J-1.3185
G3 X26.1145 Y43.6364 I8.8176 J-15.2726
G1 X22.5694 Y51.239
G1 X38.7618 Y58.7895
G3 X43.2185 Y58.1619 I4.4567 J15.5101
G3 X59.3562 Y74.2996 I0.0 J16.1377
G3 X59.1649 Y76.7769 I-16.1377 J0.0
G1 Y143.2175
G3 X66.6185 Y150.7075 I-8.1994 J15.6132
G1 X78.6006
G1 X79.0975
G1 X86.1124
G3 X92.9478 Y143.5581 I15.653 J8.1232
G3 X117.4184 Y150.7075 I8.8176 J15.2726
G1 X126.9622
G1 X127.4591
G1 X169.0433
G3 X175.8787 Y143.5581 I15.653 J8.1232
G3 X176.4715 Y143.2308 I8.8176 J15.2726
G1 Y71.1582
G3 X167.6967 Y56.0576 I8.8598 J-15.2482
G1 X110.817
G3 X108.1289 Y55.7873 I0.0 J-13.5
G1 F300.0 X108.3678 Y54.6113
G3 F2500.0 X105.6196 Y53.7056 I2.4492 J-12.0537
G1 X99.4913 Y50.8484
G3 X80.7716 Y52.4396 I-10.5021 J-12.6422
G3 X72.5542 Y38.2897 I8.2176 J-14.2334
G1 X53.8789 Y29.5829
G3 X53.888 Y30.129 I-16.4262 J0.5462
G3 X29.235 Y44.3624 I-16.4353 J0.0
G3 X25.7214 Y41.6398 I8.2176 J-14.2334
G1 X20.9747 Y51.8194
G1 X38.6706 Y60.0711
G3 X43.2185 Y59.3619 I4.5479 J14.2285
G3 X58.1562 Y74.2996 I0.0 J14.9377
G3 X57.9649 Y76.6825 I-14.9377 J0.0
G1 Y143.9604
G3 X65.8714 Y151.9075 I-6.9994 J14.8703
G1 X78.6006
G1 X79.0975
G1 X86.8594
G3 X93.5478 Y144.5973 I14.906 J6.9232
G3 X116.6714 Y151.9075 I8.2176 J14.2334
G1 X126.9622
G1 X127.4591
G1 X169.7904
G3 X176.4787 Y144.5973 I14.906 J6.9232
G3 X177.6715 Y143.9724 I8.2176 J14.2334
G1 Y70.4512
G3 X177.1137 Y70.1434 I7.6598 J-14.5412
G3 X168.9298 Y54.8576 I8.2176 J-14.2334
G1 X110.817
G3 X108.3678 Y54.6113 I0.0 J-12.3
G1 F300.0 X108.6068 Y53.4353
G3 F2500.0 X106.1267 Y52.618 I2.2103 J-10.8777
G1 X99.2907 Y49.4309
G3 X81.3716 Y51.4004 I-10.3015 J-11.2247
G3 X73.7689 Y37.532 I7.6176 J-13.1941
G1 X52.4775 Y27.6055
G3 X52.688 Y30.129 I-15.0248 J2.5235
G3 X29.835 Y43.3232 I-15.2353 J0.0
G3 X25.4121 Y39.4638 I7.6176 J-13.1941
G1 X19.38 Y52.3998
G1 X38.5992 Y61.3618
G3 X43.2185 Y60.5619 I4.6193 J12.9378
G3 X56.9562 Y74.2996 I0.0 J13.7377
G3 X56.7649 Y76.5841 I-13.7377 J0.0
G1 Y144.7424
G3 X65.0849 Y153.1075 I-5.7994 J14.0883
G1 X78.6006
G1 X79.0975
G1 X87.646
G3 X94.1478 Y145.6366 I14.1194 J5.7232
G3 X115.8849 Y153.1075 I7.6176 J13.1941
G1 X126.9622
G1 X127.4591
G1 X170.5769
G3 X177.0787 Y145.6366 I14.1194 J5.7232
G3 X178.8715 Y144.7529 I7.6176 J13.1941
G1 Y69.708
G3 X177.7137 Y69.1042 I6.4598 J-13.798
G3 X170.2634 Y53.6576 I7.6176 J-13.1941
G1 X110.817
G3 X108.6068 Y53.4353 I0.0 J-11.1
G1 F300.0 X108.8457 Y52.2594
G3 F2500.0 X106.6337 Y51.5304 I1.9713 J-9.7017
G1 X99.0485 Y47.994
G3 X81.9716 Y50.3611 I-10.0593 J-9.7877
G3 X75.0252 Y36.7938 I7.0176 J-12.1549
G1 X50.6833 Y25.445
G3 X51.488 Y30.129 I-13.2306 J4.684
G3 X30.435 Y42.284 I-14.0353 J0.0
G3 X25.2266 Y37.022 I7.0176 J-12.1549
G1 X17.7853 Y52.9803
G1 X38.5506 Y62.6632
G3 X43.2185 Y61.7619 I4.6678 J11.6364
G3 X55.7562 Y74.2996 I0.0 J12.5377
G3 X55.5649 Y76.4813 I-12.5377 J0.0
G1 Y145.5704
G3 X64.2519 Y154.3075 I-4.5994 J13.2603
G1 X78.6006
G1 X79.0975
G1 X88.479
G3 X94.7478 Y146.6758 I13.2865 J4.5232
G3 X115.0519 Y154.3075 I7.0176 J12.1549
G1 X115.456
G1 X126.9622
G1 X127.4591
G1 X171.4099
G3 X177.6787 Y146.6758 I13.2865 J4.5232
G3 X180.0715 Y145.5793 I7.0176 J12.1549
G1 Y68.9225
G3 X178.3137 Y68.0649 I5.2598 J-13.0124
G3 X171.7273 Y52.4576 I7.0176 J-12.1549
G1 X110.817
G3 X108.8457 Y52.2594 I0.0 J-9.9
G1 F300.0 X109.0847 Y51.0834
G3 F2500.0 X107.1408 Y50.4428 I1.7324 J-8.5258
G1 X98.7564 Y46.5338
G3 X82.5716 Y49.3219 I-9.7671 J-8.3275
G3 X76.3315 Y36.0788 I6.4176 J-11.1157
G1 X48.0559 Y22.8961
G3 X50.288 Y30.129 I-10.6032 J7.233
G3 X31.035 Y41.2447 I-12.8353 J0.0
G3 X25.2545 Y34.1227 I6.4176 J-11.1157
G1 X16.1906 Y53.5607
G1 X38.529 Y63.9772
G3 X43.2185 Y62.9619 I4.6895 J10.3224
G3 X54.5562 Y74.2996 I0.0 J11.3377
G3 X54.3649 Y76.3735 I-11.3377 J0.0
G1 Y146.4538
G3 X63.3631 Y155.5075 I-3.3994 J12.3769
G1 X78.6006
G1 X79.0975
G1 X89.3678
G3 X95.3478 Y147.715 I12.3976 J3.3232
G3 X114.163 Y155.5075 I6.4176 J11.1157
G1 X114.9591
G1 X115.456
G1 X126.9622
G1 X127.4591
G1 X172.2987
G3 X178.2787 Y147.715 I12.3976 J3.3232
G3 X181.2715 Y146.4608 I6.4176 J11.1157
G1 Y68.0863
G3 X178.9137 Y67.0257 I4.0598 J-12.1763
G3 X173.3689 Y51.2576 I6.4176 J-11.1157
G1 X110.817
G3 X109.0847 Y51.0834 I0.0 J-8.7
G1 F300.0 X109.3236 Y49.9074
G3 F2500.0 X107.6479 Y49.3552 I1.4934 J-7.3498
G1 X98.4027 Y45.0448
G3 X83.1716 Y48.2827 I-9.4135 J-6.8386
G3 X77.6993 Y35.3925 I5.8176 J-10.0765
G1 X33.046 Y14.5741
G1 X29.9328 Y21.2503
G3 X31.635 Y20.0526 I7.5199 J8.8787
G3 X49.088 Y30.129 I5.8176 J10.0765
G3 X31.635 Y40.2055 I-11.6353 J0.0
G3 X25.8175 Y30.0758 I5.8176 J-10.0765
G1 X14.5959 Y54.1411
G1 X38.5396 Y65.3062
G3 X43.2185 Y64.1619 I4.6788 J8.9934
G3 X53.3562 Y74.2996 I0.0 J10.1377
G3 X53.1649 Y76.2597 I-10.1377 J0.0
G1 Y147.4052
G3 X62.4054 Y156.7075 I-2.1994 J11.4255
G1 X78.6006
G1 X79.0975
G1 X90.3255
G3 X95.9478 Y148.7543 I11.4399 J2.1232
G3 X113.2053 Y156.7075 I5.8176 J10.0765
G1 X114.9591
G1 X115.456
G1 X126.9622
G1 X127.4591
G1 X173.2564
G3 X178.8787 Y148.7543 I11.4399 J2.1232
G3 X182.4715 Y147.4101 I5.8176 J10.0765
G1 Y67.1884
G3 X179.5137 Y65.9865 I2.8598 J-11.2784
G3 X175.275 Y50.0576 I5.8176 J-10.0765
G1 X110.817
G3 X109.3236 Y49.9074 I0.0 J-7.5
G1 F300.0 X109.5626 Y48.7315
G3 F2500.0 X108.1549 Y48.2676 I1.2545 J-6.1738
G1 X97.9706 Y43.5194
G3 X83.7716 Y47.2435 I-8.9814 J-5.3132
G3 X79.1455 Y34.7427 I5.2176 J-9.0372
G1 X32.4655 Y12.9794
G1 X13.0012 Y54.7216
G1 X38.59 Y66.6537
G3 X43.2185 Y65.3619 I4.6285 J7.6459
G3 X52.1562 Y74.2996 I0.0 J8.9377
G3 X51.9649 Y76.1388 I-8.9377 J0.0
G1 Y148.4434
G3 X61.3598 Y157.9075 I-0.9994 J10.3873
G1 X61.4303
G1 X78.6006
G1 X79.0975
G1 X91.371
G3 X96.5478 Y149.7935 I10.3944 J0.9232
G3 X112.1598 Y157.9075 I5.2176 J9.0372
G1 X114.9591
G1 X115.456
G1 X126.9622
G1 X127.4591
G1 X174.302
G3 X179.4787 Y149.7935 I10.3944 J0.9232
G3 X183.6715 Y148.4459 I5.2176 J9.0372
G1 Y66.2125
G3 X180.1137 Y64.9472 I1.6598 J-10.3024
G3 X177.5942 Y48.9077 I5.2176 J-9.0372
G1 X177.5441 Y48.8576
G1 X110.817
G3 X109.5626 Y48.7315 I0.0 J-6.3
G1 F300.0 X109.8015 Y47.5555
G3 F2500.0 X108.662 Y47.18 I1.0155 J-4.9979
G1 X97.4338 Y41.9451
G3 X84.3716 Y46.2042 I-8.4446 J-3.7389
G3 X80.6964 Y34.1418 I4.6176 J-7.998
G1 X32.3201 Y11.5876
G1 X31.6823 Y11.8195
G1 X11.6094 Y54.8668
G1 X11.8419 Y55.5051
G1 X38.6909 Y68.0248
G3 X43.2185 Y66.5619 I4.5276 J6.2748
G3 X50.9562 Y74.2996 I0.0 J7.7377
G3 X50.7649 Y76.0095 I-7.7377 J0.0
G1 Y149.5976
G3 X60.2007 Y158.8307 I0.2006 J9.2331
G3 X60.1966 Y159.1075 I-9.2353 J0.0
G1 X60.9333
G1 X61.4303
G1 X78.6006
G1 X79.0975
G1 X92.5343
G3 X97.1478 Y150.8327 I9.2311 J-0.2768
G3 X111.0007 Y158.8307 I4.6176 J7.998
G3 X110.9965 Y159.1075 I-9.2353 J0.0
G1 X114.9591
G1 X115.456
G1 X126.9622
G1 X127.4591
G1 X175.4652
G3 X180.0787 Y150.8327 I9.2311 J-0.2768
G3 X184.8715 Y149.5971 I4.6176 J7.998
G1 Y65.1338
G3 X180.7137 Y63.908 I0.4598 J-9.2238
G3 X179.2998 Y48.9163 I4.6176 J-7.998
G1 X178.0411 Y47.6576
G1 X110.817
G3 X109.8015 Y47.5555 I0.0 J-5.1
G1 F300.0 X110.0404 Y46.3795
G3 F2500.0 X109.1691 Y46.0923 I0.7766 J-3.8219
G1 X96.7467 Y40.3008
G3 X84.9716 Y45.165 I-7.7575 J-2.0945
G3 X82.3977 Y33.6109 I4.0176 J-6.9588
G1 X32.3769 Y10.2901
G1 X30.8049 Y10.8617
G1 X10.3117 Y54.8103
G1 X10.8844 Y56.3826
G1 X38.8592 Y69.4274
G3 X43.2185 Y67.7619 I4.3592 J4.8722
G3 X49.7562 Y74.2996 I0.0 J6.5377
G3 X49.5649 Y75.8695 I-6.5377 J0.0
G1 Y150.9184
G3 X59.0007 Y158.8307 I1.4006 J7.9123
G3 X58.8639 Y160.3075 I-8.0353 J0.0
G1 X60.9333
G1 X61.4303
G1 X78.6006
G1 X79.0975
G1 X93.867
G3 X97.7478 Y151.8719 I7.8984 J-1.4768
G3 X109.8007 Y158.8307 I4.0176 J6.9588
G3 X109.6638 Y160.3075 I-8.0353 J0.0
G1 X114.9591
G1 X115.456
G1 X126.9622
G1 X127.4591
G1 X176.7979
G3 X180.6787 Y151.8719 I7.8984 J-1.4768
G3 X186.0715 Y150.914 I4.0176 J6.9588
G1 Y63.9111
G3 X181.3137 Y62.8688 I-0.7402 J-8.0011
G3 X181.1369 Y49.0563 I4.0176 J-6.9588
G1 X178.5382 Y46.4576
G1 X110.817
G3 X110.0404 Y46.3795 I0.0 J-3.9
G1 F300.0 X110.2794 Y45.2036
G3 F2500.0 X109.6761 Y45.0047 I0.5376 J-2.6459
G1 X95.8162 Y38.5429
G3 X85.5716 Y44.1258 I-6.827 J-0.3367
G3 X84.3423 Y33.1935 I3.4176 J-5.9195
G1 X32.4337 Y8.9926
G1 X29.9275 Y9.9039
G1 X9.014 Y54.7538
G1 X9.927 Y57.2602
G1 X39.1242 Y70.875
G3 X43.2185 Y68.9619 I4.0943 J3.4246
G3 X48.5562 Y74.2996 I0.0 J5.3377
G3 X48.3649 Y75.7157 I-5.3377 J0.0
G1 Y152.5095
G3 X57.8007 Y158.8307 I2.6006 J6.3212
G3 X57.2548 Y161.5075 I-6.8353 J0.0
G1 X60.9333
G1 X61.4303
G1 X78.6006
G1 X79.0975
G1 X95.4761
G3 X98.3478 Y152.9112 I6.2893 J-2.6768
G3 X108.6007 Y158.8307 I3.4176 J5.9195
G3 X108.0548 Y161.5075 I-6.8353 J0.0
G1 X114.9591
G1 X115.456
G1 X126.9622
G1 X127.4591
G1 X178.407
G3 X181.2787 Y152.9112 I6.2893 J-2.6768
G3 X187.2715 Y152.4991 I3.4176 J5.9195
G1 Y62.4642
G3 X181.9137 Y61.8295 I-1.9402 J-6.5541
G3 Y49.9905 I3.4176 J-5.9195
G3 X183.1948 Y49.4172 I3.4176 J5.9195
G1 X179.0353 Y45.2576
G1 X110.817
G3 X110.2794 Y45.2036 I0.0 J-2.7
G1 F300.0 X110.5183 Y44.0276
G3 F2500.0 X110.1832 Y43.9171 I0.2987 J-1.47
G1 X94.3776 Y36.5482
G3 X94.6269 Y38.2062 I-5.3884 J1.658
G3 X86.1704 Y43.0886 I-5.6377 J0.0
G3 Y33.3239 I2.8188 J-4.8824
G3 X86.7951 Y33.0131 I2.8188 J4.8824
G1 X32.4905 Y7.695
G1 X29.05 Y8.9461
G1 X7.7163 Y54.6973
G1 X8.9695 Y58.1378
G1 X39.5451 Y72.3953
G3 X43.2185 Y70.1619 I3.6734 J1.9043
G3 X47.3562 Y74.2996 I0.0 J4.1377
G3 X47.1649 Y75.5431 I-4.1377 J0.0
G1 Y154.6667
G3 X48.1466 Y153.9483 I3.8006 J4.164
G3 X56.6031 Y158.8307 I2.8188 J4.8824
G3 X55.0586 Y162.7075 I-5.6377 J0.0
G1 X60.9333
G1 X61.4303
G1 X78.6006
G1 X79.0975
G1 X97.6723
G3 X98.9466 Y153.9483 I4.0932 J-3.8768
G3 X107.4031 Y158.8307 I2.8188 J4.8824
G3 X105.8586 Y162.7075 I-5.6377 J0.0
G1 X114.9591
G1 X115.456
G1 X126.9622
G1 X127.4591
G1 X180.6032
G3 X181.8775 Y153.9483 I4.0932 J-3.8768
G3 X188.4715 Y154.6437 I2.8188 J4.8824
G1 Y60.5922
G3 X182.5125 Y60.7924 I-3.1402 J-4.6822
G3 Y51.0276 I2.8188 J-4.8824
G3 X185.7636 Y50.2889 I2.8188 J4.8824
G1 X179.5323 Y44.0576
G1 X110.817
G3 X110.5183 Y44.0276 I0.0 J-1.5
( Internal Space Profile )
G0 Z3.0
( T1 : 1.0 )
T1 M6
M3 S1000
G0 X127.4591 Y163.7075
G0 Z1.0
G1 F300.0 Z-4.0
G1 F2000.0 X186.2965
G1 X189.4715 Y160.5325
G1 Y52.5826
G1 X179.9465 Y43.0576
G1 X110.817
G3 X110.6058 Y43.0108 I0.0 J-0.5
G1 X32.5378 Y6.6138
G1 X28.3189 Y8.1479
G1 X6.6349 Y54.6502
G1 X8.1716 Y58.8691
G1 X40.1259 Y73.7695
G3 X43.2185 Y71.1619 I3.0926 J0.5301
G3 X46.3562 Y74.2996 I0.0 J3.1377
G3 X46.1649 Y75.3784 I-3.1377 J0.0
G1 Y160.5325
G1 X49.3653 Y163.7075
G1 X60.9333
G1 X61.4303
G1 X78.6006
G1 X79.0975
G1 X114.9591
G1 X115.456
G1 X126.9622
G1 X127.4591
( Internal Cutout )
G0 Z3.0
( T2 : 2.0 )
T2 M6
M3 S1000
G0 X188.4714 Y207.1114
G0 Z1.0
G1 F300.0 Z-4.0
G1 F2000.0 X143.4592
G3 X140.9352 Y204.5874 I0.0 J-2.524
G1 Y203.9524
G2 X140.9192 Y203.9364 I-0.016 J0.0
G1 X124.4092
G3 X122.0694 Y202.3589 I0.0 J-2.524
G2 X122.0546 Y202.3489 I-0.0148 J0.006
G1 X104.1579
G2 X104.143 Y202.3589 I0.0 J0.016
G3 X101.8032 Y203.9364 I-2.3398 J-0.9465
G1 X84.9529
G2 X84.9391 Y203.9444 I0.0 J0.016
G3 X82.7532 Y205.2064 I-2.1858 J-1.262
G1 X47.1934
G2 X47.1772 Y205.2226 I0.0 J0.0162
G1 Y279.8984
G2 X47.1932 Y279.9144 I0.016 J0.0
G1 X59.7526
G3 X60.6046 Y283.7575 I0.0 J2.016
G1 X50.1427 Y288.636
G3 X46.7885 Y287.4151 I-1.0667 J-2.2875
G1 X39.8111 Y272.452
G2 X39.7899 Y272.4443 I-0.0145 J0.0068
G1 X6.6407 Y287.902
G2 X6.633 Y287.9232 I0.0068 J0.0145
G1 X30.1416 Y338.3375
G2 X30.1628 Y338.3452 I0.0145 J-0.0068
G1 X80.5771 Y314.8367
G2 X80.5848 Y314.8154 I-0.0068 J-0.0145
G1 X65.9846 Y283.5051
G3 X68.2721 Y279.9144 I2.2875 J-1.0667
G1 X82.7532
G3 X85.2772 Y282.4384 I0.0 J2.524
G1 Y297.6784
G2 X85.2932 Y297.6944 I0.016 J0.0
G1 X103.0046
G2 X103.0194 Y297.6844 I0.0 J-0.016
G3 X105.3592 Y296.1069 I2.3398 J0.9465
G1 X120.8532
G3 X123.193 Y297.6844 I0.0 J2.524
G2 X123.2079 Y297.6944 I0.0148 J-0.006
G1 X139.9032
G3 X142.4272 Y300.2184 I0.0 J2.524
G1 Y300.8534
G2 X142.4432 Y300.8694 I0.016 J0.0
G1 X179.0192
G2 X179.0352 Y300.8534 I0.0 J-0.016
G1 Y284.3434
G3 X181.5592 Y281.8194 I2.524 J0.0
G1 X188.4714
G1 Y207.1114
G1 F300.0 Z-8.0
G1 F2000.0 X143.4592
G3 X140.9352 Y204.5874 I0.0 J-2.524
G1 Y203.9524
G2 X140.9192 Y203.9364 I-0.016 J0.0
G1 X124.4092
G3 X122.0694 Y202.3589 I0.0 J-2.524
G2 X122.0546 Y202.3489 I-0.0148 J0.006
G1 X104.1579
G2 X104.143 Y202.3589 I0.0 J0.016
G3 X101.8032 Y203.9364 I-2.3398 J-0.9465
G1 X84.9529
G2 X84.9391 Y203.9444 I0.0 J0.016
G3 X82.7532 Y205.2064 I-2.1858 J-1.262
G1 X47.1934
G2 X47.1772 Y205.2226 I0.0 J0.0162
G1 Y279.8984
G2 X47.1932 Y279.9144 I0.016 J0.0
G1 X59.7526
G3 X60.6046 Y283.7575 I0.0 J2.016
G1 X50.1427 Y288.636
G3 X46.7885 Y287.4151 I-1.0667 J-2.2875
G1 X39.8111 Y272.452
G2 X39.7899 Y272.4443 I-0.0145 J0.0068
G1 X6.6407 Y287.902
G2 X6.633 Y287.9232 I0.0068 J0.0145
G1 X30.1416 Y338.3375
G2 X30.1628 Y338.3452 I0.0145 J-0.0068
G1 X80.5771 Y314.8367
G2 X80.5848 Y314.8154 I-0.0068 J-0.0145
G1 X65.9846 Y283.5051
G3 X68.2721 Y279.9144 I2.2875 J-1.0667
G1 X82.7532
G3 X85.2772 Y282.4384 I0.0 J2.524
G1 Y297.6784
G2 X85.2932 Y297.6944 I0.016 J0.0
G1 X103.0046
G2 X103.0194 Y297.6844 I0.0 J-0.016
G3 X105.3592 Y296.1069 I2.3398 J0.9465
G1 X120.8532
G3 X123.193 Y297.6844 I0.0 J2.524
G2 X123.2079 Y297.6944 I0.0148 J-0.006
G1 X139.9032
G3 X142.4272 Y300.2184 I0.0 J2.524
G1 Y300.8534
G2 X142.4432 Y300.8694 I0.016 J0.0
G1 X179.0192
G2 X179.0352 Y300.8534 I0.0 J-0.016
G1 Y284.3434
G3 X181.5592 Y281.8194 I2.524 J0.0
G1 X188.4714
G1 Y207.1114
( Connector Cutouts )
G0 Z3.0
( T3 : 3.0 )
T3 M6
M3 S1000
G0 X62.2968 Y165.1258
G0 Z1.0
G1 F300.0 Z-4.0
G1 F1200.0 X77.6775
G0 Z3.0
G0 Y179.79
G0 Z1.0
G1 F300.0 Z-4.0
G1 F1200.0 X62.2968
G0 Z3.0
G0 X116.3506
G0 Z1.0
G1 F300.0 Z-4.0
G1 F1200.0 X126.0957
G0 Z3.0
G0 Y165.1258
G0 Z1.0
G1 F300.0 Z-4.0
G1 F1200.0 X116.3506
( PCB Stands )
S1000
G0 Z3.0
G0 X41.9527 Y30.129
G0 Z1.0
G1 F300.0 Z-4.0
G3 F2000.0 X35.2027 Y34.0262 I-4.5 J0.0
G3 Y26.2319 I2.25 J-3.8971
G3 X41.9527 Y30.129 I2.25 J3.8971
G0 Z3.0
G0 X84.5541 Y37.4446
G0 Z1.0
G1 F300.0 Z-4.0
G3 F2000.0 X86.7392 Y34.3091 I4.4351 J0.7616
G3 X93.4892 Y38.2062 I2.25 J3.8971
G3 X86.7392 Y42.1034 I-4.5 J0.0
G3 X84.5541 Y37.4446 I2.25 J-3.8971
G0 Z3.0
G0 X120.3698 Y100.4609
G0 Z1.0
G1 F300.0 Z-4.0
G3 F2000.0 X127.0934 Y104.3732 I2.2236 J3.9123
G3 X120.3434 Y108.2703 I-4.5 J0.0
G3 Y100.476 I2.25 J-3.8971
G3 X120.3698 Y100.4609 I2.25 J3.8971
G0 Z3.0
G0 X103.132 Y154.5432
G0 Z1.0
G1 F300.0 Z-4.0
G3 F2000.0 X106.2654 Y158.8307 I-1.3666 J4.2875
G3 X99.5154 Y162.7278 I-4.5 J0.0
G3 Y154.9336 I2.25 J-3.8971
G3 X103.132 Y154.5432 I2.25 J3.8971
G0 Z3.0
G0 X55.4503 Y158.4621
G0 Z1.0
G1 F300.0 Z-4.0
G3 F2000.0 X55.4655 Y158.8307 I-4.4849 J0.3686
G3 X48.7155 Y162.7278 I-4.5 J0.0
G3 Y154.9336 I2.25 J-3.8971
G3 X55.4503 Y158.4621 I2.25 J3.8971
G0 Z3.0
G0 X180.1963 Y158.8179
G0 Z1.0
G1 F300.0 Z-4.0
G3 F2000.0 X182.4463 Y154.9336 I4.5 J0.0128
G3 X189.1963 Y158.8307 I2.25 J3.8971
G3 X182.4463 Y162.7278 I-4.5 J0.0
G3 X180.1963 Y158.8179 I2.25 J-3.8971
G0 Z3.0
G0 X185.1071 Y60.4044
G0 Z1.0
G1 F300.0 Z-4.0
G3 F2000.0 X183.0813 Y59.8071 I0.2243 J-4.4944
G3 Y52.0129 I2.25 J-3.8971
G3 X189.8313 Y55.91 I2.25 J3.8971
G3 X185.1071 Y60.4044 I-4.5 J0.0
( Cutout Roughing Shallow )
S1000
G0 Z3.0
G0 X59.386 Y169.2075
G0 Z1.0
G1 F300.0 Z-3.0
G1 F1200.0 X49.4128
G3 X40.6649 Y160.4924 I-0.2052 J-8.542
G1 Y80.0894
G1 X38.9383 Y79.2843
G1 X5.8544 Y63.8572
G3 X1.6533 Y52.319 I3.6238 J-7.8533
G1 X23.3308 Y5.8307
G3 X34.8777 Y1.6338 I7.8533 J3.6238
G3 X34.9758 Y1.682 I-1.4947 J3.1648
G1 X111.9253 Y37.5576
G1 X179.8919
G3 X194.9715 Y52.6372 I0.4279 J14.6517
G1 Y160.4924
G3 X186.2236 Y169.2075 I-8.5427 J0.1731
G1 X129.0295
G3 X125.3991 Y167.7075 I-0.0514 J-5.0189
G1 X117.0471
G3 X113.4684 Y169.2075 I-3.5787 J-3.5191
G1 X80.6114
G3 X76.981 Y167.7075 I-0.0514 J-5.0189
G1 X62.9933
G3 X59.5078 Y169.2069 I-3.579 J-3.5189
G3 X59.4426 Y169.2075 I-0.0652 J-3.4994
G1 X59.386
G1 F300.0 Z-6.0
G1 F1200.0 X49.4128
G3 X40.6649 Y160.4924 I-0.2052 J-8.542
G1 Y80.0894
G1 X38.9383 Y79.2843
G1 X5.8544 Y63.8572
G3 X1.6533 Y52.319 I3.6238 J-7.8533
G1 X23.3308 Y5.8307
G3 X34.8777 Y1.6338 I7.8533 J3.6238
G3 X34.9758 Y1.682 I-1.4947 J3.1648
G1 X111.9253 Y37.5576
G1 X179.8919
G3 X194.9715 Y52.6372 I0.4279 J14.6517
G1 Y160.4924
G3 X186.2236 Y169.2075 I-8.5427 J0.1731
G1 X129.0295
G3 X125.3991 Y167.7075 I-0.0514 J-5.0189
G1 X117.0471
G3 X113.4684 Y169.2075 I-3.5787 J-3.5191
G1 X80.6114
G3 X76.981 Y167.7075 I-0.0514 J-5.0189
G1 X62.9933
G3 X59.5078 Y169.2069 I-3.579 J-3.5189
G3 X59.4426 Y169.2075 I-0.0652 J-3.4994
G1 X59.386
G0 Z3.0
G0 Y175.7084
G0 Z1.0
G1 F300.0 Z-3.0
G1 F1200.0 X59.4426
G3 X59.5078 Y175.709 I0.0 J3.5
G3 X62.9933 Y177.2084 I-0.0935 J5.0183
G1 X76.981
G3 X80.6114 Y175.7084 I3.579 J3.5189
G1 X113.4684
G3 X117.0471 Y177.2084 I0.0 J5.0191
G1 X125.3991
G3 X129.0295 Y175.7084 I3.579 J3.5189
G1 X186.2236
G3 X194.9715 Y184.4235 I0.2052 J8.542
G1 Y292.2787
G3 X179.8919 Y307.3583 I-14.6517 J0.4279
G1 X111.9253
G1 X34.9758 Y343.2338
G3 X34.8777 Y343.2821 I-1.5928 J-3.1165
G3 X23.3308 Y339.0852 I-3.6936 J-7.8207
G1 X1.6533 Y292.5969
G3 X5.8544 Y281.0587 I7.8248 J-3.6848
G1 X38.9383 Y265.6316
G1 X40.6649 Y264.8265
G1 Y184.4235
G3 X49.4128 Y175.7084 I8.5427 J-0.1731
G1 X59.386
G1 F300.0 Z-6.0
G1 F1200.0 X59.4426
G3 X59.5078 Y175.709 I0.0 J3.5
G3 X62.9933 Y177.2084 I-0.0935 J5.0183
G1 X76.981
G3 X80.6114 Y175.7084 I3.579 J3.5189
G1 X113.4684
G3 X117.0471 Y177.2084 I0.0 J5.0191
G1 X125.3991
G3 X129.0295 Y175.7084 I3.579 J3.5189
G1 X186.2236
G3 X194.9715 Y184.4235 I0.2052 J8.542
G1 Y292.2787
G3 X179.8919 Y307.3583 I-14.6517 J0.4279
G1 X111.9253
G1 X34.9758 Y343.2338
G3 X34.8777 Y343.2821 I-1.5928 J-3.1165
G3 X23.3308 Y339.0852 I-3.6936 J-7.8207
G1 X1.6533 Y292.5969
G3 X5.8544 Y281.0587 I7.8248 J-3.6848
G1 X38.9383 Y265.6316
G1 X40.6649 Y264.8265
G1 Y184.4235
G3 X49.4128 Y175.7084 I8.5427 J-0.1731
G1 X59.386
( Cutout Roughing Deep )
S1000
G0 Z3.0
G0 Y169.2075
G0 Z-5.0
G1 F300.0 Z-7.0
G1 F600.0 X52.425
G1 X50.9245 Z-6.0
G1 X49.4128
G3 X47.9211 Y169.1126 I-0.2052 J-8.542
G3 X46.4112 Y168.7394 Z-7.0 I1.2865 J-8.4471
G3 X40.6649 Y160.4924 I2.7964 J-8.0739
G1 Y154.9094
G1 Y153.4094 Z-6.0
G1 Y150.4094
G1 Y148.9094 Z-7.0
G1 Y134.9094
G1 Y133.4094 Z-6.0
G1 Y130.4094
G1 Y128.9094 Z-7.0
G1 Y114.9094
G1 Y113.4094 Z-6.0
G1 Y110.4094
G1 Y108.9094 Z-7.0
G1 Y94.9094
G1 Y93.4094 Z-6.0
G1 Y90.4094
G1 Y88.9094 Z-7.0
G1 Y80.0894
G1 X38.9383 Y79.2843
G1 X37.7023 Y78.708
G1 X36.3429 Y78.074 Z-6.0
G1 X33.6239 Y76.8062
G1 X32.2645 Y76.1723 Z-7.0
G1 X19.5761 Y70.2557
G1 X18.2167 Y69.6217 Z-6.0
G1 X15.4977 Y68.3539
G1 X14.1383 Y67.72 Z-7.0
G1 X5.8515 Y63.8558
G1 X5.7944 Y63.8292
G3 X5.7884 Y63.8264 I0.6339 J-1.3595
G3 X1.4922 Y59.3251 I3.6897 J-7.8225
G3 X1.0268 Y57.8425 Z-6.0 I7.9859 J-3.3212
G3 X0.9071 Y54.8449 I8.4514 J-1.8386
G3 X1.2529 Y53.3299 Z-7.0 I8.571 J1.159
G3 X1.6243 Y52.3814 I8.2253 J2.674
G3 X1.6269 Y52.3757 I1.3621 J0.6282
G1 X1.6521 Y52.3217
G1 X7.3851 Y40.027
G1 X8.019 Y38.6676 Z-6.0
G1 X9.2868 Y35.9486
G1 X9.9208 Y34.5892 Z-7.0
G1 X15.8373 Y21.9008
G1 X16.4712 Y20.5413 Z-6.0
G1 X17.7391 Y17.8224
G1 X18.373 Y16.4629 Z-7.0
G1 X23.3321 Y5.8279
G1 X23.3587 Y5.7708
G3 X23.3615 Y5.7648 I1.3595 J0.6339
G3 X25.2472 Y3.1649 I7.8225 J3.6897
G3 X26.4685 Y2.2041 Z-6.0 I5.9369 J6.2896
G3 X29.2289 Y1.0293 I4.7156 J7.2504
G3 X30.7681 Y0.8155 Z-7.0 I1.9552 J8.4251
G3 X34.8777 Y1.6338 I0.416 J8.639
G3 X34.9758 Y1.682 I-1.4947 J3.1648
G1 X44.8118 Y6.2678
G1 X46.1713 Y6.9016 Z-6.0
G1 X48.8903 Y8.1693
G1 X50.2498 Y8.8031 Z-7.0
G1 X62.9386 Y14.7189
G1 X64.2981 Y15.3527 Z-6.0
G1 X67.0171 Y16.6204
G1 X68.3766 Y17.2542 Z-7.0
G1 X81.0653 Y23.17
G1 X82.4248 Y23.8038 Z-6.0
G1 X85.1438 Y25.0715
G1 X86.5033 Y25.7053 Z-7.0
G1 X99.1921 Y31.6211
G1 X100.5516 Y32.2549 Z-6.0
G1 X103.2706 Y33.5226
G1 X104.6301 Y34.1564 Z-7.0
G1 X111.9253 Y37.5576
G1 X117.2112
G1 X118.7112 Z-6.0
G1 X121.7112
G1 X123.2112 Z-7.0
G1 X137.2112
G1 X138.7112 Z-6.0
G1 X141.7112
G1 X143.2112 Z-7.0
G1 X157.2112
G1 X158.7112 Z-6.0
G1 X161.7112
G1 X163.2112 Z-7.0
G1 X177.1987
G1 X178.6987 Z-6.0
G1 X179.8919
G3 X181.6993 Y37.6164 I0.4279 J14.6517
G3 X183.2012 Y37.8374 Z-7.0 I-1.3795 J14.5929
G3 X194.4654 Y48.3676 I-2.8814 J14.3719
G3 X194.7868 Y49.8513 Z-6.0 I-14.1455 J3.8416
G3 X194.9715 Y52.6372 I-14.467 J2.358
G1 Y52.8456
G1 Y54.3482 Z-7.0
G1 Y68.4321
G1 Y69.9321 Z-6.0
G1 Y72.9321
G1 Y74.4321 Z-7.0
G1 Y88.4321
G1 Y89.9321 Z-6.0
G1 Y92.9321
G1 Y94.4321 Z-7.0
G1 Y108.4321
G1 Y109.9321 Z-6.0
G1 Y112.9321
G1 Y114.4321 Z-7.0
G1 Y128.4321
G1 Y129.9321 Z-6.0
G1 Y132.9321
G1 Y134.4321 Z-7.0
G1 Y148.4321
G1 Y149.9321 Z-6.0
G1 Y152.9321
G1 Y154.4321 Z-7.0
G1 Y160.4924
G3 X189.7653 Y168.5316 I-8.5427 J0.1731
G3 X188.2841 Y169.0061 Z-6.0 I-3.3366 J-7.8661
G3 X186.2236 Y169.2075 I-1.8554 J-8.3406
G1 X185.29
G1 X183.7886 Z-7.0
G1 X169.7276
G1 X168.2276 Z-6.0
G1 X165.2276
G1 X163.7276 Z-7.0
G1 X149.7276
G1 X148.2276 Z-6.0
G1 X145.2276
G1 X143.7276 Z-7.0
G1 X129.7276
G1 X129.0212 Z-6.529
G1 X128.2276 Z-6.0
G1 X125.2276
G1 X123.7276 Z-7.0
G1 X109.7276
G1 X108.2276 Z-6.0
G1 X105.2276
G1 X103.7276 Z-7.0
G1 X89.7276
G1 X88.2276 Z-6.0
G1 X85.2276
G1 X83.7276 Z-7.0
G1 X69.7276
G1 X68.2276 Z-6.0
G1 X65.2276
G1 X63.7276 Z-7.0
G1 X59.386
G1 F300.0 Z-8.0
G1 F600.0 X52.425
G1 X50.9245 Z-6.0
G1 X49.4128
G3 X47.9211 Y169.1126 I-0.2052 J-8.542
G3 X46.4112 Y168.7394 Z-8.0 I1.2865 J-8.4471
G3 X40.6649 Y160.4924 I2.7964 J-8.0739
G1 Y154.9094
G1 Y153.4094 Z-6.0
G1 Y150.4094
G1 Y148.9094 Z-8.0
G1 Y134.9094
G1 Y133.4094 Z-6.0
G1 Y130.4094
G1 Y128.9094 Z-8.0
G1 Y114.9094
G1 Y113.4094 Z-6.0
G1 Y110.4094
G1 Y108.9094 Z-8.0
G1 Y94.9094
G1 Y93.4094 Z-6.0
G1 Y90.4094
G1 Y88.9094 Z-8.0
G1 Y80.0894
G1 X38.9383 Y79.2843
G1 X37.7023 Y78.708
G1 X36.3429 Y78.074 Z-6.0
G1 X33.6239 Y76.8062
G1 X32.2645 Y76.1723 Z-8.0
G1 X19.5761 Y70.2557
G1 X18.2167 Y69.6217 Z-6.0
G1 X15.4977 Y68.3539
G1 X14.1383 Y67.72 Z-8.0
G1 X5.8515 Y63.8558
G1 X5.7944 Y63.8292
G3 X5.7884 Y63.8264 I0.6339 J-1.3595
G3 X1.4922 Y59.3251 I3.6897 J-7.8225
G3 X1.0268 Y57.8425 Z-6.0 I7.9859 J-3.3212
G3 X0.9071 Y54.8449 I8.4514 J-1.8386
G3 X1.2529 Y53.3299 Z-8.0 I8.571 J1.159
G3 X1.6243 Y52.3814 I8.2253 J2.674
G3 X1.6269 Y52.3757 I1.3621 J0.6282
G1 X1.6521 Y52.3217
G1 X7.3851 Y40.027
G1 X8.019 Y38.6676 Z-6.0
G1 X9.2868 Y35.9486
G1 X9.9208 Y34.5892 Z-8.0
G1 X15.8373 Y21.9008
G1 X16.4712 Y20.5413 Z-6.0
G1 X17.7391 Y17.8224
G1 X18.373 Y16.4629 Z-8.0
G1 X23.3321 Y5.8279
G1 X23.3587 Y5.7708
G3 X23.3615 Y5.7648 I1.3595 J0.6339
G3 X25.2472 Y3.1649 I7.8225 J3.6897
G3 X26.4685 Y2.2041 Z-6.0 I5.9369 J6.2896
G3 X29.2289 Y1.0293 I4.7156 J7.2504
G3 X30.7681 Y0.8155 Z-8.0 I1.9552 J8.4251
G3 X34.8777 Y1.6338 I0.416 J8.639
G3 X34.9758 Y1.682 I-1.4947 J3.1648
G1 X44.8118 Y6.2678
G1 X46.1713 Y6.9016 Z-6.0
G1 X48.8903 Y8.1693
G1 X50.2498 Y8.8031 Z-8.0
G1 X62.9386 Y14.7189
G1 X64.2981 Y15.3527 Z-6.0
G1 X67.0171 Y16.6204
G1 X68.3766 Y17.2542 Z-8.0
G1 X81.0653 Y23.17
G1 X82.4248 Y23.8038 Z-6.0
G1 X85.1438 Y25.0715
G1 X86.5033 Y25.7053 Z-8.0
G1 X99.1921 Y31.6211
G1 X100.5516 Y32.2549 Z-6.0
G1 X103.2706 Y33.5226
G1 X104.6301 Y34.1564 Z-8.0
G1 X111.9253 Y37.5576
G1 X117.2112
G1 X118.7112 Z-6.0
G1 X121.7112
G1 X123.2112 Z-8.0
G1 X137.2112
G1 X138.7112 Z-6.0
G1 X141.7112
G1 X143.2112 Z-8.0
G1 X157.2112
G1 X158.7112 Z-6.0
G1 X161.7112
G1 X163.2112 Z-8.0
G1 X177.1987
G1 X178.6987 Z-6.0
G1 X179.8919
G3 X181.6993 Y37.6164 I0.4279 J14.6517
G3 X183.2012 Y37.8374 Z-8.0 I-1.3795 J14.5929
G3 X194.4654 Y48.3676 I-2.8814 J14.3719
G3 X194.7868 Y49.8513 Z-6.0 I-14.1455 J3.8416
G3 X194.9715 Y52.6372 I-14.467 J2.358
G1 Y52.8456
G1 Y54.3482 Z-8.0
G1 Y68.4321
G1 Y69.9321 Z-6.0
G1 Y72.9321
G1 Y74.4321 Z-8.0
G1 Y88.4321
G1 Y89.9321 Z-6.0
G1 Y92.9321
G1 Y94.4321 Z-8.0
G1 Y108.4321
G1 Y109.9321 Z-6.0
G1 Y112.9321
G1 Y114.4321 Z-8.0
G1 Y128.4321
G1 Y129.9321 Z-6.0
G1 Y132.9321
G1 Y134.4321 Z-8.0
G1 Y148.4321
G1 Y149.9321 Z-6.0
G1 Y152.9321
G1 Y154.4321 Z-8.0
G1 Y160.4924
G3 X189.7653 Y168.5316 I-8.5427 J0.1731
G3 X188.2841 Y169.0061 Z-6.0 I-3.3366 J-7.8661
G3 X186.2236 Y169.2075 I-1.8554 J-8.3406
G1 X185.29
G1 X183.7886 Z-8.0
G1 X169.7276
G1 X168.2276 Z-6.0
G1 X165.2276
G1 X163.7276 Z-8.0
G1 X149.7276
G1 X148.2276 Z-6.0
G1 X145.2276
G1 X143.7276 Z-8.0
G1 X129.7276
G1 X129.0212 Z-7.0581
G1 X128.2276 Z-6.0
G1 X125.2276
G1 X123.7276 Z-8.0
G1 X109.7276
G1 X108.2276 Z-6.0
G1 X105.2276
G1 X103.7276 Z-8.0
G1 X89.7276
G1 X88.2276 Z-6.0
G1 X85.2276
G1 X83.7276 Z-8.0
G1 X69.7276
G1 X68.2276 Z-6.0
G1 X65.2276
G1 X63.7276 Z-8.0
G1 X59.386
G0 Z3.0
G0 Y175.7084
G0 Z-5.0
G1 F300.0 Z-7.0
G1 F600.0 X63.7276
G1 X65.2276 Z-6.0
G1 X68.2276
G1 X69.7276 Z-7.0
G1 X83.7276
G1 X85.2276 Z-6.0
G1 X88.2276
G1 X89.7276 Z-7.0
G1 X103.7276
G1 X105.2276 Z-6.0
G1 X108.2276
G1 X109.7276 Z-7.0
G1 X123.7276
G1 X125.2276 Z-6.0
G1 X128.2276
G1 X129.0212 Z-6.529
G1 X129.7276 Z-7.0
G1 X143.7276
G1 X145.2276 Z-6.0
G1 X148.2276
G1 X149.7276 Z-7.0
G1 X163.7276
G1 X165.2276 Z-6.0
G1 X168.2276
G1 X169.7276 Z-7.0
G1 X183.7886
G1 X185.29 Z-6.0
G1 X186.2236
G3 X188.2841 Y175.9098 I0.2052 J8.542
G3 X189.7653 Y176.3843 Z-7.0 I-1.8554 J8.3406
G3 X194.9715 Y184.4235 I-3.3366 J7.8661
G1 Y190.4838
G1 Y191.9838 Z-6.0
G1 Y194.9838
G1 Y196.4838 Z-7.0
G1 Y210.4838
G1 Y211.9838 Z-6.0
G1 Y214.9838
G1 Y216.4838 Z-7.0
G1 Y230.4838
G1 Y231.9838 Z-6.0
G1 Y234.9838
G1 Y236.4838 Z-7.0
G1 Y250.4838
G1 Y251.9838 Z-6.0
G1 Y254.9838
G1 Y256.4838 Z-7.0
G1 Y270.4838
G1 Y271.9838 Z-6.0
G1 Y274.9838
G1 Y276.4838 Z-7.0
G1 Y290.5677
G1 Y292.0703 Z-6.0
G1 Y292.2787
G3 X194.7868 Y295.0646 I-14.6517 J0.4279
G3 X194.4654 Y296.5482 Z-7.0 I-14.467 J-2.358
G3 X183.2012 Y307.0785 I-14.1455 J-3.8416
G3 X181.6993 Y307.2995 Z-6.0 I-2.8814 J-14.3719
G3 X179.8919 Y307.3583 I-1.3795 J-14.5929
G1 X178.6987
G1 X177.1987 Z-7.0
G1 X163.2112
G1 X161.7112 Z-6.0
G1 X158.7112
G1 X157.2112 Z-7.0
G1 X143.2112
G1 X141.7112 Z-6.0
G1 X138.7112
G1 X137.2112 Z-7.0
G1 X123.2112
G1 X121.7112 Z-6.0
G1 X118.7112
G1 X117.2112 Z-7.0
G1 X111.9253
G1 X104.6301 Y310.7595
G1 X103.2706 Y311.3933 Z-6.0
G1 X100.5516 Y312.661
G1 X99.1921 Y313.2948 Z-7.0
G1 X86.5033 Y319.2106
G1 X85.1438 Y319.8444 Z-6.0
G1 X82.4248 Y321.1121
G1 X81.0653 Y321.7459 Z-7.0
G1 X68.3766 Y327.6617
G1 X67.0171 Y328.2955 Z-6.0
G1 X64.2981 Y329.5632
G1 X62.9386 Y330.197 Z-7.0
G1 X50.2498 Y336.1128
G1 X48.8903 Y336.7466 Z-6.0
G1 X46.1713 Y338.0143
G1 X44.8118 Y338.6481 Z-7.0
G1 X34.9758 Y343.2338
G3 X34.8777 Y343.2821 I-1.5928 J-3.1165
G3 X30.7681 Y344.1004 I-3.6936 J-7.8207
G3 X29.2289 Y343.8866 Z-6.0 I0.416 J-8.639
G3 X26.4685 Y342.7118 I1.9552 J-8.4251
G3 X25.2472 Y341.751 Z-7.0 I4.7156 J-7.2504
G3 X23.3615 Y339.1511 I5.9369 J-6.2896
G3 X23.3587 Y339.1451 I1.3567 J-0.6399
G1 X23.3321 Y339.088
G1 X18.373 Y328.4529
G1 X17.7391 Y327.0935 Z-6.0
G1 X16.4712 Y324.3745
G1 X15.8373 Y323.0151 Z-7.0
G1 X9.9208 Y310.3267
G1 X9.2868 Y308.9673 Z-6.0
G1 X8.019 Y306.2483
G1 X7.3851 Y304.8889 Z-7.0
G1 X1.6521 Y292.5942
G1 X1.6269 Y292.5402
G3 X1.6243 Y292.5345 I1.3595 J-0.6339
G3 X1.2529 Y291.586 I7.8539 J-3.6225
G3 X0.9071 Y290.071 Z-6.0 I8.2253 J-2.674
G3 X1.0268 Y287.0734 I8.571 J-1.159
G3 X1.4922 Y285.5908 Z-7.0 I8.4514 J1.8386
G3 X5.7884 Y281.0895 I7.9859 J3.3212
G3 X5.7944 Y281.0867 I0.6399 J1.3567
G1 X5.8515 Y281.0601
G1 X14.1383 Y277.1959
G1 X15.4977 Y276.562 Z-6.0
G1 X18.2167 Y275.2942
G1 X19.5761 Y274.6602 Z-7.0
G1 X32.2645 Y268.7436
G1 X33.6239 Y268.1097 Z-6.0
G1 X36.3429 Y266.8419
G1 X37.7023 Y266.2079 Z-7.0
G1 X38.9383 Y265.6316
G1 X40.6649 Y264.8265
G1 Y256.0065
G1 Y254.5065 Z-6.0
G1 Y251.5065
G1 Y250.0065 Z-7.0
G1 Y236.0065
G1 Y234.5065 Z-6.0
G1 Y231.5065
G1 Y230.0065 Z-7.0
G1 Y216.0065
G1 Y214.5065 Z-6.0
G1 Y211.5065
G1 Y210.0065 Z-7.0
G1 Y196.0065
G1 Y194.5065 Z-6.0
G1 Y191.5065
G1 Y190.0065 Z-7.0
G1 Y184.4235
G3 X46.4112 Y176.1765 I8.5427 J-0.1731
G3 X47.9211 Y175.8033 Z-6.0 I2.7964 J8.0739
G3 X49.4128 Y175.7084 I1.2865 J8.4471
G1 X50.9245
G1 X52.425 Z-7.0
G1 X59.386
G1 F300.0 Z-8.0
G1 F600.0 X63.7276
G1 X65.2276 Z-6.0
G1 X68.2276
G1 X69.7276 Z-8.0
G1 X83.7276
G1 X85.2276 Z-6.0
G1 X88.2276
G1 X89.7276 Z-8.0
G1 X103.7276
G1 X105.2276 Z-6.0
G1 X108.2276
G1 X109.7276 Z-8.0
G1 X123.7276
G1 X125.2276 Z-6.0
G1 X128.2276
G1 X129.0212 Z-7.0581
G1 X129.7276 Z-8.0
G1 X143.7276
G1 X145.2276 Z-6.0
G1 X148.2276
G1 X149.7276 Z-8.0
G1 X163.7276
G1 X165.2276 Z-6.0
G1 X168.2276
G1 X169.7276 Z-8.0
G1 X183.7886
G1 X185.29 Z-6.0
G1 X186.2236
G3 X188.2841 Y175.9098 I0.2052 J8.542
G3 X189.7653 Y176.3843 Z-8.0 I-1.8554 J8.3406
G3 X194.9715 Y184.4235 I-3.3366 J7.8661
G1 Y190.4838
G1 Y191.9838 Z-6.0
G1 Y194.9838
G1 Y196.4838 Z-8.0
G1 Y210.4838
G1 Y211.9838 Z-6.0
G1 Y214.9838
G1 Y216.4838 Z-8.0
G1 Y230.4838
G1 Y231.9838 Z-6.0
G1 Y234.9838
G1 Y236.4838 Z-8.0
G1 Y250.4838
G1 Y251.9838 Z-6.0
G1 Y254.9838
G1 Y256.4838 Z-8.0
G1 Y270.4838
G1 Y271.9838 Z-6.0
G1 Y274.9838
G1 Y276.4838 Z-8.0
G1 Y290.5677
G1 Y292.0703 Z-6.0
G1 Y292.2787
G3 X194.7868 Y295.0646 I-14.6517 J0.4279
G3 X194.4654 Y296.5482 Z-8.0 I-14.467 J-2.358
G3 X183.2012 Y307.0785 I-14.1455 J-3.8416
G3 X181.6993 Y307.2995 Z-6.0 I-2.8814 J-14.3719
G3 X179.8919 Y307.3583 I-1.3795 J-14.5929
G1 X178.6987
G1 X177.1987 Z-8.0
G1 X163.2112
G1 X161.7112 Z-6.0
G1 X158.7112
G1 X157.2112 Z-8.0
G1 X143.2112
G1 X141.7112 Z-6.0
G1 X138.7112
G1 X137.2112 Z-8.0
G1 X123.2112
G1 X121.7112 Z-6.0
G1 X118.7112
G1 X117.2112 Z-8.0
G1 X111.9253
G1 X104.6301 Y310.7595
G1 X103.2706 Y311.3933 Z-6.0
G1 X100.5516 Y312.661
G1 X99.1921 Y313.2948 Z-8.0
G1 X86.5033 Y319.2106
G1 X85.1438 Y319.8444 Z-6.0
G1 X82.4248 Y321.1121
G1 X81.0653 Y321.7459 Z-8.0
G1 X68.3766 Y327.6617
G1 X67.0171 Y328.2955 Z-6.0
G1 X64.2981 Y329.5632
G1 X62.9386 Y330.197 Z-8.0
G1 X50.2498 Y336.1128
G1 X48.8903 Y336.7466 Z-6.0
G1 X46.1713 Y338.0143
G1 X44.8118 Y338.6481 Z-8.0
G1 X34.9758 Y343.2338
G3 X34.8777 Y343.2821 I-1.5928 J-3.1165
G3 X30.7681 Y344.1004 I-3.6936 J-7.8207
G3 X29.2289 Y343.8866 Z-6.0 I0.416 J-8.639
G3 X26.4685 Y342.7118 I1.9552 J-8.4251
G3 X25.2472 Y341.751 Z-8.0 I4.7156 J-7.2504
G3 X23.3615 Y339.1511 I5.9369 J-6.2896
G3 X23.3587 Y339.1451 I1.3567 J-0.6399
G1 X23.3321 Y339.088
G1 X18.373 Y328.4529
G1 X17.7391 Y327.0935 Z-6.0
G1 X16.4712 Y324.3745
G1 X15.8373 Y323.0151 Z-8.0
G1 X9.9208 Y310.3267
G1 X9.2868 Y308.9673 Z-6.0
G1 X8.019 Y306.2483
G1 X7.3851 Y304.8889 Z-8.0
G1 X1.6521 Y292.5942
G1 X1.6269 Y292.5402
G3 X1.6243 Y292.5345 I1.3595 J-0.6339
G3 X1.2529 Y291.586 I7.8539 J-3.6225
G3 X0.9071 Y290.071 Z-6.0 I8.2253 J-2.674
G3 X1.0268 Y287.0734 I8.571 J-1.159
G3 X1.4922 Y285.5908 Z-8.0 I8.4514 J1.8386
G3 X5.7884 Y281.0895 I7.9859 J3.3212
G3 X5.7944 Y281.0867 I0.6399 J1.3567
G1 X5.8515 Y281.0601
G1 X14.1383 Y277.1959
G1 X15.4977 Y276.562 Z-6.0
G1 X18.2167 Y275.2942
G1 X19.5761 Y274.6602 Z-8.0
G1 X32.2645 Y268.7436
G1 X33.6239 Y268.1097 Z-6.0
G1 X36.3429 Y266.8419
G1 X37.7023 Y266.2079 Z-8.0
G1 X38.9383 Y265.6316
G1 X40.6649 Y264.8265
G1 Y256.0065
G1 Y254.5065 Z-6.0
G1 Y251.5065
G1 Y250.0065 Z-8.0
G1 Y236.0065
G1 Y234.5065 Z-6.0
G1 Y231.5065
G1 Y230.0065 Z-8.0
G1 Y216.0065
G1 Y214.5065 Z-6.0
G1 Y211.5065
G1 Y210.0065 Z-8.0
G1 Y196.0065
G1 Y194.5065 Z-6.0
G1 Y191.5065
G1 Y190.0065 Z-8.0
G1 Y184.4235
G3 X46.4112 Y176.1765 I8.5427 J-0.1731
G3 X47.9211 Y175.8033 Z-6.0 I2.7964 J8.0739
G3 X49.4128 Y175.7084 I1.2865 J8.4471
G1 X50.9245
G1 X52.425 Z-8.0
G1 X59.386
( Cutout Finishing )
S1000
G0 Z3.0
G0 Y169.1075
G0 Z1.0
G1 F400.0 Z-8.0
G1 X51.3221
G1 X50.8219 Z-7.0
G1 X49.4116
G3 X48.019 Y169.0259 I-0.204 J-8.442
G3 X47.5166 Y168.9389 Z-8.0 I1.1886 J-8.3604
G3 X40.7649 Y160.4934 I1.691 J-8.2735
G1 Y153.8094
G1 Y153.3094 Z-7.0
G1 Y150.5094
G1 Y150.0094 Z-8.0
G1 Y133.8094
G1 Y133.3094 Z-7.0
G1 Y130.5094
G1 Y130.0094 Z-8.0
G1 Y113.8094
G1 Y113.3094 Z-7.0
G1 Y110.5094
G1 Y110.0094 Z-8.0
G1 Y93.8094
G1 Y93.3094 Z-7.0
G1 Y90.5094
G1 Y90.0094 Z-8.0
G1 Y80.0257
G1 X38.9806 Y79.1937
G1 X36.7476 Y78.1525
G1 X36.2945 Y77.9411 Z-7.0
G1 X33.7568 Y76.7578
G1 X33.3037 Y76.5465 Z-8.0
G1 X18.6215 Y69.7002
G1 X18.1683 Y69.4888 Z-7.0
G1 X15.6306 Y68.3055
G1 X15.1775 Y68.0942 Z-8.0
G1 X5.8938 Y63.7652
G1 X5.8367 Y63.7386
G3 X5.8311 Y63.7359 I0.5917 J-1.2688
G3 X1.2254 Y58.2349 I3.6471 J-7.7321
G3 X1.1071 Y57.7392 Z-7.0 I8.2528 J-2.231
G3 X0.9954 Y54.9414 I8.3711 J-1.7353
G3 X1.0738 Y54.4379 Z-8.0 I8.4828 J1.0625
G3 X1.7151 Y52.4233 I8.4044 J1.566
G3 X1.7175 Y52.418 I1.2713 J0.5864
G1 X1.7427 Y52.364
G1 X7.9406 Y39.0723
G1 X8.1519 Y38.6192 Z-7.0
G1 X9.3352 Y36.0815
G1 X9.5465 Y35.6284 Z-8.0
G1 X16.3928 Y20.9461
G1 X16.6041 Y20.493 Z-7.0
G1 X17.7875 Y17.9553
G1 X17.9988 Y17.5021 Z-8.0
G1 X23.4228 Y5.8701
G1 X23.4494 Y5.8131
G3 X23.452 Y5.8075 I1.2688 J0.5917
G3 X26.172 Y2.5288 I7.7321 J3.647
G3 X26.5935 Y2.2425 Z-7.0 I5.0121 J6.9257
G3 X29.1699 Y1.1461 I4.5906 J7.212
G3 X29.6685 Y1.0409 Z-8.0 I2.0142 J8.3084
G3 X34.835 Y1.7242 I1.5156 J8.4136
G3 X34.9319 Y1.7719 I-1.452 J3.0744
G1 X45.7665 Y6.8232
G1 X46.2197 Y7.0345 Z-7.0
G1 X48.7574 Y8.2177
G1 X49.2106 Y8.429 Z-8.0
G1 X63.8933 Y15.2743
G1 X64.3464 Y15.4856 Z-7.0
G1 X66.8842 Y16.6688
G1 X67.3374 Y16.8801 Z-8.0
G1 X82.02 Y23.7254
G1 X82.4732 Y23.9367 Z-7.0
G1 X85.0109 Y25.1199
G1 X85.4641 Y25.3312 Z-8.0
G1 X100.1468 Y32.1765
G1 X100.5999 Y32.3878 Z-7.0
G1 X103.1377 Y33.571
G1 X103.5909 Y33.7823 Z-8.0
G1 X111.9032 Y37.6576
G1 X118.3112
G1 X118.8112 Z-7.0
G1 X121.6112
G1 X122.1112 Z-8.0
G1 X138.3112
G1 X138.8112 Z-7.0
G1 X141.6112
G1 X142.1112 Z-8.0
G1 X158.3112
G1 X158.8112 Z-7.0
G1 X161.6112
G1 X162.1112 Z-8.0
G1 X178.2996
G1 X178.7996 Z-7.0
G1 X179.8934
G3 X181.6001 Y37.7078 I0.4264 J14.5517
G3 X182.1005 Y37.7607 Z-8.0 I-1.2802 J14.5015
G3 X194.6159 Y49.4607 I-1.7807 J14.4486
G3 X194.7024 Y49.9564 Z-7.0 I-14.2961 J2.7486
G3 X194.8715 Y52.6357 I-14.3825 J2.2529
G1 Y52.7513
G1 Y53.2522 Z-8.0
G1 Y69.5321
G1 Y70.0321 Z-7.0
G1 Y72.8321
G1 Y73.3321 Z-8.0
G1 Y89.5321
G1 Y90.0321 Z-7.0
G1 Y92.8321
G1 Y93.3321 Z-8.0
G1 Y109.5321
G1 Y110.0321 Z-7.0
G1 Y112.8321
G1 Y113.3321 Z-8.0
G1 Y129.5321
G1 Y130.0321 Z-7.0
G1 Y132.8321
G1 Y133.3321 Z-8.0
G1 Y149.5321
G1 Y150.0321 Z-7.0
G1 Y152.8321
G1 Y153.3321 Z-8.0
G1 Y160.4934
G3 X188.676 Y168.8055 I-8.4427 J0.172
G3 X188.1807 Y168.9262 Z-7.0 I-2.2472 J-8.14
G3 X186.2248 Y169.1075 I-1.7519 J-8.2608
G1 X185.3858
G1 X184.8854 Z-8.0
G1 X168.6276
G1 X168.1276 Z-7.0
G1 X165.3276
G1 X164.8276 Z-8.0
G1 X148.6276
G1 X148.1276 Z-7.0
G1 X145.3276
G1 X144.8276 Z-8.0
G1 X129.0212
G1 X128.6276
G1 X128.1276 Z-7.0
G1 X125.3276
G1 X124.8276 Z-8.0
G1 X108.6276
G1 X108.1276 Z-7.0
G1 X105.3276
G1 X104.8276 Z-8.0
G1 X88.6276
G1 X88.1276 Z-7.0
G1 X85.3276
G1 X84.8276 Z-8.0
G1 X68.6276
G1 X68.1276 Z-7.0
G1 X65.3276
G1 X64.8276 Z-8.0
G1 X59.386
G0 Z3.0
G0 Y175.8084
G0 Z1.0
G1 Z-8.0
G1 X64.8276
