( Made using CamBam - http://www.cambam.co.uk )
( Right 2/5/2014 5:12:12 PM )
( T3 : 3.0 )
G21 G90 G64 G40
G0 Z3.0
( T3 : 3.0 )
T3 M6
( Stock Drill )
G17
M3 S1000
G0 X8.1885 Y341.8585
G0 Z3.0
G0 X8.6885 Y341.8585
G0 Z1.0
G1 F300.0 Z0.0
G2 F2500.0 X7.9385 Y341.4255 Z-1.0 I-0.5 J0.0
G2 Y342.2915 Z-2.0 I0.25 J0.433
G2 X8.6885 Y341.8585 Z-3.0 I0.25 J-0.433
G2 X7.9385 Y341.4255 Z-4.0 I-0.5 J0.0
G2 Y342.2915 Z-5.0 I0.25 J0.433
G2 X8.6885 Y341.8585 Z-6.0 I0.25 J-0.433
G2 X7.9385 Y341.4255 Z-7.0 I-0.5 J0.0
G2 Y342.2915 Z-8.0 I0.25 J0.433
G2 X8.4385 Z-8.5 I0.25 J-0.433
G2 Y341.4255 I-0.25 J-0.433
G2 X7.6885 Y341.8585 I-0.25 J0.433
G2 X8.4385 Y342.2915 I0.5 J0.0
G0 Z3.0
G0 X42.1024 Y308.088
G0 Z1.0
G1 F300.0 Z0.0
G2 F2500.0 X41.3524 Y307.6549 Z-1.0 I-0.5 J0.0
G2 Y308.521 Z-2.0 I0.25 J0.433
G2 X42.1024 Y308.088 Z-3.0 I0.25 J-0.433
G2 X41.3524 Y307.6549 Z-4.0 I-0.5 J0.0
G2 Y308.521 Z-5.0 I0.25 J0.433
G2 X42.1024 Y308.088 Z-6.0 I0.25 J-0.433
G2 X41.3524 Y307.6549 Z-7.0 I-0.5 J0.0
G2 Y308.521 Z-8.0 I0.25 J0.433
G2 X41.8524 Z-8.5 I0.25 J-0.433
G2 Y307.6549 I-0.25 J-0.433
G2 X41.1024 Y308.088 I-0.25 J0.433
G2 X41.8524 Y308.521 I0.5 J0.0
G0 Z3.0
G0 X111.7033 Y327.054
G0 Z1.0
G1 F300.0 Z0.0
G2 F2500.0 X110.9533 Y326.621 Z-1.0 I-0.5 J0.0
G2 Y327.487 Z-2.0 I0.25 J0.433
G2 X111.7033 Y327.054 Z-3.0 I0.25 J-0.433
G2 X110.9533 Y326.621 Z-4.0 I-0.5 J0.0
G2 Y327.487 Z-5.0 I0.25 J0.433
G2 X111.7033 Y327.054 Z-6.0 I0.25 J-0.433
G2 X110.9533 Y326.621 Z-7.0 I-0.5 J0.0
G2 Y327.487 Z-8.0 I0.25 J0.433
G2 X111.4533 Z-8.5 I0.25 J-0.433
G2 Y326.621 I-0.25 J-0.433
G2 X110.7033 Y327.054 I-0.25 J0.433
G2 X111.4533 Y327.487 I0.5 J0.0
G0 Z3.0
G0 X171.6526 Y327.054
G0 Z1.0
G1 F300.0 Z0.0
G2 F2500.0 X170.9026 Y326.621 Z-1.0 I-0.5 J0.0
G2 Y327.487 Z-2.0 I0.25 J0.433
G2 X171.6526 Y327.054 Z-3.0 I0.25 J-0.433
G2 X170.9026 Y326.621 Z-4.0 I-0.5 J0.0
G2 Y327.487 Z-5.0 I0.25 J0.433
G2 X171.6526 Y327.054 Z-6.0 I0.25 J-0.433
G2 X170.9026 Y326.621 Z-7.0 I-0.5 J0.0
G2 Y327.487 Z-8.0 I0.25 J0.433
G2 X171.4026 Z-8.5 I0.25 J-0.433
G2 Y326.621 I-0.25 J-0.433
G2 X170.6526 Y327.054 I-0.25 J0.433
G2 X171.4026 Y327.487 I0.5 J0.0
G0 Z3.0
G0 X209.9338 Y327.054
G0 Z1.0
G1 F300.0 Z0.0
G2 F2500.0 X209.1838 Y326.621 Z-1.0 I-0.5 J0.0
G2 Y327.487 Z-2.0 I0.25 J0.433
G2 X209.9338 Y327.054 Z-3.0 I0.25 J-0.433
G2 X209.1838 Y326.621 Z-4.0 I-0.5 J0.0
G2 Y327.487 Z-5.0 I0.25 J0.433
G2 X209.9338 Y327.054 Z-6.0 I0.25 J-0.433
G2 X209.1838 Y326.621 Z-7.0 I-0.5 J0.0
G2 Y327.487 Z-8.0 I0.25 J0.433
G2 X209.6838 Z-8.5 I0.25 J-0.433
G2 Y326.621 I-0.25 J-0.433
G2 X208.9338 Y327.054 I-0.25 J0.433
G2 X209.6838 Y327.487 I0.5 J0.0
G0 Z3.0
G0 X209.9338 Y244.0664
G0 Z1.0
G1 F300.0 Z0.0
G2 F2500.0 X209.1838 Y243.6333 Z-1.0 I-0.5 J0.0
G2 Y244.4994 Z-2.0 I0.25 J0.433
G2 X209.9338 Y244.0664 Z-3.0 I0.25 J-0.433
G2 X209.1838 Y243.6333 Z-4.0 I-0.5 J0.0
G2 Y244.4994 Z-5.0 I0.25 J0.433
G2 X209.9338 Y244.0664 Z-6.0 I0.25 J-0.433
G2 X209.1838 Y243.6333 Z-7.0 I-0.5 J0.0
G2 Y244.4994 Z-8.0 I0.25 J0.433
G2 X209.6838 Z-8.5 I0.25 J-0.433
G2 Y243.6333 I-0.25 J-0.433
G2 X208.9338 Y244.0664 I-0.25 J0.433
G2 X209.6838 Y244.4994 I0.5 J0.0
G0 Z3.0
G0 X209.9338 Y172.8391
G0 Z1.0
G1 F300.0 Z0.0
G2 F2500.0 X209.1838 Y172.4061 Z-1.0 I-0.5 J0.0
G2 Y173.2721 Z-2.0 I0.25 J0.433
G2 X209.9338 Y172.8391 Z-3.0 I0.25 J-0.433
G2 X209.1838 Y172.4061 Z-4.0 I-0.5 J0.0
G2 Y173.2721 Z-5.0 I0.25 J0.433
G2 X209.9338 Y172.8391 Z-6.0 I0.25 J-0.433
G2 X209.1838 Y172.4061 Z-7.0 I-0.5 J0.0
G2 Y173.2721 Z-8.0 I0.25 J0.433
G2 X209.6838 Z-8.5 I0.25 J-0.433
G2 Y172.4061 I-0.25 J-0.433
G2 X208.9338 Y172.8391 I-0.25 J0.433
G2 X209.6838 Y173.2721 I0.5 J0.0
G0 Z3.0
G0 X209.9338 Y101.6118
G0 Z1.0
G1 F300.0 Z0.0
G2 F2500.0 X209.1838 Y101.1788 Z-1.0 I-0.5 J0.0
G2 Y102.0448 Z-2.0 I0.25 J0.433
G2 X209.9338 Y101.6118 Z-3.0 I0.25 J-0.433
G2 X209.1838 Y101.1788 Z-4.0 I-0.5 J0.0
G2 Y102.0448 Z-5.0 I0.25 J0.433
G2 X209.9338 Y101.6118 Z-6.0 I0.25 J-0.433
G2 X209.1838 Y101.1788 Z-7.0 I-0.5 J0.0
G2 Y102.0448 Z-8.0 I0.25 J0.433
G2 X209.6838 Z-8.5 I0.25 J-0.433
G2 Y101.1788 I-0.25 J-0.433
G2 X208.9338 Y101.6118 I-0.25 J0.433
G2 X209.6838 Y102.0448 I0.5 J0.0
G0 Z3.0
G0 X209.9338 Y8.59
G0 Z1.0
G1 F300.0 Z0.0
G2 F2500.0 X209.1838 Y8.157 Z-1.0 I-0.5 J0.0
G2 Y9.023 Z-2.0 I0.25 J0.433
G2 X209.9338 Y8.59 Z-3.0 I0.25 J-0.433
G2 X209.1838 Y8.157 Z-4.0 I-0.5 J0.0
G2 Y9.023 Z-5.0 I0.25 J0.433
G2 X209.9338 Y8.59 Z-6.0 I0.25 J-0.433
G2 X209.1838 Y8.157 Z-7.0 I-0.5 J0.0
G2 Y9.023 Z-8.0 I0.25 J0.433
G2 X209.6838 Z-8.5 I0.25 J-0.433
G2 Y8.157 I-0.25 J-0.433
G2 X208.9338 Y8.59 I-0.25 J0.433
G2 X209.6838 Y9.023 I0.5 J0.0
G0 Z3.0
G0 X173.3878 Y8.59
G0 Z1.0
G1 F300.0 Z0.0
G2 F2500.0 X172.6378 Y8.157 Z-1.0 I-0.5 J0.0
G2 Y9.023 Z-2.0 I0.25 J0.433
G2 X173.3878 Y8.59 Z-3.0 I0.25 J-0.433
G2 X172.6378 Y8.157 Z-4.0 I-0.5 J0.0
G2 Y9.023 Z-5.0 I0.25 J0.433
G2 X173.3878 Y8.59 Z-6.0 I0.25 J-0.433
G2 X172.6378 Y8.157 Z-7.0 I-0.5 J0.0
G2 Y9.023 Z-8.0 I0.25 J0.433
G2 X173.1378 Z-8.5 I0.25 J-0.433
G2 Y8.157 I-0.25 J-0.433
G2 X172.3878 Y8.59 I-0.25 J0.433
G2 X173.1378 Y9.023 I0.5 J0.0
G0 Z3.0
G0 X112.4694 Y8.59
G0 Z1.0
G1 F300.0 Z0.0
G2 F2500.0 X111.7194 Y8.157 Z-1.0 I-0.5 J0.0
G2 Y9.023 Z-2.0 I0.25 J0.433
G2 X112.4694 Y8.59 Z-3.0 I0.25 J-0.433
G2 X111.7194 Y8.157 Z-4.0 I-0.5 J0.0
G2 Y9.023 Z-5.0 I0.25 J0.433
G2 X112.4694 Y8.59 Z-6.0 I0.25 J-0.433
G2 X111.7194 Y8.157 Z-7.0 I-0.5 J0.0
G2 Y9.023 Z-8.0 I0.25 J0.433
G2 X112.2194 Z-8.5 I0.25 J-0.433
G2 Y8.157 I-0.25 J-0.433
G2 X111.4694 Y8.59 I-0.25 J0.433
G2 X112.2194 Y9.023 I0.5 J0.0
G0 Z3.0
G0 X8.6885 Y8.59
G0 Z1.0
G1 F300.0 Z0.0
G2 F2500.0 X7.9385 Y8.157 Z-1.0 I-0.5 J0.0
G2 Y9.023 Z-2.0 I0.25 J0.433
G2 X8.6885 Y8.59 Z-3.0 I0.25 J-0.433
G2 X7.9385 Y8.157 Z-4.0 I-0.5 J0.0
G2 Y9.023 Z-5.0 I0.25 J0.433
G2 X8.6885 Y8.59 Z-6.0 I0.25 J-0.433
G2 X7.9385 Y8.157 Z-7.0 I-0.5 J0.0
G2 Y9.023 Z-8.0 I0.25 J0.433
G2 X8.4385 Z-8.5 I0.25 J-0.433
G2 Y8.157 I-0.25 J-0.433
G2 X7.6885 Y8.59 I-0.25 J0.433
G2 X8.4385 Y9.023 I0.5 J0.0
G0 Z3.0
G0 X8.6885 Y101.6118
G0 Z1.0
G1 F300.0 Z0.0
G2 F2500.0 X7.9385 Y101.1788 Z-1.0 I-0.5 J0.0
G2 Y102.0448 Z-2.0 I0.25 J0.433
G2 X8.6885 Y101.6118 Z-3.0 I0.25 J-0.433
G2 X7.9385 Y101.1788 Z-4.0 I-0.5 J0.0
G2 Y102.0448 Z-5.0 I0.25 J0.433
G2 X8.6885 Y101.6118 Z-6.0 I0.25 J-0.433
G2 X7.9385 Y101.1788 Z-7.0 I-0.5 J0.0
G2 Y102.0448 Z-8.0 I0.25 J0.433
G2 X8.4385 Z-8.5 I0.25 J-0.433
G2 Y101.1788 I-0.25 J-0.433
G2 X7.6885 Y101.6118 I-0.25 J0.433
G2 X8.4385 Y102.0448 I0.5 J0.0
G0 Z3.0
G0 X8.6885 Y172.8391
G0 Z1.0
G1 F300.0 Z0.0
G2 F2500.0 X7.9385 Y172.4061 Z-1.0 I-0.5 J0.0
G2 Y173.2721 Z-2.0 I0.25 J0.433
G2 X8.6885 Y172.8391 Z-3.0 I0.25 J-0.433
G2 X7.9385 Y172.4061 Z-4.0 I-0.5 J0.0
G2 Y173.2721 Z-5.0 I0.25 J0.433
G2 X8.6885 Y172.8391 Z-6.0 I0.25 J-0.433
G2 X7.9385 Y172.4061 Z-7.0 I-0.5 J0.0
G2 Y173.2721 Z-8.0 I0.25 J0.433
G2 X8.4385 Z-8.5 I0.25 J-0.433
G2 Y172.4061 I-0.25 J-0.433
G2 X7.6885 Y172.8391 I-0.25 J0.433
G2 X8.4385 Y173.2721 I0.5 J0.0
G0 Z3.0
G0 X8.6885 Y244.0664
G0 Z1.0
G1 F300.0 Z0.0
G2 F2500.0 X7.9385 Y243.6333 Z-1.0 I-0.5 J0.0
G2 Y244.4994 Z-2.0 I0.25 J0.433
G2 X8.6885 Y244.0664 Z-3.0 I0.25 J-0.433
G2 X7.9385 Y243.6333 Z-4.0 I-0.5 J0.0
G2 Y244.4994 Z-5.0 I0.25 J0.433
G2 X8.6885 Y244.0664 Z-6.0 I0.25 J-0.433
G2 X7.9385 Y243.6333 Z-7.0 I-0.5 J0.0
G2 Y244.4994 Z-8.0 I0.25 J0.433
G2 X8.4385 Z-8.5 I0.25 J-0.433
G2 Y243.6333 I-0.25 J-0.433
G2 X7.6885 Y244.0664 I-0.25 J0.433
G2 X8.4385 Y244.4994 I0.5 J0.0
G0 Z3.0
G0 X111.7033 Y244.0664
G0 Z1.0
G1 F300.0 Z0.0
G2 F2500.0 X110.9533 Y243.6333 Z-1.0 I-0.5 J0.0
G2 Y244.4994 Z-2.0 I0.25 J0.433
G2 X111.7033 Y244.0664 Z-3.0 I0.25 J-0.433
G2 X110.9533 Y243.6333 Z-4.0 I-0.5 J0.0
G2 Y244.4994 Z-5.0 I0.25 J0.433
G2 X111.7033 Y244.0664 Z-6.0 I0.25 J-0.433
G2 X110.9533 Y243.6333 Z-7.0 I-0.5 J0.0
G2 Y244.4994 Z-8.0 I0.25 J0.433
G2 X111.4533 Z-8.5 I0.25 J-0.433
G2 Y243.6333 I-0.25 J-0.433
G2 X110.7033 Y244.0664 I-0.25 J0.433
G2 X111.4533 Y244.4994 I0.5 J0.0
G0 Z3.0
M5
M30
