( Made using CamBam - http://www.cambam.co.uk )
( Left Bottom 2/7/2014 7:11:12 PM )
( T3 : 3.0 )
G21 G90 G64 G40
G0 Z3.0
( T3 : 3.0 )
T3 M6
( Stock Drill )
G17
M3 S1000
G0 X211.8115 Y244.0664
G0 Z3.0
G0 X212.3115 Y244.0664
G0 Z1.0
G1 F300.0 Z0.0
G2 F2500.0 X211.5615 Y243.6333 Z-1.0 I-0.5 J0.0
G2 Y244.4994 Z-2.0 I0.25 J0.433
G2 X212.3115 Y244.0664 Z-3.0 I0.25 J-0.433
G2 X211.5615 Y243.6333 Z-4.0 I-0.5 J0.0
G2 Y244.4994 Z-5.0 I0.25 J0.433
G2 X212.3115 Y244.0664 Z-6.0 I0.25 J-0.433
G2 X211.5615 Y243.6333 Z-7.0 I-0.5 J0.0
G2 Y244.4994 Z-8.0 I0.25 J0.433
G2 X212.0615 Z-8.5 I0.25 J-0.433
G2 Y243.6333 I-0.25 J-0.433
G2 X211.3115 Y244.0664 I-0.25 J0.433
G2 X212.0615 Y244.4994 I0.5 J0.0
G0 Z3.0
G0 X166.7379 Y267.6055
G0 Z1.0
G1 F300.0 Z0.0
G2 F2500.0 X165.9879 Y267.1725 Z-1.0 I-0.5 J0.0
G2 Y268.0385 Z-2.0 I0.25 J0.433
G2 X166.7379 Y267.6055 Z-3.0 I0.25 J-0.433
G2 X165.9879 Y267.1725 Z-4.0 I-0.5 J0.0
G2 Y268.0385 Z-5.0 I0.25 J0.433
G2 X166.7379 Y267.6055 Z-6.0 I0.25 J-0.433
G2 X165.9879 Y267.1725 Z-7.0 I-0.5 J0.0
G2 Y268.0385 Z-8.0 I0.25 J0.433
G2 X166.4879 Z-8.5 I0.25 J-0.433
G2 Y267.1725 I-0.25 J-0.433
G2 X165.7379 Y267.6055 I-0.25 J0.433
G2 X166.4879 Y268.0385 I0.5 J0.0
G0 Z3.0
G0 X98.4998 Y267.6055
G0 Z1.0
G1 F300.0 Z0.0
G2 F2500.0 X97.7498 Y267.1725 Z-1.0 I-0.5 J0.0
G2 Y268.0385 Z-2.0 I0.25 J0.433
G2 X98.4998 Y267.6055 Z-3.0 I0.25 J-0.433
G2 X97.7498 Y267.1725 Z-4.0 I-0.5 J0.0
G2 Y268.0385 Z-5.0 I0.25 J0.433
G2 X98.4998 Y267.6055 Z-6.0 I0.25 J-0.433
G2 X97.7498 Y267.1725 Z-7.0 I-0.5 J0.0
G2 Y268.0385 Z-8.0 I0.25 J0.433
G2 X98.2498 Z-8.5 I0.25 J-0.433
G2 Y267.1725 I-0.25 J-0.433
G2 X97.4998 Y267.6055 I-0.25 J0.433
G2 X98.2498 Y268.0385 I0.5 J0.0
G0 Z3.0
G0 X34.0354 Y267.6055
G0 Z1.0
G1 F300.0 Z0.0
G2 F2500.0 X33.2854 Y267.1725 Z-1.0 I-0.5 J0.0
G2 Y268.0385 Z-2.0 I0.25 J0.433
G2 X34.0354 Y267.6055 Z-3.0 I0.25 J-0.433
G2 X33.2854 Y267.1725 Z-4.0 I-0.5 J0.0
G2 Y268.0385 Z-5.0 I0.25 J0.433
G2 X34.0354 Y267.6055 Z-6.0 I0.25 J-0.433
G2 X33.2854 Y267.1725 Z-7.0 I-0.5 J0.0
G2 Y268.0385 Z-8.0 I0.25 J0.433
G2 X33.7854 Z-8.5 I0.25 J-0.433
G2 Y267.1725 I-0.25 J-0.433
G2 X33.0354 Y267.6055 I-0.25 J0.433
G2 X33.7854 Y268.0385 I0.5 J0.0
G0 Z3.0
G0 X11.0662 Y244.0664
G0 Z1.0
G1 F300.0 Z0.0
G2 F2500.0 X10.3162 Y243.6333 Z-1.0 I-0.5 J0.0
G2 Y244.4994 Z-2.0 I0.25 J0.433
G2 X11.0662 Y244.0664 Z-3.0 I0.25 J-0.433
G2 X10.3162 Y243.6333 Z-4.0 I-0.5 J0.0
G2 Y244.4994 Z-5.0 I0.25 J0.433
G2 X11.0662 Y244.0664 Z-6.0 I0.25 J-0.433
G2 X10.3162 Y243.6333 Z-7.0 I-0.5 J0.0
G2 Y244.4994 Z-8.0 I0.25 J0.433
G2 X10.8162 Z-8.5 I0.25 J-0.433
G2 Y243.6333 I-0.25 J-0.433
G2 X10.0662 Y244.0664 I-0.25 J0.433
G2 X10.8162 Y244.4994 I0.5 J0.0
G0 Z3.0
G0 X11.0662 Y172.8391
G0 Z1.0
G1 F300.0 Z0.0
G2 F2500.0 X10.3162 Y172.4061 Z-1.0 I-0.5 J0.0
G2 Y173.2721 Z-2.0 I0.25 J0.433
G2 X11.0662 Y172.8391 Z-3.0 I0.25 J-0.433
G2 X10.3162 Y172.4061 Z-4.0 I-0.5 J0.0
G2 Y173.2721 Z-5.0 I0.25 J0.433
G2 X11.0662 Y172.8391 Z-6.0 I0.25 J-0.433
G2 X10.3162 Y172.4061 Z-7.0 I-0.5 J0.0
G2 Y173.2721 Z-8.0 I0.25 J0.433
G2 X10.8162 Z-8.5 I0.25 J-0.433
G2 Y172.4061 I-0.25 J-0.433
G2 X10.0662 Y172.8391 I-0.25 J0.433
G2 X10.8162 Y173.2721 I0.5 J0.0
G0 Z3.0
G0 X11.0662 Y101.6118
G0 Z1.0
G1 F300.0 Z0.0
G2 F2500.0 X10.3162 Y101.1788 Z-1.0 I-0.5 J0.0
G2 Y102.0448 Z-2.0 I0.25 J0.433
G2 X11.0662 Y101.6118 Z-3.0 I0.25 J-0.433
G2 X10.3162 Y101.1788 Z-4.0 I-0.5 J0.0
G2 Y102.0448 Z-5.0 I0.25 J0.433
G2 X11.0662 Y101.6118 Z-6.0 I0.25 J-0.433
G2 X10.3162 Y101.1788 Z-7.0 I-0.5 J0.0
G2 Y102.0448 Z-8.0 I0.25 J0.433
G2 X10.8162 Z-8.5 I0.25 J-0.433
G2 Y101.1788 I-0.25 J-0.433
G2 X10.0662 Y101.6118 I-0.25 J0.433
G2 X10.8162 Y102.0448 I0.5 J0.0
G0 Z3.0
G0 X11.0662 Y8.59
G0 Z1.0
G1 F300.0 Z0.0
G2 F2500.0 X10.3162 Y8.157 Z-1.0 I-0.5 J0.0
G2 Y9.023 Z-2.0 I0.25 J0.433
G2 X11.0662 Y8.59 Z-3.0 I0.25 J-0.433
G2 X10.3162 Y8.157 Z-4.0 I-0.5 J0.0
G2 Y9.023 Z-5.0 I0.25 J0.433
G2 X11.0662 Y8.59 Z-6.0 I0.25 J-0.433
G2 X10.3162 Y8.157 Z-7.0 I-0.5 J0.0
G2 Y9.023 Z-8.0 I0.25 J0.433
G2 X10.8162 Z-8.5 I0.25 J-0.433
G2 Y8.157 I-0.25 J-0.433
G2 X10.0662 Y8.59 I-0.25 J0.433
G2 X10.8162 Y9.023 I0.5 J0.0
G0 Z3.0
G0 X47.6122 Y8.59
G0 Z1.0
G1 F300.0 Z0.0
G2 F2500.0 X46.8622 Y8.157 Z-1.0 I-0.5 J0.0
G2 Y9.023 Z-2.0 I0.25 J0.433
G2 X47.6122 Y8.59 Z-3.0 I0.25 J-0.433
G2 X46.8622 Y8.157 Z-4.0 I-0.5 J0.0
G2 Y9.023 Z-5.0 I0.25 J0.433
G2 X47.6122 Y8.59 Z-6.0 I0.25 J-0.433
G2 X46.8622 Y8.157 Z-7.0 I-0.5 J0.0
G2 Y9.023 Z-8.0 I0.25 J0.433
G2 X47.3622 Z-8.5 I0.25 J-0.433
G2 Y8.157 I-0.25 J-0.433
G2 X46.6122 Y8.59 I-0.25 J0.433
G2 X47.3622 Y9.023 I0.5 J0.0
G0 Z3.0
G0 X108.5306 Y8.59
G0 Z1.0
G1 F300.0 Z0.0
G2 F2500.0 X107.7806 Y8.157 Z-1.0 I-0.5 J0.0
G2 Y9.023 Z-2.0 I0.25 J0.433
G2 X108.5306 Y8.59 Z-3.0 I0.25 J-0.433
G2 X107.7806 Y8.157 Z-4.0 I-0.5 J0.0
G2 Y9.023 Z-5.0 I0.25 J0.433
G2 X108.5306 Y8.59 Z-6.0 I0.25 J-0.433
G2 X107.7806 Y8.157 Z-7.0 I-0.5 J0.0
G2 Y9.023 Z-8.0 I0.25 J0.433
G2 X108.2806 Z-8.5 I0.25 J-0.433
G2 Y8.157 I-0.25 J-0.433
G2 X107.5306 Y8.59 I-0.25 J0.433
G2 X108.2806 Y9.023 I0.5 J0.0
G0 Z3.0
G0 X212.3115 Y8.59
G0 Z1.0
G1 F300.0 Z0.0
G2 F2500.0 X211.5615 Y8.157 Z-1.0 I-0.5 J0.0
G2 Y9.023 Z-2.0 I0.25 J0.433
G2 X212.3115 Y8.59 Z-3.0 I0.25 J-0.433
G2 X211.5615 Y8.157 Z-4.0 I-0.5 J0.0
G2 Y9.023 Z-5.0 I0.25 J0.433
G2 X212.3115 Y8.59 Z-6.0 I0.25 J-0.433
G2 X211.5615 Y8.157 Z-7.0 I-0.5 J0.0
G2 Y9.023 Z-8.0 I0.25 J0.433
G2 X212.0615 Z-8.5 I0.25 J-0.433
G2 Y8.157 I-0.25 J-0.433
G2 X211.3115 Y8.59 I-0.25 J0.433
G2 X212.0615 Y9.023 I0.5 J0.0
G0 Z3.0
G0 X212.3115 Y101.6118
G0 Z1.0
G1 F300.0 Z0.0
G2 F2500.0 X211.5615 Y101.1788 Z-1.0 I-0.5 J0.0
G2 Y102.0448 Z-2.0 I0.25 J0.433
G2 X212.3115 Y101.6118 Z-3.0 I0.25 J-0.433
G2 X211.5615 Y101.1788 Z-4.0 I-0.5 J0.0
G2 Y102.0448 Z-5.0 I0.25 J0.433
G2 X212.3115 Y101.6118 Z-6.0 I0.25 J-0.433
G2 X211.5615 Y101.1788 Z-7.0 I-0.5 J0.0
G2 Y102.0448 Z-8.0 I0.25 J0.433
G2 X212.0615 Z-8.5 I0.25 J-0.433
G2 Y101.1788 I-0.25 J-0.433
G2 X211.3115 Y101.6118 I-0.25 J0.433
G2 X212.0615 Y102.0448 I0.5 J0.0
G0 Z3.0
G0 X212.3115 Y172.8391
G0 Z1.0
G1 F300.0 Z0.0
G2 F2500.0 X211.5615 Y172.4061 Z-1.0 I-0.5 J0.0
G2 Y173.2721 Z-2.0 I0.25 J0.433
G2 X212.3115 Y172.8391 Z-3.0 I0.25 J-0.433
G2 X211.5615 Y172.4061 Z-4.0 I-0.5 J0.0
G2 Y173.2721 Z-5.0 I0.25 J0.433
G2 X212.3115 Y172.8391 Z-6.0 I0.25 J-0.433
G2 X211.5615 Y172.4061 Z-7.0 I-0.5 J0.0
G2 Y173.2721 Z-8.0 I0.25 J0.433
G2 X212.0615 Z-8.5 I0.25 J-0.433
G2 Y172.4061 I-0.25 J-0.433
G2 X211.3115 Y172.8391 I-0.25 J0.433
G2 X212.0615 Y173.2721 I0.5 J0.0
G0 Z3.0
M5
M30
