( Made using CamBam - http://www.cambam.co.uk )
( Left Top 2/7/2014 6:36:53 PM )
( T2 : 2.0 )
( T3 : 3.0 )
G21 G90 G64 G40
G0 Z3.0
( T3 : 3.0 )
T3 M6
( Bolt Holes Not Through )
G17
M3 S1000
G0 X30.2475 Y127.7811
G98
G81 X30.2475 Y127.7811 Z-4.0 R3.0 F300.0
G81 X92.3114 Y195.919 Z-4.0
G81 X126.5896 Y145.4849 Z-4.0
G81 X152.018 Y235.4852 Z-4.0
G81 X28.5759 Z-4.0
G81 X30.8825 Y24.8604 Z-4.0
G81 X113.8134 Z-4.0
G81 X164.6134 Z-4.0
G80
( Internal Space )
S1000
G0 Z3.0
G0 X44.054 Y31.6867
G0 Z1.0
G1 F300.0 Z-3.0
G1 F2500.0 X65.7047
G3 X66.3632 Y31.1837 I8.9549 J11.041
G1 X44.3028
G3 X44.054 Y31.6867 I-13.4202 J-6.3232
G1 F300.0 Y32.2867
G1 F2500.0 X65.92
G3 X68.5018 Y30.5837 I8.7396 J10.441
G1 X43.9167
G3 X43.0273 Y32.2867 I-13.0341 J-5.7232
G1 X44.054
G1 F300.0 Y33.4867
G1 F2500.0 X66.3674
G3 X74.6596 Y30.3117 I8.2922 J9.241
G1 X87.4497
G3 X89.5316 Y29.3837 I6.0746 J10.8285
G1 X88.6167
G1 X88.1198
G1 X43.1079
G3 X40.6553 Y33.4867 I-12.2254 J-4.5232
G1 X44.054
G1 F300.0 Y34.6867
G1 F2500.0 X66.8404
G3 X74.6596 Y31.5117 I7.8193 J8.041
G1 X87.7718
G3 X93.5243 Y29.9242 I5.7524 J9.6285
G1 X103.1161
G3 X102.4543 Y28.1837 I10.6973 J-5.0637
G1 X100.6198
G1 X100.1229
G1 X88.6167
G1 X88.1198
G1 X42.2417
G3 X37.4795 Y34.6867 I-11.3591 J-3.3232
G1 X44.054
G1 F300.0 Y35.8867
G1 F2500.0 X67.3438
G3 X74.6596 Y32.7117 I7.3158 J6.841
G1 X88.1131
G3 X93.5243 Y31.1242 I5.4112 J8.4285
G1 X105.2184
G3 X103.3923 Y26.9837 I8.5951 J-6.2637
G1 X100.6198
G1 X100.1229
G1 X88.6167
G1 X88.1198
G1 X41.3037
G3 X36.2002 Y34.0709 I-10.4212 J-2.1232
G3 X33.1073 Y35.2604 I-5.3176 J-9.2104
G1 Y35.8867
G1 X44.054
G1 F300.0 Y37.0867
G1 F2500.0 X67.8846
G3 X74.6596 Y33.9117 I6.775 J5.641
G1 X88.4774
G3 X93.5243 Y32.3242 I5.0468 J7.2285
G1 X108.0413
G3 X104.4234 Y25.7837 I5.7721 J-7.4637
G1 X100.6198
G1 X100.1229
G1 X88.6167
G1 X88.1198
G1 X40.2725
G3 X35.6002 Y33.0316 I-9.39 J-0.9232
G3 X31.9073 Y34.2399 I-4.7176 J-8.1712
G1 Y37.0867
G1 X44.054
G0 Z3.0
G0 X125.6542 Y30.3117
G0 Z1.0
G1 F300.0 Z-3.0
G1 F2500.0 X130.6259
G3 X136.0962 Y31.5817 I0.0 J12.416
G1 X153.4445
G3 X152.388 Y29.3837 I11.1689 J-6.7212
G1 X136.9782
G1 X136.4813
G1 X126.0388
G3 X125.6542 Y30.3117 I-12.2254 J-4.5232
G1 F300.0 X124.5641 Y29.8098
G3 F2500.0 X123.603 Y31.5117 I-10.7507 J-4.9494
G1 X130.6259
G3 X135.8101 Y32.7817 I0.0 J11.216
G1 X155.8197
G3 X153.2542 Y28.1837 I8.7936 J-7.9212
G1 X136.9782
G1 X136.4813
G1 X125.1726
G3 X124.5641 Y29.8098 I-11.3591 J-3.3232
G1 F300.0 X123.4741 Y29.308
G3 F2500.0 X120.9875 Y32.7117 I-9.6607 J-4.4476
G1 X130.6259
G3 X135.5073 Y33.9817 I0.0 J10.016
G1 X159.1442
G3 X154.1922 Y26.9837 I5.4692 J-9.1212
G1 X154.1486
G1 X136.9782
G1 X136.4813
G1 X124.2346
G3 X123.4741 Y29.308 I-10.4212 J-2.1232
G1 F300.0 X122.3841 Y28.8062
G3 F2500.0 X118.5311 Y33.0316 I-8.5706 J-3.9457
G3 X116.478 Y33.9117 I-4.7176 J-8.1712
G1 X130.6259
G3 X135.1844 Y35.1817 I0.0 J8.816
G1 X163.614
G1 Y34.2426
G3 X155.2234 Y25.7837 I0.9994 J-9.3822
G1 X154.6455
G1 X154.1486
G1 X136.9782
G1 X136.4813
G1 X123.2035
G3 X122.3841 Y28.8062 I-9.39 J-0.9232
G1 F300.0 X121.294 Y28.3044
G3 F2500.0 X117.9311 Y31.9924 I-7.4806 J-3.4439
G3 X105.5782 Y24.8604 I-4.1176 J-7.132
G3 X105.5828 Y24.5837 I8.2353 J0.0
G1 X100.6198
G1 X100.1229
G1 X88.6167
G1 X88.1198
G1 X39.1132
G3 X35.0002 Y31.9924 I-8.2306 J0.2768
G3 X30.7073 Y33.0939 I-4.1176 J-7.132
G1 Y38.2867
G1 X68.4725
G3 X74.6596 Y35.1117 I6.1872 J4.441
G1 X88.8702
G3 X93.5243 Y33.5242 I4.6541 J6.0285
G1 X111.421
G3 X116.0751 Y35.1117 I0.0 J7.616
G1 X130.6259
G3 X134.8368 Y36.3817 I0.0 J7.616
G1 X164.814
G1 Y33.0933
G3 X156.3781 Y24.8604 I-0.2006 J-8.2328
G3 X156.3828 Y24.5837 I8.2353 J0.0
G1 X154.6455
G1 X154.1486
G1 X136.9782
G1 X136.4813
G1 X122.0441
G3 X121.294 Y28.3044 I-8.2306 J0.2768
G1 F300.0 X120.204 Y27.8025
G3 F2500.0 X117.3311 Y30.9532 I-6.3906 J-2.9421
G3 X106.7782 Y24.8604 I-3.5176 J-6.0927
G3 X106.9349 Y23.3837 I7.0353 J0.0
G1 X100.6198
G1 X100.1229
G1 X88.6167
G1 X88.1198
G1 X37.7611
G3 X34.4002 Y30.9532 I-6.8785 J1.4768
G3 X29.5073 Y31.76 I-3.5176 J-6.0927
G1 Y39.4867
G1 X69.1224
G3 X74.6596 Y36.3117 I5.5372 J3.241
G1 X89.2993
G3 X93.5243 Y34.7242 I4.225 J4.8285
G1 X111.421
G3 X115.646 Y36.3117 I0.0 J6.416
G1 X130.6259
G3 X134.4579 Y37.5817 I0.0 J6.416
G1 X166.014
G1 Y31.7549
G3 X157.5781 Y24.8604 I-1.4006 J-6.8945
G3 X157.7349 Y23.3837 I7.0353 J0.0
G1 X154.6455
G1 X154.1486
G1 X136.9782
G1 X136.4813
G1 X120.692
G3 X120.204 Y27.8025 I-6.8785 J1.4768
G1 F300.0 X119.114 Y27.3007
G3 F2500.0 X116.7311 Y29.9139 I-5.3005 J-2.4403
G3 X107.9782 Y24.8604 I-2.9176 J-5.0535
G3 X108.6283 Y22.1837 I5.8353 J0.0
G1 X100.6198
G1 X100.1229
G1 X88.6167
G1 X88.1198
G1 X36.0676
G3 X33.8002 Y29.9139 I-5.1851 J2.6768
G3 X28.3073 Y30.0967 I-2.9176 J-5.0535
G1 Y40.6867
G1 X69.8595
G3 X74.6596 Y37.5117 I4.8001 J2.041
G1 X89.7772
G3 X93.5243 Y35.9242 I3.7471 J3.6285
G1 X111.421
G3 X115.1681 Y37.5117 I0.0 J5.216
G1 X130.6259
G3 X134.037 Y38.7817 I0.0 J5.216
G1 X167.214
G1 Y30.0842
G3 X158.7781 Y24.8604 I-2.6006 J-5.2237
G3 X159.4283 Y22.1837 I5.8353 J0.0
G1 X154.6455
G1 X154.1486
G1 X136.9782
G1 X136.4813
G1 X118.9986
G3 X119.114 Y27.3007 I-5.1851 J2.6768
G1 F300.0 X118.0261 Y26.7999
G3 F2500.0 X116.1323 Y28.8768 I-4.2127 J-1.9394
G3 X109.1758 Y24.8604 I-2.3188 J-4.0164
G3 X111.2681 Y20.9837 I4.6377 J0.0
G1 X100.6198
G1 X100.1229
G1 X88.6167
G1 X88.1198
G1 X33.4278
G3 X33.2014 Y28.8768 I-2.5453 J3.8768
G3 X27.1073 Y27.5541 I-2.3188 J-4.0164
G1 Y41.8867
G1 X27.1075
G1 X70.7327
G3 X74.6596 Y38.7117 I3.927 J0.841
G1 X90.3257
G3 X93.5243 Y37.1242 I3.1985 J2.4285
G1 X111.421
G3 X114.6195 Y38.7117 I0.0 J4.016
G1 X130.6259
G3 X133.5564 Y39.9817 I0.0 J4.016
G1 X168.3856
G1 X168.414
G1 Y27.5182
G3 X166.9322 Y28.8768 I-3.8006 J-2.6577
G3 X159.9757 Y24.8604 I-2.3188 J-4.0164
G3 X162.0681 Y20.9837 I4.6377 J0.0
G1 X154.6455
G1 X154.1486
G1 X136.9782
G1 X136.4813
G1 X116.3588
G3 X118.0261 Y26.7999 I-2.5453 J3.8768
G0 Z3.0
G0 X125.6542 Y30.3117
G0 Z-2.0
G1 F300.0 Z-6.0
G1 F2500.0 X130.6259
G3 X136.0962 Y31.5817 I0.0 J12.416
G1 X153.4445
G3 X152.388 Y29.3837 I11.1689 J-6.7212
G1 X136.9782
G1 X136.4813
G1 X126.0388
G3 X125.6542 Y30.3117 I-12.2254 J-4.5232
G1 F300.0 X124.5641 Y29.8098
G3 F2500.0 X123.603 Y31.5117 I-10.7507 J-4.9494
G1 X130.6259
G3 X135.8101 Y32.7817 I0.0 J11.216
G1 X155.8197
G3 X153.2542 Y28.1837 I8.7936 J-7.9212
G1 X136.9782
G1 X136.4813
G1 X125.1726
G3 X124.5641 Y29.8098 I-11.3591 J-3.3232
G1 F300.0 X123.4741 Y29.308
G3 F2500.0 X120.9875 Y32.7117 I-9.6607 J-4.4476
G1 X130.6259
G3 X135.5073 Y33.9817 I0.0 J10.016
G1 X159.1442
G3 X154.1922 Y26.9837 I5.4692 J-9.1212
G1 X154.1486
G1 X136.9782
G1 X136.4813
G1 X124.2346
G3 X123.4741 Y29.308 I-10.4212 J-2.1232
G1 F300.0 X122.3841 Y28.8062
G3 F2500.0 X118.5311 Y33.0316 I-8.5706 J-3.9457
G3 X116.478 Y33.9117 I-4.7176 J-8.1712
G1 X130.6259
G3 X135.1844 Y35.1817 I0.0 J8.816
G1 X163.614
G1 Y34.2426
G3 X155.2234 Y25.7837 I0.9994 J-9.3822
G1 X154.6455
G1 X154.1486
G1 X136.9782
G1 X136.4813
G1 X123.2035
G3 X122.3841 Y28.8062 I-9.39 J-0.9232
G0 Z3.0
G0 X66.3632 Y31.1837
G0 Z-2.0
G1 F300.0 Z-6.0
G1 F2500.0 X44.3028
G3 X44.054 Y31.6867 I-13.4202 J-6.3232
G1 X65.7047
G3 X66.3632 Y31.1837 I8.9549 J11.041
G1 F300.0 Y30.5837
G1 F2500.0 X43.9167
G3 X43.0273 Y32.2867 I-13.0341 J-5.7232
G1 X65.92
G3 X68.5018 Y30.5837 I8.7396 J10.441
G1 X66.3632
G1 F300.0 Y29.3837
G1 F2500.0 X43.1079
G3 X40.6553 Y33.4867 I-12.2254 J-4.5232
G1 X66.3674
G3 X74.6596 Y30.3117 I8.2922 J9.241
G1 X87.4497
G3 X89.5316 Y29.3837 I6.0746 J10.8285
G1 X88.6167
G1 X88.1198
G1 X66.3632
G1 F300.0 Y28.1837
G1 F2500.0 X42.2417
G3 X37.4795 Y34.6867 I-11.3591 J-3.3232
G1 X66.8404
G3 X74.6596 Y31.5117 I7.8193 J8.041
G1 X87.7718
G3 X93.5243 Y29.9242 I5.7524 J9.6285
G1 X103.1161
G3 X102.4543 Y28.1837 I10.6973 J-5.0637
G1 X100.6198
G1 X100.1229
G1 X88.6167
G1 X88.1198
G1 X66.3632
G1 F300.0 Y26.9837
G1 F2500.0 X41.3037
G3 X36.2002 Y34.0709 I-10.4212 J-2.1232
G3 X33.1073 Y35.2604 I-5.3176 J-9.2104
G1 Y35.8867
G1 X67.3438
G3 X74.6596 Y32.7117 I7.3158 J6.841
G1 X88.1131
G3 X93.5243 Y31.1242 I5.4112 J8.4285
G1 X105.2184
G3 X103.3923 Y26.9837 I8.5951 J-6.2637
G1 X100.6198
G1 X100.1229
G1 X88.6167
G1 X88.1198
G1 X66.3632
G1 F300.0 Y25.7837
G1 F2500.0 X40.2725
G3 X35.6002 Y33.0316 I-9.39 J-0.9232
G3 X31.9073 Y34.2399 I-4.7176 J-8.1712
G1 Y37.0867
G1 X67.8846
G3 X74.6596 Y33.9117 I6.775 J5.641
G1 X88.4774
G3 X93.5243 Y32.3242 I5.0468 J7.2285
G1 X108.0413
G3 X104.4234 Y25.7837 I5.7721 J-7.4637
G1 X100.6198
G1 X100.1229
G1 X88.6167
G1 X88.1198
G1 X66.3632
G1 F300.0 Y24.5837
G1 F2500.0 X39.1132
G3 X35.0002 Y31.9924 I-8.2306 J0.2768
G3 X30.7073 Y33.0939 I-4.1176 J-7.132
G1 Y38.2867
G1 X68.4725
G3 X74.6596 Y35.1117 I6.1872 J4.441
G1 X88.8702
G3 X93.5243 Y33.5242 I4.6541 J6.0285
G1 X111.421
G3 X116.0751 Y35.1117 I0.0 J7.616
G1 X130.6259
G3 X134.8368 Y36.3817 I0.0 J7.616
G1 X164.814
G1 Y33.0933
G3 X156.3781 Y24.8604 I-0.2006 J-8.2328
G3 X156.3828 Y24.5837 I8.2353 J0.0
G1 X154.6455
G1 X154.1486
G1 X136.9782
G1 X136.4813
G1 X122.0441
G3 X117.9311 Y31.9924 I-8.2306 J0.2768
G3 X105.5782 Y24.8604 I-4.1176 J-7.132
G3 X105.5828 Y24.5837 I8.2353 J0.0
G1 X100.6198
G1 X100.1229
G1 X88.6167
G1 X88.1198
G1 X66.3632
G1 F300.0 Y23.3837
G1 F2500.0 X37.7611
G3 X34.4002 Y30.9532 I-6.8785 J1.4768
G3 X29.5073 Y31.76 I-3.5176 J-6.0927
G1 Y39.4867
G1 X69.1224
G3 X74.6596 Y36.3117 I5.5372 J3.241
G1 X89.2993
G3 X93.5243 Y34.7242 I4.225 J4.8285
G1 X111.421
G3 X115.646 Y36.3117 I0.0 J6.416
G1 X130.6259
G3 X134.4579 Y37.5817 I0.0 J6.416
G1 X166.014
G1 Y31.7549
G3 X157.5781 Y24.8604 I-1.4006 J-6.8945
G3 X157.7349 Y23.3837 I7.0353 J0.0
G1 X154.6455
G1 X154.1486
G1 X136.9782
G1 X136.4813
G1 X120.692
G3 X117.3311 Y30.9532 I-6.8785 J1.4768
G3 X106.7782 Y24.8604 I-3.5176 J-6.0927
G3 X106.9349 Y23.3837 I7.0353 J0.0
G1 X100.6198
G1 X100.1229
G1 X88.6167
G1 X88.1198
G1 X66.3632
G1 F300.0 Y22.1837
G1 F2500.0 X36.0676
G3 X33.8002 Y29.9139 I-5.1851 J2.6768
G3 X28.3073 Y30.0967 I-2.9176 J-5.0535
G1 Y40.6867
G1 X69.8595
G3 X74.6596 Y37.5117 I4.8001 J2.041
G1 X89.7772
G3 X93.5243 Y35.9242 I3.7471 J3.6285
G1 X111.421
G3 X115.1681 Y37.5117 I0.0 J5.216
G1 X130.6259
G3 X134.037 Y38.7817 I0.0 J5.216
G1 X167.214
G1 Y30.0842
G3 X158.7781 Y24.8604 I-2.6006 J-5.2237
G3 X159.4283 Y22.1837 I5.8353 J0.0
G1 X154.6455
G1 X154.1486
G1 X136.9782
G1 X136.4813
G1 X118.9986
G3 X116.7311 Y29.9139 I-5.1851 J2.6768
G3 X107.9782 Y24.8604 I-2.9176 J-5.0535
G3 X108.6283 Y22.1837 I5.8353 J0.0
G1 X100.6198
G1 X100.1229
G1 X88.6167
G1 X88.1198
G1 X66.3632
G1 F300.0 Y20.9837
G1 F2500.0 X33.4278
G3 X33.2014 Y28.8768 I-2.5453 J3.8768
G3 X27.1073 Y27.5541 I-2.3188 J-4.0164
G1 Y41.8867
G1 X27.1075
G1 X70.7327
G3 X74.6596 Y38.7117 I3.927 J0.841
G1 X90.3257
G3 X93.5243 Y37.1242 I3.1985 J2.4285
G1 X111.421
G3 X114.6195 Y38.7117 I0.0 J4.016
G1 X130.6259
G3 X133.5564 Y39.9817 I0.0 J4.016
G1 X168.3856
G1 X168.414
G1 Y27.5182
G3 X166.9322 Y28.8768 I-3.8006 J-2.6577
G3 X159.9757 Y24.8604 I-2.3188 J-4.0164
G3 X162.0681 Y20.9837 I4.6377 J0.0
G1 X154.6455
G1 X154.1486
G1 X136.9782
G1 X136.4813
G1 X116.3588
G3 X116.1323 Y28.8768 I-2.5453 J3.8768
G3 X109.1758 Y24.8604 I-2.3188 J-4.0164
G3 X111.2681 Y20.9837 I4.6377 J0.0
G1 X100.6198
G1 X100.1229
G1 X88.6167
G1 X88.1198
G1 X66.3632
( Internal Cutout )
G0 Z3.0
( T2 : 2.0 )
T2 M6
M3 S1000
G0 X27.1075 Y45.8867
G0 Z1.0
G1 F300.0 Z-4.0
G1 F2000.0 Y120.5947
G1 X34.0196
G3 X36.5436 Y123.1187 I0.0 J2.524
G1 Y139.6287
G2 X36.5596 Y139.6447 I0.016 J0.0
G1 X73.1356
G2 X73.1516 Y139.6287 I0.0 J-0.016
G1 Y138.9937
G3 X75.6756 Y136.4697 I2.524 J0.0
G1 X92.371
G2 X92.3858 Y136.4597 I0.0 J-0.016
G3 X94.7256 Y134.8822 I2.3398 J0.9465
G1 X110.2196
G3 X112.5594 Y136.4597 I0.0 J2.524
G2 X112.5743 Y136.4697 I0.0148 J-0.006
G1 X130.2856
G2 X130.3016 Y136.4537 I0.0 J-0.016
G1 Y121.2137
G3 X132.8256 Y118.6897 I2.524 J0.0
G1 X147.3067
G3 X149.5943 Y122.2804 I0.0 J2.524
G1 X134.994 Y153.5907
G2 X135.0018 Y153.6119 I0.0145 J0.0068
G1 X185.416 Y177.1205
G2 X185.4373 Y177.1127 I0.0068 J-0.0145
G1 X208.9459 Y126.6985
G2 X208.9381 Y126.6772 I-0.0145 J-0.0068
G1 X175.789 Y111.2195
G2 X175.7677 Y111.2273 I-0.0068 J0.0145
G1 X168.7903 Y126.1904
G3 X165.4361 Y127.4112 I-2.2875 J-1.0667
G1 X154.9742 Y122.5328
G3 X155.8262 Y118.6897 I0.852 J-1.8271
G1 X168.3856
G2 X168.4016 Y118.6737 I0.0 J-0.016
G1 Y43.9978
G2 X168.3855 Y43.9817 I-0.0162 J0.0
G1 X132.8256
G3 X130.6398 Y42.7197 I0.0 J-2.524
G2 X130.6259 Y42.7117 I-0.0139 J0.008
G1 X113.7756
G3 X111.4358 Y41.1342 I0.0 J-2.524
G2 X111.421 Y41.1242 I-0.0148 J0.006
G1 X93.5243
G2 X93.5094 Y41.1342 I0.0 J0.016
G3 X91.1696 Y42.7117 I-2.3398 J-0.9465
G1 X74.6596
G2 X74.6436 Y42.7277 I0.0 J0.016
G1 Y43.3627
G3 X72.1196 Y45.8867 I-2.524 J0.0
G1 X27.1075
G1 F300.0 Z-8.0
G1 F2000.0 Y120.5947
G1 X34.0196
G3 X36.5436 Y123.1187 I0.0 J2.524
G1 Y139.6287
G2 X36.5596 Y139.6447 I0.016 J0.0
G1 X73.1356
G2 X73.1516 Y139.6287 I0.0 J-0.016
G1 Y138.9937
G3 X75.6756 Y136.4697 I2.524 J0.0
G1 X92.371
G2 X92.3858 Y136.4597 I0.0 J-0.016
G3 X94.7256 Y134.8822 I2.3398 J0.9465
G1 X110.2196
G3 X112.5594 Y136.4597 I0.0 J2.524
G2 X112.5743 Y136.4697 I0.0148 J-0.006
G1 X130.2856
G2 X130.3016 Y136.4537 I0.0 J-0.016
G1 Y121.2137
G3 X132.8256 Y118.6897 I2.524 J0.0
G1 X147.3067
G3 X149.5943 Y122.2804 I0.0 J2.524
G1 X134.994 Y153.5907
G2 X135.0018 Y153.6119 I0.0145 J0.0068
G1 X185.416 Y177.1205
G2 X185.4373 Y177.1127 I0.0068 J-0.0145
G1 X208.9459 Y126.6985
G2 X208.9381 Y126.6772 I-0.0145 J-0.0068
G1 X175.789 Y111.2195
G2 X175.7677 Y111.2273 I-0.0068 J0.0145
G1 X168.7903 Y126.1904
G3 X165.4361 Y127.4112 I-2.2875 J-1.0667
G1 X154.9742 Y122.5328
G3 X155.8262 Y118.6897 I0.852 J-1.8271
G1 X168.3856
G2 X168.4016 Y118.6737 I0.0 J-0.016
G1 Y43.9978
G2 X168.3855 Y43.9817 I-0.0162 J0.0
G1 X132.8256
G3 X130.6398 Y42.7197 I0.0 J-2.524
G2 X130.6259 Y42.7117 I-0.0139 J0.008
G1 X113.7756
G3 X111.4358 Y41.1342 I0.0 J-2.524
G2 X111.421 Y41.1242 I-0.0148 J0.006
G1 X93.5243
G2 X93.5094 Y41.1342 I0.0 J0.016
G3 X91.1696 Y42.7117 I-2.3398 J-0.9465
G1 X74.6596
G2 X74.6436 Y42.7277 I0.0 J0.016
G1 Y43.3627
G3 X72.1196 Y45.8867 I-2.524 J0.0
G1 X27.1075
( Connector Cutouts )
G0 Z3.0
( T3 : 3.0 )
T3 M6
M3 S1000
G0 X153.2821 Y18.5653
G0 Z1.0
G1 F300.0 Z-4.0
G1 F1200.0 X137.9013
G0 Z3.0
G0 X99.2282
G0 Z1.0
G1 F300.0 Z-4.0
G1 F1200.0 X89.4832
( Cutout Roughing Shallow )
S1000
G0 Z3.0
G0 X156.1928 Y14.4837
G0 Z1.0
G1 F300.0 Z-3.0
G1 F1200.0 X166.1661
G3 X174.914 Y23.1987 I0.2052 J8.542
G1 Y103.6017
G1 X176.6406 Y104.4068
G1 X209.7245 Y119.834
G3 X213.9255 Y131.3721 I-3.6238 J7.8533
G1 X192.2467 Y177.8633
G1 X170.5667 Y224.3572
G1 X162.6514 Y241.3319
G3 X162.6328 Y241.3702 I-1.3595 J-0.6339
G3 X155.3491 Y246.1315 I-7.7318 J-3.8762
G3 X155.2714 Y246.1335 I-0.0777 J-1.498
G1 X154.5306
G1 X35.6644
G3 X35.6574 I0.0 J-1.5
G1 X34.7231 Y246.1291
G3 X34.6699 Y246.1279 I0.007 J-1.5
G3 X20.6073 Y231.0539 I0.5891 J-14.6461
G1 Y131.0764
G1 Y23.1987
G3 X29.3553 Y14.4837 I8.5427 J-0.1731
G1 X86.5493
G3 X90.1797 Y15.9837 I0.0514 J5.0189
G1 X98.5318
G3 X102.1105 Y14.4837 I3.5787 J3.5191
G1 X134.9674
G3 X138.5979 Y15.9837 I0.0514 J5.0189
G1 X152.5855
G3 X156.0711 Y14.4843 I3.579 J3.5189
G3 X156.1362 Y14.4837 I0.0652 J3.4994
G1 X156.1928
G1 F300.0 Z-6.0
G1 F1200.0 X166.1661
G3 X174.914 Y23.1987 I0.2052 J8.542
G1 Y103.6017
G1 X176.6406 Y104.4068
G1 X209.7245 Y119.834
G3 X213.9255 Y131.3721 I-3.6238 J7.8533
G1 X192.2467 Y177.8633
G1 X170.5667 Y224.3572
G1 X162.6514 Y241.3319
G3 X162.6328 Y241.3702 I-1.3595 J-0.6339
G3 X155.3491 Y246.1315 I-7.7318 J-3.8762
G3 X155.2714 Y246.1335 I-0.0777 J-1.498
G1 X154.5306
G1 X35.6644
G3 X35.6574 I0.0 J-1.5
G1 X34.7231 Y246.1291
G3 X34.6699 Y246.1279 I0.007 J-1.5
G3 X20.6073 Y231.0539 I0.5891 J-14.6461
G1 Y131.0764
G1 Y23.1987
G3 X29.3553 Y14.4837 I8.5427 J-0.1731
G1 X86.5493
G3 X90.1797 Y15.9837 I0.0514 J5.0189
G1 X98.5318
G3 X102.1105 Y14.4837 I3.5787 J3.5191
G1 X134.9674
G3 X138.5979 Y15.9837 I0.0514 J5.0189
G1 X152.5855
G3 X156.0711 Y14.4843 I3.579 J3.5189
G3 X156.1362 Y14.4837 I0.0652 J3.4994
G1 X156.1928
( Cutout Roughing Deep )
S1000
G1 F600.0 X156.2776
G1 X157.7776 Z-7.0
G1 X163.1539
G1 X164.6543 Z-6.0
G1 X166.1661
G3 X167.6577 Y14.5786 I0.2052 J8.542
G3 X169.1676 Y14.9517 Z-7.0 I-1.2865 J8.4471
G3 X174.914 Y23.1987 I-2.7964 J8.0739
G1 Y28.7818
G1 Y30.2818 Z-6.0
G1 Y33.2818
G1 Y34.7818 Z-7.0
G1 Y48.7818
G1 Y50.2818 Z-6.0
G1 Y53.2818
G1 Y54.7818 Z-7.0
G1 Y68.7818
G1 Y70.2818 Z-6.0
G1 Y73.2818
G1 Y74.7818 Z-7.0
G1 Y88.7818
G1 Y90.2818 Z-6.0
G1 Y93.2818
G1 Y94.7818 Z-7.0
G1 Y103.6017
G1 X176.6406 Y104.4068
G1 X177.8765 Y104.9832
G1 X179.236 Y105.6171 Z-6.0
G1 X181.9549 Y106.885
G1 X183.3144 Y107.5189 Z-7.0
G1 X196.0027 Y113.4355
G1 X197.3622 Y114.0694 Z-6.0
G1 X200.0811 Y115.3373
G1 X201.4406 Y115.9712 Z-7.0
G1 X209.7245 Y119.834
G3 X214.0866 Y124.3661 I-3.6238 J7.8533
G3 X214.552 Y125.8487 Z-6.0 I-7.9859 J3.3212
G3 X214.6717 Y128.8463 I-8.4514 J1.8386
G3 X214.326 Y130.3613 Z-7.0 I-8.571 J-1.159
G3 X213.9255 Y131.3721 I-8.2253 J-2.674
G1 X208.1938 Y143.6641
G1 X207.5598 Y145.0236 Z-6.0
G1 X206.292 Y147.7425
G1 X205.6581 Y149.102 Z-7.0
G1 X199.7415 Y161.7903
G1 X199.1076 Y163.1498 Z-6.0
G1 X197.8398 Y165.8687
G1 X197.2059 Y167.2282 Z-7.0
G1 X192.2467 Y177.8633
G1 X191.2893 Y179.9166
G1 X190.6554 Y181.276 Z-6.0
G1 X189.3875 Y183.995
G1 X188.7536 Y185.3544 Z-7.0
G1 X182.8371 Y198.0428
G1 X182.2031 Y199.4022 Z-6.0
G1 X180.9353 Y202.1212
G1 X180.3014 Y203.4806 Z-7.0
G1 X174.3848 Y216.169
G1 X173.7509 Y217.5285 Z-6.0
G1 X172.4831 Y220.2474
G1 X171.8492 Y221.6069 Z-7.0
G1 X170.5667 Y224.3572
G1 X165.9326 Y234.2952
G1 X165.2987 Y235.6547 Z-6.0
G1 X164.0308 Y238.3736
G1 X163.3969 Y239.7331 Z-7.0
G1 X162.6514 Y241.3319
G3 X162.6328 Y241.3702 I-1.3595 J-0.6339
G3 X155.3491 Y246.1315 I-7.7318 J-3.8762
G3 X155.2714 Y246.1335 I-0.0777 J-1.498
G1 X154.5306
G1 X150.5724
G1 X149.0724 Z-6.0
G1 X146.0724
G1 X144.5724 Z-7.0
G1 X130.5724
G1 X129.0724 Z-6.0
G1 X126.0724
G1 X124.5724 Z-7.0
G1 X110.5724
G1 X109.0724 Z-6.0
G1 X106.0724
G1 X104.5724 Z-7.0
G1 X90.5724
G1 X89.0724 Z-6.0
G1 X86.0724
G1 X84.5724 Z-7.0
G1 X70.5724
G1 X69.0724 Z-6.0
G1 X66.0724
G1 X64.5724 Z-7.0
G1 X50.5724
G1 X49.0724 Z-6.0
G1 X46.0724
G1 X44.5724 Z-7.0
G1 X35.6644
G3 X35.6574 I0.0 J-1.5
G1 X34.7231 Y246.1291
G3 X34.6699 Y246.1279 I0.007 J-1.5
G3 X31.8316 Y245.7334 I0.5891 J-14.6461
G3 X30.376 Y245.3025 Z-6.0 I3.4274 J-14.2516
G3 X27.6645 Y244.0189 I4.883 J-13.8206
G3 X26.4085 Y243.1662 Z-7.0 I7.5945 J-12.537
G3 X20.6073 Y231.0539 I8.8505 J-11.6843
G1 Y229.3327
G1 Y227.8327 Z-6.0
G1 Y224.8327
G1 Y223.3327 Z-7.0
G1 Y209.3327
G1 Y207.8327 Z-6.0
G1 Y204.8327
G1 Y203.3327 Z-7.0
G1 Y189.3327
G1 Y187.8327 Z-6.0
G1 Y184.8327
G1 Y183.3327 Z-7.0
G1 Y169.3327
G1 Y167.8327 Z-6.0
G1 Y164.8327
G1 Y163.3327 Z-7.0
G1 Y149.3327
G1 Y147.8327 Z-6.0
G1 Y144.8327
G1 Y143.3327 Z-7.0
G1 Y131.0764
G1 Y129.3327
G1 Y127.8327 Z-6.0
G1 Y124.8327
G1 Y123.3327 Z-7.0
G1 Y109.3327
G1 Y107.8327 Z-6.0
G1 Y104.8327
G1 Y103.3327 Z-7.0
G1 Y89.3327
G1 Y87.8327 Z-6.0
G1 Y84.8327
G1 Y83.3327 Z-7.0
G1 Y69.3327
G1 Y67.8327 Z-6.0
G1 Y64.8327
G1 Y63.3327 Z-7.0
G1 Y49.3327
G1 Y47.8327 Z-6.0
G1 Y44.8327
G1 Y43.3327 Z-7.0
G1 Y29.3327
G1 Y27.8327 Z-6.0
G1 Y24.8327
G1 Y23.3327 Z-7.0
G1 Y23.1987
G3 X29.3553 Y14.4837 I8.5427 J-0.1731
G1 X31.7776
G1 X33.2776 Z-6.0
G1 X36.2776
G1 X37.7776 Z-7.0
G1 X51.7776
G1 X53.2776 Z-6.0
G1 X56.2776
G1 X57.7776 Z-7.0
G1 X71.7776
G1 X73.2776 Z-6.0
G1 X76.2776
G1 X77.7776 Z-7.0
G1 X86.5577
G1 X91.7776
G1 X93.2776 Z-6.0
G1 X96.2776
G1 X97.7776 Z-7.0
G1 X102.1105
G1 X111.7776
G1 X113.2776 Z-6.0
G1 X116.2776
G1 X117.7776 Z-7.0
G1 X131.7776
G1 X133.2776 Z-6.0
G1 X134.9758
G1 X136.2776
G1 X137.7776 Z-7.0
G1 X151.7776 Y14.4839
G1 X153.2776 Y14.484 Z-6.0
G1 X156.087
G3 X156.1362 Y14.4837 I0.0493 J3.4997
G1 X156.1928
G1 X156.2776
G1 X157.7776 Z-8.0
G1 X163.1539
G1 X164.6543 Z-6.0
G1 X166.1661
G3 X167.6577 Y14.5786 I0.2052 J8.542
G3 X169.1676 Y14.9517 Z-8.0 I-1.2865 J8.4471
G3 X174.914 Y23.1987 I-2.7964 J8.0739
G1 Y28.7818
G1 Y30.2818 Z-6.0
G1 Y33.2818
G1 Y34.7818 Z-8.0
G1 Y48.7818
G1 Y50.2818 Z-6.0
G1 Y53.2818
G1 Y54.7818 Z-8.0
G1 Y68.7818
G1 Y70.2818 Z-6.0
G1 Y73.2818
G1 Y74.7818 Z-8.0
G1 Y88.7818
G1 Y90.2818 Z-6.0
G1 Y93.2818
G1 Y94.7818 Z-8.0
G1 Y103.6017
G1 X176.6406 Y104.4068
G1 X177.8765 Y104.9832
G1 X179.236 Y105.6171 Z-6.0
G1 X181.9549 Y106.885
G1 X183.3144 Y107.5189 Z-8.0
G1 X196.0027 Y113.4355
G1 X197.3622 Y114.0694 Z-6.0
G1 X200.0811 Y115.3373
G1 X201.4406 Y115.9712 Z-8.0
G1 X209.7245 Y119.834
G3 X214.0866 Y124.3661 I-3.6238 J7.8533
G3 X214.552 Y125.8487 Z-6.0 I-7.9859 J3.3212
G3 X214.6717 Y128.8463 I-8.4514 J1.8386
G3 X214.326 Y130.3613 Z-8.0 I-8.571 J-1.159
G3 X213.9255 Y131.3721 I-8.2253 J-2.674
G1 X208.1938 Y143.6641
G1 X207.5598 Y145.0236 Z-6.0
G1 X206.292 Y147.7425
G1 X205.6581 Y149.102 Z-8.0
G1 X199.7415 Y161.7903
G1 X199.1076 Y163.1498 Z-6.0
G1 X197.8398 Y165.8687
G1 X197.2059 Y167.2282 Z-8.0
G1 X192.2467 Y177.8633
G1 X191.2893 Y179.9166
G1 X190.6554 Y181.276 Z-6.0
G1 X189.3875 Y183.995
G1 X188.7536 Y185.3544 Z-8.0
G1 X182.8371 Y198.0428
G1 X182.2031 Y199.4022 Z-6.0
G1 X180.9353 Y202.1212
G1 X180.3014 Y203.4806 Z-8.0
G1 X174.3848 Y216.169
G1 X173.7509 Y217.5285 Z-6.0
G1 X172.4831 Y220.2474
G1 X171.8492 Y221.6069 Z-8.0
G1 X170.5667 Y224.3572
G1 X165.9326 Y234.2952
G1 X165.2987 Y235.6547 Z-6.0
G1 X164.0308 Y238.3736
G1 X163.3969 Y239.7331 Z-8.0
G1 X162.6514 Y241.3319
G3 X162.6328 Y241.3702 I-1.3595 J-0.6339
G3 X155.3491 Y246.1315 I-7.7318 J-3.8762
G3 X155.2714 Y246.1335 I-0.0777 J-1.498
G1 X154.5306
G1 X150.5724
G1 X149.0724 Z-6.0
G1 X146.0724
G1 X144.5724 Z-8.0
G1 X130.5724
G1 X129.0724 Z-6.0
G1 X126.0724
G1 X124.5724 Z-8.0
G1 X110.5724
G1 X109.0724 Z-6.0
G1 X106.0724
G1 X104.5724 Z-8.0
G1 X90.5724
G1 X89.0724 Z-6.0
G1 X86.0724
G1 X84.5724 Z-8.0
G1 X70.5724
G1 X69.0724 Z-6.0
G1 X66.0724
G1 X64.5724 Z-8.0
G1 X50.5724
G1 X49.0724 Z-6.0
G1 X46.0724
G1 X44.5724 Z-8.0
G1 X35.6644
G3 X35.6574 I0.0 J-1.5
G1 X34.7231 Y246.1291
G3 X34.6699 Y246.1279 I0.007 J-1.5
G3 X31.8316 Y245.7334 I0.5891 J-14.6461
G3 X30.376 Y245.3025 Z-6.0 I3.4274 J-14.2516
G3 X27.6645 Y244.0189 I4.883 J-13.8206
G3 X26.4085 Y243.1662 Z-8.0 I7.5945 J-12.537
G3 X20.6073 Y231.0539 I8.8505 J-11.6843
G1 Y229.3327
G1 Y227.8327 Z-6.0
G1 Y224.8327
G1 Y223.3327 Z-8.0
G1 Y209.3327
G1 Y207.8327 Z-6.0
G1 Y204.8327
G1 Y203.3327 Z-8.0
G1 Y189.3327
G1 Y187.8327 Z-6.0
G1 Y184.8327
G1 Y183.3327 Z-8.0
G1 Y169.3327
G1 Y167.8327 Z-6.0
G1 Y164.8327
G1 Y163.3327 Z-8.0
G1 Y149.3327
G1 Y147.8327 Z-6.0
G1 Y144.8327
G1 Y143.3327 Z-8.0
G1 Y131.0764
G1 Y129.3327
G1 Y127.8327 Z-6.0
G1 Y124.8327
G1 Y123.3327 Z-8.0
G1 Y109.3327
G1 Y107.8327 Z-6.0
G1 Y104.8327
G1 Y103.3327 Z-8.0
G1 Y89.3327
G1 Y87.8327 Z-6.0
G1 Y84.8327
G1 Y83.3327 Z-8.0
G1 Y69.3327
G1 Y67.8327 Z-6.0
G1 Y64.8327
G1 Y63.3327 Z-8.0
G1 Y49.3327
G1 Y47.8327 Z-6.0
G1 Y44.8327
G1 Y43.3327 Z-8.0
G1 Y29.3327
G1 Y27.8327 Z-6.0
G1 Y24.8327
G1 Y23.3327 Z-8.0
G1 Y23.1987
G3 X29.3553 Y14.4837 I8.5427 J-0.1731
G1 X31.7776
G1 X33.2776 Z-6.0
G1 X36.2776
G1 X37.7776 Z-8.0
G1 X51.7776
G1 X53.2776 Z-6.0
G1 X56.2776
G1 X57.7776 Z-8.0
G1 X71.7776
G1 X73.2776 Z-6.0
G1 X76.2776
G1 X77.7776 Z-8.0
G1 X86.5577
G1 X91.7776
G1 X93.2776 Z-6.0
G1 X96.2776
G1 X97.7776 Z-8.0
G1 X102.1105
G1 X111.7776
G1 X113.2776 Z-6.0
G1 X116.2776
G1 X117.7776 Z-8.0
G1 X131.7776
G1 X133.2776 Z-6.0
G1 X134.9758
G1 X136.2776
G1 X137.7776 Z-8.0
G1 X151.7776 Y14.4839
G1 X153.2776 Y14.484 Z-6.0
G1 X156.087
G3 X156.1362 Y14.4837 I0.0493 J3.4997
G1 X156.1928
( Cutout Finishing )
S1000
G1 F400.0 Y14.5837
G1 Z-7.0305
G1 X156.6776 Z-8.0
G1 X164.2567
G1 X164.7569 Z-7.0
G1 X166.1673
G3 X167.5599 Y14.6653 I0.204 J8.442
G3 X168.0622 Y14.7522 Z-8.0 I-1.1886 J8.3604
G3 X174.814 Y23.1977 I-1.691 J8.2735
G1 Y29.8818
G1 Y30.3818 Z-7.0
G1 Y33.1818
G1 Y33.6818 Z-8.0
G1 Y49.8818
G1 Y50.3818 Z-7.0
G1 Y53.1818
G1 Y53.6818 Z-8.0
G1 Y69.8818
G1 Y70.3818 Z-7.0
G1 Y73.1818
G1 Y73.6818 Z-8.0
G1 Y89.8818
G1 Y90.3818 Z-7.0
G1 Y93.1818
G1 Y93.6818 Z-8.0
G1 Y103.6654
G1 X176.5983 Y104.4975
G1 X178.8312 Y105.5387
G1 X179.2844 Y105.75 Z-7.0
G1 X181.822 Y106.9333
G1 X182.2752 Y107.1446 Z-8.0
G1 X196.9574 Y113.991
G1 X197.4106 Y114.2023 Z-7.0
G1 X199.9482 Y115.3856
G1 X200.4014 Y115.5969 Z-8.0
G1 X209.6824 Y119.9247
G3 X214.3535 Y125.4563 I-3.5817 J7.7626
G3 X214.4718 Y125.952 Z-7.0 I-8.2528 J2.231
G3 X214.5835 Y128.7497 I-8.3711 J1.7353
G3 X214.5051 Y129.2533 Z-8.0 I-8.4828 J-1.0625
G3 X213.835 Y131.3297 I-8.4044 J-1.566
G1 X207.6383 Y144.6188
G1 X207.427 Y145.072 Z-7.0
G1 X206.2436 Y147.6096
G1 X206.0323 Y148.0628 Z-8.0
G1 X199.186 Y162.745
G1 X198.9747 Y163.1982 Z-7.0
G1 X197.7914 Y165.7358
G1 X197.5801 Y166.189 Z-8.0
G1 X192.1561 Y177.821
G1 X190.7338 Y180.8712
G1 X190.5225 Y181.3244 Z-7.0
G1 X189.3392 Y183.8621
G1 X189.1279 Y184.3152 Z-8.0
G1 X182.2816 Y198.9975
G1 X182.0702 Y199.4506 Z-7.0
G1 X180.8869 Y201.9883
G1 X180.6756 Y202.4414 Z-8.0
G1 X173.8293 Y217.1237
G1 X173.618 Y217.5768 Z-7.0
G1 X172.4347 Y220.1145
G1 X172.2234 Y220.5676 Z-8.0
G1 X170.4761 Y224.3149
G1 X165.3771 Y235.2499
G1 X165.1658 Y235.703 Z-7.0
G1 X163.9825 Y238.2407
G1 X163.7712 Y238.6939 Z-8.0
G1 X162.5607 Y241.2897
G3 X162.5434 Y241.3254 I-1.2688 J-0.5917
G3 X155.3439 Y246.0316 I-7.6424 J-3.8313
G3 X155.2714 Y246.0335 I-0.0725 J-1.3981
G1 X154.5306
G1 X149.4724
G1 X148.9724 Z-7.0
G1 X146.1724
G1 X145.6724 Z-8.0
G1 X129.4724
G1 X128.9724 Z-7.0
G1 X126.1724
G1 X125.6724 Z-8.0
G1 X109.4724
G1 X108.9724 Z-7.0
G1 X106.1724
G1 X105.6724 Z-8.0
G1 X89.4724
G1 X88.9724 Z-7.0
G1 X86.1724
G1 X85.6724 Z-8.0
G1 X69.4724
G1 X68.9724 Z-7.0
G1 X66.1724
G1 X65.6724 Z-8.0
G1 X49.4724
G1 X48.9724 Z-7.0
G1 X46.1724
G1 X45.6724 Z-8.0
G1 X35.6644
G3 X35.6579 I0.0 J-1.4
G1 X34.7236 Y246.0291
G3 X34.6739 Y246.028 I0.0066 J-1.4
G3 X30.8007 Y245.3403 I0.5851 J-14.5461
G3 X30.3243 Y245.1779 Z-7.0 I4.4583 J-13.8584
G3 X27.7936 Y243.9799 I4.9347 J-13.696
G3 X27.3661 Y243.7144 Z-8.0 I7.4654 J-12.498
G3 X20.7073 Y231.0554 I7.8929 J-12.2325
G1 Y228.2327
G1 Y227.7327 Z-7.0
G1 Y224.9327
G1 Y224.4327 Z-8.0
G1 Y208.2327
G1 Y207.7327 Z-7.0
G1 Y204.9327
G1 Y204.4327 Z-8.0
G1 Y188.2327
G1 Y187.7327 Z-7.0
G1 Y184.9327
G1 Y184.4327 Z-8.0
G1 Y168.2327
G1 Y167.7327 Z-7.0
G1 Y164.9327
G1 Y164.4327 Z-8.0
G1 Y148.2327
G1 Y147.7327 Z-7.0
G1 Y144.9327
G1 Y144.4327 Z-8.0
G1 Y131.0764
G1 Y128.2327
G1 Y127.7327 Z-7.0
G1 Y124.9327
G1 Y124.4327 Z-8.0
G1 Y108.2327
G1 Y107.7327 Z-7.0
G1 Y104.9327
G1 Y104.4327 Z-8.0
G1 Y88.2327
G1 Y87.7327 Z-7.0
G1 Y84.9327
G1 Y84.4327 Z-8.0
G1 Y68.2327
G1 Y67.7327 Z-7.0
G1 Y64.9327
G1 Y64.4327 Z-8.0
G1 Y48.2327
G1 Y47.7327 Z-7.0
G1 Y44.9327
G1 Y44.4327 Z-8.0
G1 Y28.2327
G1 Y27.7327 Z-7.0
G1 Y24.9327
G1 Y24.4327 Z-8.0
G1 Y23.1977
G3 X29.3541 Y14.5837 I8.4427 J-0.172
G1 X32.8776
G1 X33.3776 Z-7.0
G1 X36.1776
G1 X36.6776 Z-8.0
G1 X52.8776
G1 X53.3776 Z-7.0
G1 X56.1776
G1 X56.6776 Z-8.0
G1 X72.8776
G1 X73.3776 Z-7.0
G1 X76.1776
G1 X76.6776 Z-8.0
G1 X86.5577
G1 X92.8776
G1 X93.3776 Z-7.0
G1 X96.1776
G1 X96.6776 Z-8.0
G1 X102.1105
G1 X112.8776
G1 X113.3776 Z-7.0
G1 X116.1776
G1 X116.6776 Z-8.0
G1 X132.8776
G1 X133.3776 Z-7.0
G1 X134.9758
G1 X136.1776
G1 X136.6776 Z-8.0
G1 X152.8776 Y14.5839
G1 X153.3776 Y14.584 Z-7.0
G1 X156.0877
G3 X156.1362 Y14.5837 I0.0486 J3.3997
G1 X156.1776
G1 X156.1928 Z-7.0305
G0 Z3.0
M5
M30
