( Made using CamBam - http://www.cambam.co.uk )
( Left Top 2/7/2014 6:36:30 PM )
( T3 : 3.0 )
G21 G90 G64 G40
G0 Z3.0
( T3 : 3.0 )
T3 M6
( Stock Drill )
G17
M3 S1000
G0 X101.1577 Y6.1265
G0 Z3.0
G0 X101.6577 Y6.1265
G0 Z1.0
G1 F300.0 Z0.0
G2 F2500.0 X100.9077 Y5.6934 Z-1.0 I-0.5 J0.0
G2 Y6.5595 Z-2.0 I0.25 J0.433
G2 X101.6577 Y6.1265 Z-3.0 I0.25 J-0.433
G2 X100.9077 Y5.6934 Z-4.0 I-0.5 J0.0
G2 Y6.5595 Z-5.0 I0.25 J0.433
G2 X101.6577 Y6.1265 Z-6.0 I0.25 J-0.433
G2 X100.9077 Y5.6934 Z-7.0 I-0.5 J0.0
G2 Y6.5595 Z-8.0 I0.25 J0.433
G2 X101.4077 Z-8.5 I0.25 J-0.433
G2 Y5.6934 I-0.25 J-0.433
G2 X100.6577 Y6.1265 I-0.25 J0.433
G2 X101.4077 Y6.5595 I0.5 J0.0
G0 Z3.0
G0 X37.1934 Y6.1265
G0 Z1.0
G1 F300.0 Z0.0
G2 F2500.0 X36.4434 Y5.6934 Z-1.0 I-0.5 J0.0
G2 Y6.5595 Z-2.0 I0.25 J0.433
G2 X37.1934 Y6.1265 Z-3.0 I0.25 J-0.433
G2 X36.4434 Y5.6934 Z-4.0 I-0.5 J0.0
G2 Y6.5595 Z-5.0 I0.25 J0.433
G2 X37.1934 Y6.1265 Z-6.0 I0.25 J-0.433
G2 X36.4434 Y5.6934 Z-7.0 I-0.5 J0.0
G2 Y6.5595 Z-8.0 I0.25 J0.433
G2 X36.9434 Z-8.5 I0.25 J-0.433
G2 Y5.6934 I-0.25 J-0.433
G2 X36.1934 Y6.1265 I-0.25 J0.433
G2 X36.9434 Y6.5595 I0.5 J0.0
G0 Z3.0
G0 X44.9263 Y84.5227
G0 Z1.0
G1 F300.0 Z0.0
G2 F2500.0 X44.1763 Y84.0897 Z-1.0 I-0.5 J0.0
G2 Y84.9557 Z-2.0 I0.25 J0.433
G2 X44.9263 Y84.5227 Z-3.0 I0.25 J-0.433
G2 X44.1763 Y84.0897 Z-4.0 I-0.5 J0.0
G2 Y84.9557 Z-5.0 I0.25 J0.433
G2 X44.9263 Y84.5227 Z-6.0 I0.25 J-0.433
G2 X44.1763 Y84.0897 Z-7.0 I-0.5 J0.0
G2 Y84.9557 Z-8.0 I0.25 J0.433
G2 X44.6763 Z-8.5 I0.25 J-0.433
G2 Y84.0897 I-0.25 J-0.433
G2 X43.9263 Y84.5227 I-0.25 J0.433
G2 X44.6763 Y84.9557 I0.5 J0.0
G0 Z3.0
G0 X6.645 Y84.5227
G0 Z1.0
G1 F300.0 Z0.0
G2 F2500.0 X5.895 Y84.0897 Z-1.0 I-0.5 J0.0
G2 Y84.9557 Z-2.0 I0.25 J0.433
G2 X6.645 Y84.5227 Z-3.0 I0.25 J-0.433
G2 X5.895 Y84.0897 Z-4.0 I-0.5 J0.0
G2 Y84.9557 Z-5.0 I0.25 J0.433
G2 X6.645 Y84.5227 Z-6.0 I0.25 J-0.433
G2 X5.895 Y84.0897 Z-7.0 I-0.5 J0.0
G2 Y84.9557 Z-8.0 I0.25 J0.433
G2 X6.395 Z-8.5 I0.25 J-0.433
G2 Y84.0897 I-0.25 J-0.433
G2 X5.645 Y84.5227 I-0.25 J0.433
G2 X6.395 Y84.9557 I0.5 J0.0
G0 Z3.0
G0 X6.645 Y154.7795
G0 Z1.0
G1 F300.0 Z0.0
G2 F2500.0 X5.895 Y154.3465 Z-1.0 I-0.5 J0.0
G2 Y155.2126 Z-2.0 I0.25 J0.433
G2 X6.645 Y154.7795 Z-3.0 I0.25 J-0.433
G2 X5.895 Y154.3465 Z-4.0 I-0.5 J0.0
G2 Y155.2126 Z-5.0 I0.25 J0.433
G2 X6.645 Y154.7795 Z-6.0 I0.25 J-0.433
G2 X5.895 Y154.3465 Z-7.0 I-0.5 J0.0
G2 Y155.2126 Z-8.0 I0.25 J0.433
G2 X6.395 Z-8.5 I0.25 J-0.433
G2 Y154.3465 I-0.25 J-0.433
G2 X5.645 Y154.7795 I-0.25 J0.433
G2 X6.395 Y155.2126 I0.5 J0.0
G0 Z3.0
G0 X6.645 Y237.3856
G0 Z1.0
G1 F300.0 Z0.0
G2 F2500.0 X5.895 Y236.9526 Z-1.0 I-0.5 J0.0
G2 Y237.8186 Z-2.0 I0.25 J0.433
G2 X6.645 Y237.3856 Z-3.0 I0.25 J-0.433
G2 X5.895 Y236.9526 Z-4.0 I-0.5 J0.0
G2 Y237.8186 Z-5.0 I0.25 J0.433
G2 X6.645 Y237.3856 Z-6.0 I0.25 J-0.433
G2 X5.895 Y236.9526 Z-7.0 I-0.5 J0.0
G2 Y237.8186 Z-8.0 I0.25 J0.433
G2 X6.395 Z-8.5 I0.25 J-0.433
G2 Y236.9526 I-0.25 J-0.433
G2 X5.645 Y237.3856 I-0.25 J0.433
G2 X6.395 Y237.8186 I0.5 J0.0
G0 Z3.0
G0 X34.9164 Y260.2673
G0 Z1.0
G1 F300.0 Z0.0
G2 F2500.0 X34.1664 Y259.8343 Z-1.0 I-0.5 J0.0
G2 Y260.7004 Z-2.0 I0.25 J0.433
G2 X34.9164 Y260.2673 Z-3.0 I0.25 J-0.433
G2 X34.1664 Y259.8343 Z-4.0 I-0.5 J0.0
G2 Y260.7004 Z-5.0 I0.25 J0.433
G2 X34.9164 Y260.2673 Z-6.0 I0.25 J-0.433
G2 X34.1664 Y259.8343 Z-7.0 I-0.5 J0.0
G2 Y260.7004 Z-8.0 I0.25 J0.433
G2 X34.6664 Z-8.5 I0.25 J-0.433
G2 Y259.8343 I-0.25 J-0.433
G2 X33.9164 Y260.2673 I-0.25 J0.433
G2 X34.6664 Y260.7004 I0.5 J0.0
G0 Z3.0
G0 X99.3808 Y260.2673
G0 Z1.0
G1 F300.0 Z0.0
G2 F2500.0 X98.6308 Y259.8343 Z-1.0 I-0.5 J0.0
G2 Y260.7004 Z-2.0 I0.25 J0.433
G2 X99.3808 Y260.2673 Z-3.0 I0.25 J-0.433
G2 X98.6308 Y259.8343 Z-4.0 I-0.5 J0.0
G2 Y260.7004 Z-5.0 I0.25 J0.433
G2 X99.3808 Y260.2673 Z-6.0 I0.25 J-0.433
G2 X98.6308 Y259.8343 Z-7.0 I-0.5 J0.0
G2 Y260.7004 Z-8.0 I0.25 J0.433
G2 X99.1308 Z-8.5 I0.25 J-0.433
G2 Y259.8343 I-0.25 J-0.433
G2 X98.3808 Y260.2673 I-0.25 J0.433
G2 X99.1308 Y260.7004 I0.5 J0.0
G0 Z3.0
G0 X167.6189 Y260.2673
G0 Z1.0
G1 F300.0 Z0.0
G2 F2500.0 X166.8689 Y259.8343 Z-1.0 I-0.5 J0.0
G2 Y260.7004 Z-2.0 I0.25 J0.433
G2 X167.6189 Y260.2673 Z-3.0 I0.25 J-0.433
G2 X166.8689 Y259.8343 Z-4.0 I-0.5 J0.0
G2 Y260.7004 Z-5.0 I0.25 J0.433
G2 X167.6189 Y260.2673 Z-6.0 I0.25 J-0.433
G2 X166.8689 Y259.8343 Z-7.0 I-0.5 J0.0
G2 Y260.7004 Z-8.0 I0.25 J0.433
G2 X167.3689 Z-8.5 I0.25 J-0.433
G2 Y259.8343 I-0.25 J-0.433
G2 X166.6189 Y260.2673 I-0.25 J0.433
G2 X167.3689 Y260.7004 I0.5 J0.0
G0 Z3.0
G0 X197.8838 Y235.6206
G0 Z1.0
G1 F300.0 Z0.0
G2 F2500.0 X197.1338 Y235.1876 Z-1.0 I-0.5 J0.0
G2 Y236.0536 Z-2.0 I0.25 J0.433
G2 X197.8838 Y235.6206 Z-3.0 I0.25 J-0.433
G2 X197.1338 Y235.1876 Z-4.0 I-0.5 J0.0
G2 Y236.0536 Z-5.0 I0.25 J0.433
G2 X197.8838 Y235.6206 Z-6.0 I0.25 J-0.433
G2 X197.1338 Y235.1876 Z-7.0 I-0.5 J0.0
G2 Y236.0536 Z-8.0 I0.25 J0.433
G2 X197.6338 Z-8.5 I0.25 J-0.433
G2 Y235.1876 I-0.25 J-0.433
G2 X196.8838 Y235.6206 I-0.25 J0.433
G2 X197.6338 Y236.0536 I0.5 J0.0
G0 Z3.0
G0 X175.5891 Y144.1908
G0 Z1.0
G1 F300.0 Z0.0
G2 F2500.0 X174.8391 Y143.7577 Z-1.0 I-0.5 J0.0
G2 Y144.6238 Z-2.0 I0.25 J0.433
G2 X175.5891 Y144.1908 Z-3.0 I0.25 J-0.433
G2 X174.8391 Y143.7577 Z-4.0 I-0.5 J0.0
G2 Y144.6238 Z-5.0 I0.25 J0.433
G2 X175.5891 Y144.1908 Z-6.0 I0.25 J-0.433
G2 X174.8391 Y143.7577 Z-7.0 I-0.5 J0.0
G2 Y144.6238 Z-8.0 I0.25 J0.433
G2 X175.3391 Z-8.5 I0.25 J-0.433
G2 Y143.7577 I-0.25 J-0.433
G2 X174.5891 Y144.1908 I-0.25 J0.433
G2 X175.3391 Y144.6238 I0.5 J0.0
G0 Z3.0
G0 X207.8903 Y99.3272
G0 Z1.0
G1 F300.0 Z0.0
G2 F2500.0 X207.1403 Y98.8942 Z-1.0 I-0.5 J0.0
G2 Y99.7602 Z-2.0 I0.25 J0.433
G2 X207.8903 Y99.3272 Z-3.0 I0.25 J-0.433
G2 X207.1403 Y98.8942 Z-4.0 I-0.5 J0.0
G2 Y99.7602 Z-5.0 I0.25 J0.433
G2 X207.8903 Y99.3272 Z-6.0 I0.25 J-0.433
G2 X207.1403 Y98.8942 Z-7.0 I-0.5 J0.0
G2 Y99.7602 Z-8.0 I0.25 J0.433
G2 X207.6403 Z-8.5 I0.25 J-0.433
G2 Y98.8942 I-0.25 J-0.433
G2 X206.8903 Y99.3272 I-0.25 J0.433
G2 X207.6403 Y99.7602 I0.5 J0.0
G0 Z3.0
G0 X169.8958 Y6.1265
G0 Z1.0
G1 F300.0 Z0.0
G2 F2500.0 X169.1458 Y5.6934 Z-1.0 I-0.5 J0.0
G2 Y6.5595 Z-2.0 I0.25 J0.433
G2 X169.8958 Y6.1265 Z-3.0 I0.25 J-0.433
G2 X169.1458 Y5.6934 Z-4.0 I-0.5 J0.0
G2 Y6.5595 Z-5.0 I0.25 J0.433
G2 X169.8958 Y6.1265 Z-6.0 I0.25 J-0.433
G2 X169.1458 Y5.6934 Z-7.0 I-0.5 J0.0
G2 Y6.5595 Z-8.0 I0.25 J0.433
G2 X169.6458 Z-8.5 I0.25 J-0.433
G2 Y5.6934 I-0.25 J-0.433
G2 X168.8958 Y6.1265 I-0.25 J0.433
G2 X169.6458 Y6.5595 I0.5 J0.0
G0 Z3.0
G0 X104.8756 Y84.5227
G0 Z1.0
G1 F300.0 Z0.0
G2 F2500.0 X104.1256 Y84.0897 Z-1.0 I-0.5 J0.0
G2 Y84.9557 Z-2.0 I0.25 J0.433
G2 X104.8756 Y84.5227 Z-3.0 I0.25 J-0.433
G2 X104.1256 Y84.0897 Z-4.0 I-0.5 J0.0
G2 Y84.9557 Z-5.0 I0.25 J0.433
G2 X104.8756 Y84.5227 Z-6.0 I0.25 J-0.433
G2 X104.1256 Y84.0897 Z-7.0 I-0.5 J0.0
G2 Y84.9557 Z-8.0 I0.25 J0.433
G2 X104.6256 Z-8.5 I0.25 J-0.433
G2 Y84.0897 I-0.25 J-0.433
G2 X103.8756 Y84.5227 I-0.25 J0.433
G2 X104.6256 Y84.9557 I0.5 J0.0
G0 Z3.0
M5
M30
