( Made using CamBam - http://www.cambam.co.uk )
( Left Bottom 2/7/2014 7:11:30 PM )
( T1 : 1.0 )
( T3 : 3.0 )
G21 G90 G64 G40
G0 Z3.0
( T3 : 3.0 )
T3 M6
( Bolt Holes Through )
G17
M3 S1000
G0 X169.0345 Y240.1372
G0 Z3.0
G0 X169.2845 Y240.1372
G0 Z1.0
G1 F300.0 Z0.0
G2 F2000.0 X168.9095 Y239.9207 Z-0.6667 I-0.25 J0.0
G2 Y240.3537 Z-1.3333 I0.125 J0.2165
G2 X169.2845 Y240.1372 Z-2.0 I0.125 J-0.2165
G2 X168.9095 Y239.9207 Z-2.6667 I-0.25 J0.0
G2 Y240.3537 Z-3.3333 I0.125 J0.2165
G2 X169.2845 Y240.1372 Z-4.0 I0.125 J-0.2165
G2 X168.9095 Y239.9207 Z-4.6667 I-0.25 J0.0
G2 Y240.3537 Z-5.3333 I0.125 J0.2165
G2 X169.2845 Y240.1372 Z-6.0 I0.125 J-0.2165
G2 X168.9095 Y239.9207 Z-6.6667 I-0.25 J0.0
G2 Y240.3537 Z-7.3333 I0.125 J0.2165
G2 X169.2845 Y240.1372 Z-8.0 I0.125 J-0.2165
G2 X168.9095 Y239.9207 I-0.25 J0.0
G2 Y240.3537 I0.125 J0.2165
G2 X169.2845 Y240.1372 I0.125 J-0.2165
G0 Z3.0
G0 X118.4846
G0 Z1.0
G1 F300.0 Z0.0
G2 F2000.0 X118.1096 Y239.9207 Z-0.6667 I-0.25 J0.0
G2 Y240.3537 Z-1.3333 I0.125 J0.2165
G2 X118.4846 Y240.1372 Z-2.0 I0.125 J-0.2165
G2 X118.1096 Y239.9207 Z-2.6667 I-0.25 J0.0
G2 Y240.3537 Z-3.3333 I0.125 J0.2165
G2 X118.4846 Y240.1372 Z-4.0 I0.125 J-0.2165
G2 X118.1096 Y239.9207 Z-4.6667 I-0.25 J0.0
G2 Y240.3537 Z-5.3333 I0.125 J0.2165
G2 X118.4846 Y240.1372 Z-6.0 I0.125 J-0.2165
G2 X118.1096 Y239.9207 Z-6.6667 I-0.25 J0.0
G2 Y240.3537 Z-7.3333 I0.125 J0.2165
G2 X118.4846 Y240.1372 Z-8.0 I0.125 J-0.2165
G2 X118.1096 Y239.9207 I-0.25 J0.0
G2 Y240.3537 I0.125 J0.2165
G2 X118.4846 Y240.1372 I0.125 J-0.2165
G0 Z3.0
G0 X97.6566 Y185.6797
G0 Z1.0
G1 F300.0 Z0.0
G2 F2000.0 X97.2816 Y185.4632 Z-0.6667 I-0.25 J0.0
G2 Y185.8962 Z-1.3333 I0.125 J0.2165
G2 X97.6566 Y185.6797 Z-2.0 I0.125 J-0.2165
G2 X97.2816 Y185.4632 Z-2.6667 I-0.25 J0.0
G2 Y185.8962 Z-3.3333 I0.125 J0.2165
G2 X97.6566 Y185.6797 Z-4.0 I0.125 J-0.2165
G2 X97.2816 Y185.4632 Z-4.6667 I-0.25 J0.0
G2 Y185.8962 Z-5.3333 I0.125 J0.2165
G2 X97.6566 Y185.6797 Z-6.0 I0.125 J-0.2165
G2 X97.2816 Y185.4632 Z-6.6667 I-0.25 J0.0
G2 Y185.8962 Z-7.3333 I0.125 J0.2165
G2 X97.6566 Y185.6797 Z-8.0 I0.125 J-0.2165
G2 X97.2816 Y185.4632 I-0.25 J0.0
G2 Y185.8962 I0.125 J0.2165
G2 X97.6566 Y185.6797 I0.125 J-0.2165
G0 Z3.0
G0 X131.2608 Y119.5127
G0 Z1.0
G1 F300.0 Z0.0
G2 F2000.0 X130.8858 Y119.2962 Z-0.6667 I-0.25 J0.0
G2 Y119.7293 Z-1.3333 I0.125 J0.2165
G2 X131.2608 Y119.5127 Z-2.0 I0.125 J-0.2165
G2 X130.8858 Y119.2962 Z-2.6667 I-0.25 J0.0
G2 Y119.7293 Z-3.3333 I0.125 J0.2165
G2 X131.2608 Y119.5127 Z-4.0 I0.125 J-0.2165
G2 X130.8858 Y119.2962 Z-4.6667 I-0.25 J0.0
G2 Y119.7293 Z-5.3333 I0.125 J0.2165
G2 X131.2608 Y119.5127 Z-6.0 I0.125 J-0.2165
G2 X130.8858 Y119.2962 Z-6.6667 I-0.25 J0.0
G2 Y119.7293 Z-7.3333 I0.125 J0.2165
G2 X131.2608 Y119.5127 Z-8.0 I0.125 J-0.2165
G2 X130.8858 Y119.2962 I-0.25 J0.0
G2 Y119.7293 I0.125 J0.2165
G2 X131.2608 Y119.5127 I0.125 J-0.2165
G0 Z3.0
G0 X182.7973 Y111.4356
G0 Z1.0
G1 F300.0 Z0.0
G2 F2000.0 X182.4223 Y111.2191 Z-0.6667 I-0.25 J0.0
G2 Y111.6521 Z-1.3333 I0.125 J0.2165
G2 X182.7973 Y111.4356 Z-2.0 I0.125 J-0.2165
G2 X182.4223 Y111.2191 Z-2.6667 I-0.25 J0.0
G2 Y111.6521 Z-3.3333 I0.125 J0.2165
G2 X182.7973 Y111.4356 Z-4.0 I0.125 J-0.2165
G2 X182.4223 Y111.2191 Z-4.6667 I-0.25 J0.0
G2 Y111.6521 Z-5.3333 I0.125 J0.2165
G2 X182.7973 Y111.4356 Z-6.0 I0.125 J-0.2165
G2 X182.4223 Y111.2191 Z-6.6667 I-0.25 J0.0
G2 Y111.6521 Z-7.3333 I0.125 J0.2165
G2 X182.7973 Y111.4356 Z-8.0 I0.125 J-0.2165
G2 X182.4223 Y111.2191 I-0.25 J0.0
G2 Y111.6521 I0.125 J0.2165
G2 X182.7973 Y111.4356 I0.125 J-0.2165
G0 Z3.0
G0 X157.6236 Y29.5125
G0 Z1.0
G1 F300.0 Z0.0
G2 F2000.0 X157.2486 Y29.296 Z-0.6667 I-0.25 J0.0
G2 Y29.729 Z-1.3333 I0.125 J0.2165
G2 X157.6236 Y29.5125 Z-2.0 I0.125 J-0.2165
G2 X157.2486 Y29.296 Z-2.6667 I-0.25 J0.0
G2 Y29.729 Z-3.3333 I0.125 J0.2165
G2 X157.6236 Y29.5125 Z-4.0 I0.125 J-0.2165
G2 X157.2486 Y29.296 Z-4.6667 I-0.25 J0.0
G2 Y29.729 Z-5.3333 I0.125 J0.2165
G2 X157.6236 Y29.5125 Z-6.0 I0.125 J-0.2165
G2 X157.2486 Y29.296 Z-6.6667 I-0.25 J0.0
G2 Y29.729 Z-7.3333 I0.125 J0.2165
G2 X157.6236 Y29.5125 Z-8.0 I0.125 J-0.2165
G2 X157.2486 Y29.296 I-0.25 J0.0
G2 Y29.729 I0.125 J0.2165
G2 X157.6236 Y29.5125 I0.125 J-0.2165
G0 Z3.0
G0 X97.917 Y69.0786
G0 Z1.0
G1 F300.0 Z0.0
G2 F2000.0 X97.542 Y68.8621 Z-0.6667 I-0.25 J0.0
G2 Y69.2951 Z-1.3333 I0.125 J0.2165
G2 X97.917 Y69.0786 Z-2.0 I0.125 J-0.2165
G2 X97.542 Y68.8621 Z-2.6667 I-0.25 J0.0
G2 Y69.2951 Z-3.3333 I0.125 J0.2165
G2 X97.917 Y69.0786 Z-4.0 I0.125 J-0.2165
G2 X97.542 Y68.8621 Z-4.6667 I-0.25 J0.0
G2 Y69.2951 Z-5.3333 I0.125 J0.2165
G2 X97.917 Y69.0786 Z-6.0 I0.125 J-0.2165
G2 X97.542 Y68.8621 Z-6.6667 I-0.25 J0.0
G2 Y69.2951 Z-7.3333 I0.125 J0.2165
G2 X97.917 Y69.0786 Z-8.0 I0.125 J-0.2165
G2 X97.542 Y68.8621 I-0.25 J0.0
G2 Y69.2951 I0.125 J0.2165
G2 X97.917 Y69.0786 I0.125 J-0.2165
G0 Z3.0
G0 X34.1815 Y29.5125
G0 Z1.0
G1 F300.0 Z0.0
G2 F2000.0 X33.8065 Y29.296 Z-0.6667 I-0.25 J0.0
G2 Y29.729 Z-1.3333 I0.125 J0.2165
G2 X34.1815 Y29.5125 Z-2.0 I0.125 J-0.2165
G2 X33.8065 Y29.296 Z-2.6667 I-0.25 J0.0
G2 Y29.729 Z-3.3333 I0.125 J0.2165
G2 X34.1815 Y29.5125 Z-4.0 I0.125 J-0.2165
G2 X33.8065 Y29.296 Z-4.6667 I-0.25 J0.0
G2 Y29.729 Z-5.3333 I0.125 J0.2165
G2 X34.1815 Y29.5125 Z-6.0 I0.125 J-0.2165
G2 X33.8065 Y29.296 Z-6.6667 I-0.25 J0.0
G2 Y29.729 Z-7.3333 I0.125 J0.2165
G2 X34.1815 Y29.5125 Z-8.0 I0.125 J-0.2165
G2 X33.8065 Y29.296 I-0.25 J0.0
G2 Y29.729 I0.125 J0.2165
G2 X34.1815 Y29.5125 I0.125 J-0.2165
G0 Z3.0
G0 X34.9187 Y137.2165
G0 Z1.0
G1 F300.0 Z0.0
G2 F2000.0 X34.5437 Y137.0 Z-0.6667 I-0.25 J0.0
G2 Y137.433 Z-1.3333 I0.125 J0.2165
G2 X34.9187 Y137.2165 Z-2.0 I0.125 J-0.2165
G2 X34.5437 Y137.0 Z-2.6667 I-0.25 J0.0
G2 Y137.433 Z-3.3333 I0.125 J0.2165
G2 X34.9187 Y137.2165 Z-4.0 I0.125 J-0.2165
G2 X34.5437 Y137.0 Z-4.6667 I-0.25 J0.0
G2 Y137.433 Z-5.3333 I0.125 J0.2165
G2 X34.9187 Y137.2165 Z-6.0 I0.125 J-0.2165
G2 X34.5437 Y137.0 Z-6.6667 I-0.25 J0.0
G2 Y137.433 Z-7.3333 I0.125 J0.2165
G2 X34.9187 Y137.2165 Z-8.0 I0.125 J-0.2165
G2 X34.5437 Y137.0 I-0.25 J0.0
G2 Y137.433 I0.125 J0.2165
G2 X34.9187 Y137.2165 I0.125 J-0.2165
G0 Z3.0
G0 X35.5537 Y240.1372
G0 Z1.0
G1 F300.0 Z0.0
G2 F2000.0 X35.1787 Y239.9207 Z-0.6667 I-0.25 J0.0
G2 Y240.3537 Z-1.3333 I0.125 J0.2165
G2 X35.5537 Y240.1372 Z-2.0 I0.125 J-0.2165
G2 X35.1787 Y239.9207 Z-2.6667 I-0.25 J0.0
G2 Y240.3537 Z-3.3333 I0.125 J0.2165
G2 X35.5537 Y240.1372 Z-4.0 I0.125 J-0.2165
G2 X35.1787 Y239.9207 Z-4.6667 I-0.25 J0.0
G2 Y240.3537 Z-5.3333 I0.125 J0.2165
G2 X35.5537 Y240.1372 Z-6.0 I0.125 J-0.2165
G2 X35.1787 Y239.9207 Z-6.6667 I-0.25 J0.0
G2 Y240.3537 Z-7.3333 I0.125 J0.2165
G2 X35.5537 Y240.1372 Z-8.0 I0.125 J-0.2165
G2 X35.1787 Y239.9207 I-0.25 J0.0
G2 Y240.3537 I0.125 J0.2165
G2 X35.5537 Y240.1372 I0.125 J-0.2165
( Internal Space )
S1000
G0 Z3.0
G0 X183.8239 Y98.6639
G0 Z1.0
G1 F300.0 Z-3.0
G3 F2500.0 X187.329 Y99.5242 I-1.2766 J12.7716
G1 X186.3736 Y97.4752
G1 X183.8239 Y98.6639
G0 Z3.0
G0 X159.3256 Y131.7227
G0 Z1.0
G1 F300.0 Z-3.0
G3 F2500.0 X159.1259 Y132.1758 I-28.3149 J-12.21
G3 X159.4881 Y131.9072 I17.6556 J23.4303
G3 X159.3256 Y131.7227 I23.0592 J-20.4716
G0 Z3.0
G0 X135.0351 Y162.7612
G0 Z1.0
G1 F300.0 Z-3.0
G3 F2500.0 X134.3399 Y162.8203 I-4.0244 J-43.2485
G3 X135.0351 Y163.9836 I-36.9333 J22.8594
G1 Y162.7612
G1 F300.0 X135.6351
G1 F2500.0 Y162.0977
G3 X133.2906 Y162.2873 I-4.6244 J-42.5849
G3 X135.6351 Y166.355 I-35.884 J23.3924
G1 Y162.7612
G1 F300.0 X136.8351
G1 F2500.0 Y160.7386
G3 X131.0473 Y161.148 I-5.8244 J-41.2259
G3 X136.8351 Y172.3047 I-33.6407 J24.5317
G1 Y162.7612
G0 Z3.0
G0 Y199.0546
G0 Z1.0
G1 F300.0 Z-3.0
G3 F2500.0 X135.5853 Y202.2895 I-39.4285 J-13.3749
G3 X136.8351 Y202.8878 I-17.3507 J37.8477
G1 Y199.0546
G1 F300.0 X135.6987 Y198.6691
G3 F2500.0 X133.9924 Y202.8987 I-38.2921 J-12.9895
G3 X138.0351 Y204.8817 I-15.7578 J37.2385
G1 Y159.461
G3 X138.0228 Y159.3354 I38.7464 J-3.8549
G3 X128.5351 Y159.8722 I-7.0121 J-39.8226
G3 X135.6987 Y198.6691 I-31.1285 J25.8075
G1 F300.0 X134.5623 Y198.2836
G3 F2500.0 X132.3472 Y203.5279 I-37.1557 J-12.604
G3 X137.8522 Y206.1585 I-14.1127 J36.6093
G3 X139.2351 Y206.9953 I-19.6176 J33.9788
G1 Y159.401
G3 X139.1138 Y157.9022 I37.5464 J-3.7948
G3 X125.5773 Y158.37 I-8.103 J-38.3894
G3 X134.5623 Y198.2836 I-28.1707 J27.3097
G1 F300.0 X133.4259 Y197.8982
G3 F2500.0 X130.6387 Y204.1814 I-36.0193 J-12.2185
G3 X137.2522 Y207.1977 I-12.4041 J35.9558
G3 X140.4351 Y209.2533 I-19.0176 J32.9395
G1 Y159.34
G3 X140.2526 Y156.4082 I36.3464 J-3.7339
G3 X121.6608 Y156.3809 I-9.2419 J-36.8954
G3 X133.4259 Y197.8982 I-24.2542 J29.2988
G1 F300.0 X132.2895 Y197.5127
G3 F2500.0 X128.8512 Y204.865 I-34.8829 J-11.833
G3 X136.6522 Y208.2369 I-10.6166 J35.2722
G3 X141.6351 Y211.6898 I-18.4176 J31.9003
G1 Y159.278
G3 X141.4438 Y155.6061 I35.1464 J-3.6719
G3 X141.4522 Y154.8372 I35.3377 J0.0
G3 X120.0894 Y154.6917 I-10.4414 J-35.3244
G3 X118.2225 Y155.2899 I-10.9064 J-30.8276
G3 X132.2895 Y197.5127 I-20.8158 J30.3898
G1 F300.0 X131.1531 Y197.1272
G3 F2500.0 X126.9626 Y205.5873 I-33.7465 J-11.4475
G3 X136.0522 Y209.2762 I-8.728 J34.5499
G3 X142.472 Y214.014 I-17.8176 J30.8611
G1 X142.8351
G1 Y159.2149
G3 X142.6438 Y155.6061 I33.9464 J-3.6088
G3 X142.7312 Y153.1655 I34.1377 J0.0
G3 X120.0642 Y153.4251 I-11.7204 J-33.6527
G3 X115.1734 Y154.7893 I-10.8812 J-29.5609
G3 X115.2243 Y154.8186 I-17.7668 J30.8904
G3 X131.1531 Y197.1272 I-17.8176 J30.8611
G1 F300.0 X130.0167 Y196.7417
G3 F2500.0 X124.9397 Y206.361 I-32.6101 J-11.062
G3 X135.4522 Y210.3154 I-6.7051 J33.7762
G3 X141.9964 Y215.214 I-17.2176 J29.8218
G1 X144.0351
G1 Y159.1508
G3 X143.8438 Y155.6061 I32.7464 J-3.5446
G3 X144.1193 Y151.3554 I32.9377 J0.0
G3 X120.038 Y152.153 I-13.1085 J-31.8427
G3 X111.1388 Y154.101 I-10.855 J-28.2889
G3 X114.6243 Y155.8578 I-13.7322 J31.5787
G3 X130.0167 Y196.7417 I-17.2176 J29.8218
G1 F300.0 X128.8803 Y196.3562
G3 F2500.0 X122.7277 Y207.207 I-31.4737 J-10.6765
G3 X134.8522 Y211.3546 I-4.4931 J32.9302
G3 X141.5111 Y216.414 I-16.6176 J28.7826
G1 X145.2351
G1 Y159.0854
G3 X145.0438 Y155.6061 I31.5464 J-3.4793
G3 X145.6683 Y149.3413 I31.7377 J0.0
G3 X120.0105 Y150.8748 I-14.6575 J-29.8285
G3 X109.183 Y152.9641 I-10.8275 J-27.0106
G1 X103.2614
G3 X114.0243 Y156.8971 I-5.8547 J32.7155
G3 X128.8803 Y196.3562 I-16.6176 J28.7826
G0 Z3.0
G0 X66.9498 Y210.414
G0 Z1.0
G1 F300.0 Z-3.0
G3 F2500.0 X65.1285 Y207.9851 I30.4569 J-24.7343
G1 Y210.414
G1 X66.9498
G1 F300.0 X67.8813 Y209.6575
G3 F2500.0 X63.9285 Y203.7323 I29.5253 J-23.9778
G1 Y211.614
G1 X69.5841
G3 X67.8813 Y209.6575 I27.8225 J-25.9343
G1 F300.0 X68.8128 Y208.901
G3 F2500.0 X62.7285 Y198.1001 I28.5938 J-23.2213
G1 Y212.814
G1 X72.4955
G3 X68.8128 Y208.901 I24.9112 J-27.1343
G0 Z3.0
G0 X65.1285 Y163.3743
G0 Z1.0
G1 F300.0 Z-3.0
G3 F2500.0 X68.6718 Y158.9641 I32.2781 J22.3054
G1 X67.3252
G3 X65.1285 Y161.9472 I-32.6565 J-21.7476
G1 Y163.3743
G1 F300.0 X66.1157 Y164.0565
G3 F2500.0 X71.5724 Y157.7641 I31.2909 J21.6232
G1 X66.6762
G3 X63.9285 Y161.5177 I-32.0075 J-20.5476
G1 Y167.627
G3 X66.1157 Y164.0565 I33.4781 J18.0526
G1 F300.0 X67.1029 Y164.7387
G3 F2500.0 X74.8428 Y156.5641 I30.3037 J20.941
G1 X66.0137
G3 X62.7285 Y161.0804 I-31.345 J-19.3476
G1 Y173.2593
G3 X67.1029 Y164.7387 I34.6781 J12.4204
G1 F300.0 X68.0901 Y165.4209
G3 F2500.0 X78.6758 Y155.3641 I29.3165 J20.2588
G1 X65.3369
G3 X61.5285 Y160.635 I-30.6682 J-18.1476
G1 Y214.014
G1 X75.7955
G3 X61.7713 Y185.6797 I21.6111 J-28.3343
G3 X68.0901 Y165.4209 I35.6353 J0.0
G1 F300.0 X69.0774 Y166.1031
G3 F2500.0 X83.53 Y154.1641 I28.3293 J19.5766
G1 X64.6448
G3 X60.3285 Y160.1809 I-29.9761 J-16.9476
G1 Y215.214
G1 X79.7003
G3 X62.9713 Y185.6797 I17.7063 J-29.5343
G3 X69.0774 Y166.1031 I34.4353 J0.0
G1 F300.0 X70.0646 Y166.7853
G3 F2500.0 X91.5519 Y152.9641 I27.342 J18.8944
G1 X63.9364
G3 X59.1285 Y159.7177 I-29.2677 J-15.7476
G1 Y216.414
G1 X84.7581
G3 X64.1713 Y185.6797 I12.6485 J-30.7343
G3 X70.0646 Y166.7853 I33.2353 J0.0
G1 F300.0 X71.0518 Y167.4675
G3 F2500.0 X113.4243 Y157.9363 I26.3548 J18.2122
G3 X120.2259 Y208.1639 I-16.0176 J27.7434
G3 X134.2522 Y212.3938 I-1.9913 J31.9733
G3 X141.0154 Y217.614 I-16.0176 J27.7434
G1 X141.3994
G1 X146.2537
G3 X146.4351 Y217.432 I22.7808 J22.5232
G1 Y159.0188
G3 X146.2438 Y155.6061 I30.3464 J-3.4127
G3 X147.4854 Y146.9872 I30.5377 J0.0
G3 X147.0284 Y147.2561 I-16.4746 J-27.4745
G3 X119.9816 Y149.5896 I-16.0176 J-27.7434
G3 X109.183 Y151.7641 I-10.7986 J-25.7255
G1 X63.2103
G3 X57.9285 Y159.2447 I-28.5417 J-14.5476
G1 Y217.4573
G3 X58.0845 Y217.614 I-22.6248 J22.6799
G1 X92.5409
G1 X93.0378
G1 X94.8654
G3 X65.3713 Y185.6797 I2.5412 J-31.9343
G3 X71.0518 Y167.4675 I32.0353 J0.0
G1 F300.0 X72.039 Y168.1497
G3 F2500.0 X112.8243 Y158.9755 I25.3676 J17.53
G3 X117.2054 Y209.3191 I-15.4176 J26.7041
G3 X133.6522 Y213.4331 I1.0292 J30.8181
G3 X140.5087 Y218.814 I-15.4176 J26.7041
G1 X140.9025
G1 X141.3994
G1 X146.7604
G3 X147.6351 Y217.9363 I22.2741 J21.3232
G1 Y158.9508
G3 X147.4438 Y155.6061 I29.1464 J-3.3447
G3 X149.8803 Y143.9003 I29.3377 J0.0
G3 X146.4284 Y146.2169 I-18.8695 J-24.3876
G3 X119.9512 Y148.2964 I-15.4176 J-26.7041
G3 X109.183 Y150.5641 I-10.7682 J-24.4323
G1 X62.4654
G3 X56.7285 Y158.7614 I-27.7967 J-13.3476
G1 Y217.9608
G3 X57.5778 Y218.814 I-21.4248 J22.1764
G1 X92.5409
G1 X93.0378
G1 X95.9605
G3 X98.4358 Y216.4978 I22.2741 J21.3232
G3 X66.5713 Y185.6797 I-1.0292 J-30.8181
G3 X72.039 Y168.1497 I30.8353 J0.0
G1 F300.0 X73.0262 Y168.8319
G3 F2500.0 X112.2243 Y160.0148 I24.3804 J16.8478
G3 X112.7975 Y211.005 I-14.8176 J25.6649
G3 X133.0522 Y214.4723 I5.4371 J29.1323
G3 X139.9902 Y220.014 I-14.8176 J25.6649
G1 X140.9025
G1 X141.3994
G1 X147.2789
G3 X148.8351 Y218.4523 I21.7556 J20.1232
G1 Y158.8815
G3 X148.6438 Y155.6061 I27.9464 J-3.2754
G3 X161.3092 Y132.1042 I28.1377 J0.0
G3 X158.9575 Y129.3735 I21.2381 J-20.6687
G3 X145.8284 Y145.1777 I-27.9467 J-9.8607
G3 X119.9189 Y146.994 I-14.8176 J-25.6649
G3 X109.183 Y149.3641 I-10.7359 J-23.1299
G1 X61.6999
G3 X55.5285 Y158.2669 I-27.0312 J-12.1476
G1 Y218.476
G3 X57.0593 Y220.014 I-20.2248 J21.6612
G1 X92.5409
G1 X93.0378
G1 X96.479
G3 X102.8437 Y214.8119 I21.7556 J20.1232
G3 X67.7713 Y185.6797 I-5.4371 J-29.1323
G3 X73.0262 Y168.8319 I29.6353 J0.0
G0 Z3.0
G0 X91.7834 Y181.7938
G0 Z1.0
G1 F300.0 Z-3.0
G3 F2500.0 X100.8243 Y179.7601 I5.6233 J3.8859
G3 Y191.5992 I-3.4176 J5.9195
G3 X90.5713 Y185.6797 I-3.4176 J-5.9195
G3 X91.7834 Y181.7938 I6.8353 J0.0
G1 F300.0 X92.7686 Y182.4746
G3 F2500.0 X100.2255 Y180.7973 I4.638 J3.205
G3 Y190.5621 I-2.8188 J4.8824
G3 X91.7689 Y185.6797 I-2.8188 J-4.8824
G3 X92.7686 Y182.4746 I5.6377 J0.0
G0 Z3.0
G0 X90.7961 Y181.1116
G0 Z1.0
G1 F300.0 Z-3.0
G2 F2500.0 X89.3713 Y185.6797 I6.6105 J4.5681
G2 X101.4243 Y192.6384 I8.0353 J0.0
G2 Y178.7209 I-4.0176 J-6.9588
G2 X90.7961 Y181.1116 I-4.0176 J6.9588
G1 F300.0 X89.8089 Y180.4294
G2 F2500.0 X88.1713 Y185.6797 I7.5977 J5.2503
G2 X102.0243 Y193.6777 I9.2353 J0.0
G2 Y177.6817 I-4.6176 J-7.998
G2 X89.8089 Y180.4294 I-4.6176 J7.998
G1 F300.0 X88.8217 Y179.7472
G2 F2500.0 X86.9713 Y185.6797 I8.5849 J5.9325
G2 X102.6243 Y194.7169 I10.4353 J0.0
G2 Y176.6425 I-5.2176 J-9.0372
G2 X88.8217 Y179.7472 I-5.2176 J9.0372
G1 F300.0 X87.8345 Y179.065
G2 F2500.0 X85.7713 Y185.6797 I9.5721 J6.6147
G2 X103.2243 Y195.7561 I11.6353 J0.0
G2 Y175.6032 I-5.8176 J-10.0765
G2 X87.8345 Y179.065 I-5.8176 J10.0765
G1 F300.0 X86.8473 Y178.3828
G2 F2500.0 X84.5713 Y185.6797 I10.5593 J7.2969
G2 X103.8243 Y196.7954 I12.8353 J0.0
G2 Y174.564 I-6.4176 J-11.1157
G2 X86.8473 Y178.3828 I-6.4176 J11.1157
G1 F300.0 X85.8601 Y177.7006
G2 F2500.0 X83.3713 Y185.6797 I11.5466 J7.9791
G2 X104.4243 Y197.8346 I14.0353 J0.0
G2 Y173.5248 I-7.0176 J-12.1549
G2 X85.8601 Y177.7006 I-7.0176 J12.1549
G1 F300.0 X84.8728 Y177.0184
G2 F2500.0 X82.1713 Y185.6797 I12.5338 J8.6613
G2 X105.0243 Y198.8738 I15.2353 J0.0
G2 Y172.4855 I-7.6176 J-13.1941
G2 X84.8728 Y177.0184 I-7.6176 J13.1941
G1 F300.0 X83.8856 Y176.3362
G2 F2500.0 X80.9713 Y185.6797 I13.521 J9.3435
G2 X105.6243 Y199.913 I16.4353 J0.0
G2 Y171.4463 I-8.2176 J-14.2334
G2 X83.8856 Y176.3362 I-8.2176 J14.2334
G1 F300.0 X82.8984 Y175.654
G2 F2500.0 X79.7713 Y185.6797 I14.5082 J10.0257
G2 X106.2243 Y200.9523 I17.6353 J0.0
G2 Y170.4071 I-8.8176 J-15.2726
G2 X82.8984 Y175.654 I-8.8176 J15.2726
G1 F300.0 X81.9112 Y174.9718
G2 F2500.0 X78.5713 Y185.6797 I15.4954 J10.7079
G2 X106.8243 Y201.9915 I18.8353 J0.0
G2 Y169.3678 I-9.4176 J-16.3118
G2 X81.9112 Y174.9718 I-9.4176 J16.3118
G1 F300.0 X80.924 Y174.2896
G2 F2500.0 X77.3713 Y185.6797 I16.4826 J11.3901
G2 X107.4243 Y203.0307 I20.0353 J0.0
G2 Y168.3286 I-10.0176 J-17.3511
G2 X80.924 Y174.2896 I-10.0176 J17.3511
G1 F300.0 X79.9367 Y173.6073
G2 F2500.0 X76.1713 Y185.6797 I17.4699 J12.0723
G2 X108.0243 Y204.07 I21.2353 J0.0
G2 Y167.2894 I-10.6176 J-18.3903
G2 X79.9367 Y173.6073 I-10.6176 J18.3903
G1 F300.0 X78.9495 Y172.9251
G2 F2500.0 X74.9713 Y185.6797 I18.4571 J12.7545
G2 X108.6243 Y205.1092 I22.4353 J0.0
G2 Y166.2501 I-11.2176 J-19.4295
G2 X78.9495 Y172.9251 I-11.2176 J19.4295
G1 F300.0 X77.9623 Y172.2429
G2 F2500.0 X73.7713 Y185.6797 I19.4443 J13.4367
G2 X109.2243 Y206.1484 I23.6353 J0.0
G2 Y165.2109 I-11.8176 J-20.4688
G2 X77.9623 Y172.2429 I-11.8176 J20.4688
G1 F300.0 X76.9751 Y171.5607
G2 F2500.0 X72.5713 Y185.6797 I20.4315 J14.1189
G2 X109.8243 Y207.1877 I24.8353 J0.0
G2 Y164.1717 I-12.4176 J-21.508
G2 X76.9751 Y171.5607 I-12.4176 J21.508
G1 F300.0 X75.9879 Y170.8785
G2 F2500.0 X71.3713 Y185.6797 I21.4187 J14.8011
G2 X110.4243 Y208.2269 I26.0353 J0.0
G2 Y163.1325 I-13.0176 J-22.5472
G2 X75.9879 Y170.8785 I-13.0176 J22.5472
G1 F300.0 X75.0007 Y170.1963
G2 F2500.0 X70.1713 Y185.6797 I22.406 J15.4833
G2 X111.0243 Y209.2661 I27.2353 J0.0
G2 Y162.0932 I-13.6176 J-23.5864
G2 X75.0007 Y170.1963 I-13.6176 J23.5864
G1 F300.0 X74.0134 Y169.5141
G2 F2500.0 X68.9713 Y185.6797 I23.3932 J16.1655
G2 X111.6243 Y210.3054 I28.4353 J0.0
G2 Y161.054 I-14.2176 J-24.6257
G2 X74.0134 Y169.5141 I-14.2176 J24.6257
G0 Z3.0
G0 X54.3285
G0 Z1.0
G1 F300.0 Z-3.0
G1 F2500.0 Y219.0038
G3 X56.5281 Y221.214 I-19.0248 J21.1334
G1 X92.5409
G1 X93.0378
G1 X97.0101
G3 X132.4522 Y215.5115 I21.2245 J18.9232
G3 X139.459 Y221.214 I-14.2176 J24.6257
G1 X140.9025
G1 X141.3994
G1 X147.8101
G3 X150.0351 Y218.9809 I21.2245 J18.9232
G1 Y158.8106
G3 X149.8438 Y155.6061 I26.7464 J-3.2045
G3 X163.2455 Y132.3163 I26.9377 J0.0
G3 X159.038 Y127.4318 I19.3018 J-20.8807
G1 X158.2056 Y127.8199
G3 X145.2284 Y144.1384 I-27.1948 J-8.3072
G3 X119.8903 Y145.6834 I-14.2176 J-24.6257
G1 X119.4511 Y145.8881
G3 X109.183 Y148.1641 I-10.2681 J-22.024
G1 X60.9121
G3 X54.3285 Y157.7606 I-26.2434 J-10.9476
G1 Y169.5141
G1 F300.0 X53.1285
G1 F2500.0 Y219.5451
G3 X55.9834 Y222.414 I-17.8248 J20.5922
G1 X92.5409
G1 X93.0378
G1 X97.5549
G3 X131.8522 Y216.5508 I20.6797 J17.7232
G3 X138.9143 Y222.414 I-13.6176 J23.5864
G1 X140.9025
G1 X141.3994
G1 X148.3549
G3 X151.2351 Y219.5231 I20.6797 J17.7232
G1 Y158.7382
G3 X151.0438 Y155.6061 I25.5464 J-3.1321
G3 X165.3438 Y132.5495 I25.7377 J0.0
G3 X159.4735 Y125.9048 I17.2035 J-21.114
G1 X157.2078 Y126.9611
G3 X144.6284 Y143.0992 I-26.197 J-7.4483
G3 X119.874 Y144.367 I-13.6176 J-23.5864
G1 X118.944 Y144.8005
G3 X109.183 Y146.9641 I-9.761 J-20.9364
G1 X60.0999
G3 X53.1285 Y157.2414 I-25.4312 J-9.7476
G1 Y169.5141
G1 F300.0 X51.9285
G1 F2500.0 Y220.101
G3 X55.4238 Y223.614 I-16.6248 J20.0363
G1 X92.5409
G1 X93.0378
G1 X98.1145
G3 X131.2522 Y217.59 I20.1201 J16.5232
G3 X138.3547 Y223.614 I-13.0176 J22.5472
G1 X140.9025
G1 X141.3994
G1 X148.9144
G3 X152.4351 Y220.0799 I20.1201 J16.5232
G1 Y158.664
G3 X152.2438 Y155.6061 I24.3464 J-3.0579
G3 X167.6895 Y132.815 I24.5377 J0.0
G3 X159.9466 Y124.3602 I14.8578 J-21.3795
G1 X156.1967 Y126.1085
G3 X144.0284 Y142.06 I-25.186 J-6.5957
G3 X119.8709 Y143.0444 I-13.0176 J-22.5472
G1 X118.4369 Y143.7129
G3 X109.183 Y145.7641 I-9.254 J-19.8488
G1 X59.2608
G3 X51.9285 Y156.7085 I-24.5922 J-8.5476
G1 Y169.5141
G1 F300.0 X50.7285
G1 F2500.0 Y220.6727
G3 X54.8483 Y224.814 I-15.4248 J19.4645
G1 X92.5409
G1 X93.0378
G1 X98.69
G3 X130.6522 Y218.6292 I19.5446 J15.3232
G3 X137.7792 Y224.814 I-12.4176 J21.508
G1 X140.9025
G1 X141.3994
G1 X149.49
G3 X153.6351 Y220.6526 I19.5446 J15.3232
G1 Y158.588
G3 X153.4438 Y155.6061 I23.1464 J-2.9819
G3 X170.4719 Y133.1375 I23.3377 J0.0
G3 X160.4625 Y122.7957 I12.0754 J-21.702
G1 X155.1713 Y125.2625
G3 X143.4284 Y141.0207 I-24.1605 J-5.7498
G3 X119.8822 Y141.7151 I-12.4176 J-21.508
G1 X117.9299 Y142.6253
G3 X109.183 Y144.5641 I-8.7469 J-18.7612
G1 X58.3922
G3 X50.7285 Y156.1605 I-23.7235 J-7.3476
G1 Y169.5141
G1 F300.0 X49.5285
G1 F2500.0 Y221.2618
G3 X54.2552 Y226.014 I-14.2248 J18.8754
G1 X92.5409
G1 X93.0378
G1 X99.283
G3 X130.0522 Y219.6685 I18.9516 J14.1232
G3 X137.1862 Y226.014 I-11.8176 J20.4688
G1 X140.9025
G1 X141.3994
G1 X150.083
G3 X154.8351 Y221.2427 I18.9516 J14.1232
G1 Y158.51
G3 X154.6438 Y155.6061 I21.9464 J-2.9039
G3 X174.347 Y133.6027 I22.1377 J0.0
G3 X161.0271 Y121.2084 I8.2003 J-22.1671
G1 X154.1302 Y124.4239
G3 X142.8284 Y139.9815 I-23.1194 J-4.9112
G3 X119.9092 Y140.3785 I-11.8176 J-20.4688
G1 X117.4228 Y141.5377
G3 X109.183 Y143.3641 I-8.2398 J-17.6736
G1 X57.4905
G3 X49.5285 Y155.5962 I-22.8218 J-6.1476
G1 Y169.5141
G1 F300.0 X48.3285
G1 F2500.0 Y221.8699
G3 X53.6431 Y227.214 I-13.0248 J18.2674
G1 X92.5409
G1 X93.0378
G1 X99.8952
G3 X129.4522 Y220.7077 I18.3394 J12.9232
G3 X136.574 Y227.214 I-11.2176 J19.4295
G1 X140.9025
G1 X141.3994
G1 X150.6952
G3 X156.0351 Y221.8518 I18.3394 J12.9232
G1 Y158.4299
G3 X155.8438 Y155.6061 I20.7464 J-2.8238
G3 X176.7815 Y134.6684 I20.9377 J0.0
G3 X180.7189 Y135.042 I0.0 J20.9377
G1 X183.2544 Y133.8597
G3 X161.6483 Y119.5948 I-0.7071 J-22.4241
G1 X153.0718 Y123.5933
G3 X142.2284 Y138.9423 I-22.0611 J-4.0806
G3 X119.9534 Y139.0339 I-11.2176 J-19.4295
G1 X116.9157 Y140.4501
G3 X109.183 Y142.1641 I-7.7328 J-16.586
G1 X56.5516
G3 X48.3285 Y155.014 I-21.8829 J-4.9476
G1 Y169.5141
G1 F300.0 X47.1285
G1 F2500.0 Y222.4989
G3 X53.0097 Y228.414 I-11.8248 J17.6383
G1 X92.5409
G1 X93.0378
G1 X100.5286
G3 X128.8522 Y221.7469 I17.706 J11.7232
G3 X135.9406 Y228.414 I-10.6176 J18.3903
G1 X140.9025
G1 X141.3994
G1 X151.3285
G3 X157.2351 Y222.4819 I17.706 J11.7232
G1 Y158.3474
G3 X157.0438 Y155.6061 I19.5464 J-2.7413
G3 X176.7815 Y135.8684 I19.7377 J0.0
G3 X180.8686 Y136.2962 I0.0 J19.7377
G1 X192.6465 Y130.8042
G1 X192.3892 Y130.2524
G3 X162.336 Y117.9501 I-9.8419 J-18.8169
G1 X151.9945 Y122.7716
G3 X141.6284 Y137.903 I-20.9837 J-3.2588
G3 X120.0166 Y137.6804 I-10.6176 J-18.3903
G1 X116.4087 Y139.3625
G3 X109.183 Y140.9641 I-7.2257 J-15.4984
G1 X55.5707
G3 X47.1285 Y154.4122 I-20.902 J-3.7476
G1 Y169.5141
G1 F300.0 X45.9285
G1 F2500.0 Y223.1512
G3 X52.3529 Y229.614 I-10.6248 J16.9861
G1 X92.5409
G1 X93.0378
G1 X101.1854
G3 X128.2522 Y222.7862 I17.0492 J10.5232
G3 X135.2838 Y229.614 I-10.0176 J17.3511
G1 X140.9025
G1 X141.3994
G1 X151.9853
G3 X158.4351 Y223.1353 I17.0492 J10.5232
G1 Y158.2623
G3 X158.2438 Y155.6061 I18.3464 J-2.6562
G3 X176.7815 Y137.0684 I18.5377 J0.0
G3 X181.006 Y137.5562 I0.0 J18.5377
G1 X194.2412 Y131.3846
G1 X192.9293 Y128.5711
G3 X192.565 Y128.7866 I-10.3819 J-17.1356
G3 X163.1036 Y116.2683 I-10.0176 J-17.3511
G1 X150.8961 Y121.9597
G3 X141.0284 Y136.8638 I-19.8853 J-2.4469
G3 X120.1009 Y136.3171 I-10.0176 J-17.3511
G1 X115.9016 Y138.2749
G3 X109.183 Y139.7641 I-6.7186 J-14.4108
G1 X54.5413
G3 X45.9285 Y153.7885 I-19.8727 J-2.5476
G1 Y169.5141
G1 F300.0 X44.7285
G1 F2500.0 Y223.8295
G3 X51.6697 Y230.814 I-9.4248 J16.3077
G1 X92.5409
G1 X93.0378
G1 X101.8686
G3 X127.6522 Y223.8254 I16.366 J9.3232
G3 X134.6006 Y230.814 I-9.4176 J16.3118
G1 X140.9025
G1 X141.3994
G1 X152.6685
G3 X159.6351 Y223.8149 I16.366 J9.3232
G1 Y158.1744
G3 X159.4438 Y155.6061 I17.1464 J-2.5683
G3 X176.7815 Y138.2684 I17.3377 J0.0
G3 X181.1298 Y138.8226 I0.0 J17.3377
G1 X195.8359 Y131.965
G1 X193.4311 Y126.8079
G3 X191.965 Y127.7474 I-10.8838 J-15.3724
G3 X163.9697 Y114.5405 I-9.4176 J-16.3118
G1 X149.774 Y121.1588
G3 X140.4284 Y135.8246 I-18.7632 J-1.6461
G3 X120.2088 Y134.9428 I-9.4176 J-16.3118
G1 X115.3945 Y137.1873
G3 X109.183 Y138.5641 I-6.2116 J-13.3232
G1 X53.4557
G3 X44.7285 Y153.1404 I-18.787 J-1.3476
G1 Y169.5141
G1 F300.0 X43.5285
G1 F2500.0 Y224.5373
G3 X44.1213 Y224.8646 I-8.2248 J15.5999
G3 X50.9567 Y232.014 I-8.8176 J15.2726
G1 X92.5409
G1 X93.0378
G1 X102.5816
G3 X127.0522 Y224.8646 I15.653 J8.1232
G3 X133.8876 Y232.014 I-8.8176 J15.2726
G1 X140.9025
G1 X141.3994
G1 X153.3815
G3 X160.8351 Y224.524 I15.653 J8.1232
G1 Y158.0835
G3 X160.6438 Y155.6061 I15.9464 J-2.4774
G3 X176.7815 Y139.4684 I16.1377 J0.0
G3 X181.2382 Y140.096 I0.0 J16.1377
G1 X197.4306 Y132.5455
G1 X193.8855 Y124.9429
G3 X191.365 Y126.7082 I-11.3382 J-13.5073
G3 X164.9614 Y112.7541 I-8.8176 J-15.2726
G1 X148.6252 Y120.3704
G3 X139.8284 Y134.7854 I-17.6144 J-0.8577
G3 X120.3435 Y133.556 I-8.8176 J-15.2726
G1 X114.8875 Y136.0997
G3 X109.183 Y137.3641 I-5.7045 J-12.2356
G1 X52.3033
G3 X43.5285 Y152.4647 I-17.6347 J-0.1476
G1 Y169.5141
G1 F300.0 X42.3285
G1 F2500.0 Y225.2789
G3 X43.5213 Y225.9038 I-7.0248 J14.8584
G3 X50.2096 Y233.214 I-8.2176 J14.2334
G1 X92.5409
G1 X93.0378
G1 X103.3286
G3 X126.4522 Y225.9038 I14.906 J6.9232
G3 X133.1406 Y233.214 I-8.2176 J14.2334
G1 X140.9025
G1 X141.3994
G1 X154.1286
G3 X162.0351 Y225.2669 I14.906 J6.9232
G1 Y157.989
G3 X161.8438 Y155.6061 I14.7464 J-2.3829
G3 X176.7815 Y140.6684 I14.9377 J0.0
G3 X181.3294 Y141.3776 I0.0 J14.9377
G1 X199.0253 Y133.1259
G1 X194.2786 Y122.9463
G3 X190.765 Y125.6689 I-11.7312 J-11.5107
G3 X166.112 Y111.4356 I-8.2176 J-14.2334
G3 X166.1211 Y110.8894 I16.4353 J0.0
G1 X147.4458 Y119.5962
G3 X139.2284 Y133.7461 I-16.4351 J-0.0835
G3 X120.5087 Y132.1549 I-8.2176 J-14.2334
G1 X114.3804 Y135.0121
G3 X109.183 Y136.1641 I-5.1974 J-11.1479
G1 X51.0702
G3 X42.8863 Y151.4499 I-16.4016 J1.0524
G3 X42.3285 Y151.7577 I-8.2176 J-14.2334
G1 Y169.5141
G1 F300.0 X41.1285
G1 F2500.0 Y226.0594
G3 X42.9213 Y226.9431 I-5.8248 J14.0778
G3 X49.4231 Y234.414 I-7.6176 J13.1941
G1 X92.5409
G1 X93.0378
G1 X104.1151
G3 X125.8522 Y226.9431 I14.1194 J5.7232
G3 X132.354 Y234.414 I-7.6176 J13.1941
G1 X140.9025
G1 X141.3994
G1 X154.9151
G3 X163.2351 Y226.0489 I14.1194 J5.7232
G1 Y157.8906
G3 X163.0438 Y155.6061 I13.5464 J-2.2845
G3 X176.7815 Y141.8684 I13.7377 J0.0
G3 X181.4008 Y142.6683 I0.0 J13.7377
G1 X200.62 Y133.7064
G1 X194.5879 Y120.7703
G3 X190.165 Y124.6297 I-12.0406 J-9.3347
G3 X167.312 Y111.4356 I-7.6176 J-13.1941
G3 X167.5225 Y108.912 I15.2353 J0.0
G1 X146.2311 Y118.8385
G3 X138.6284 Y132.7069 I-15.2204 J0.6742
G3 X120.7093 Y130.7374 I-7.6176 J-13.1941
G1 X113.8733 Y133.9245
G3 X109.183 Y134.9641 I-4.6904 J-10.0603
G1 X49.7366
G3 X42.2863 Y150.4107 I-15.0679 J2.2524
G3 X41.1285 Y151.0145 I-7.6176 J-13.1941
G1 Y169.5141
G1 F300.0 X39.9285
G1 F2500.0 Y226.8858
G3 X42.3213 Y227.9823 I-4.6248 J13.2514
G3 X48.5901 Y235.614 I-7.0176 J12.1549
G1 X92.5409
G1 X93.0378
G1 X104.544
G1 X104.9481
G3 X125.2522 Y227.9823 I13.2865 J4.5232
G3 X131.521 Y235.614 I-7.0176 J12.1549
G1 X140.9025
G1 X141.3994
G1 X155.7481
G3 X164.4351 Y226.8769 I13.2865 J4.5232
G1 Y157.7879
G3 X164.2438 Y155.6061 I12.3464 J-2.1817
G3 X176.7815 Y143.0684 I12.5377 J0.0
G3 X181.4494 Y143.9697 I0.0 J12.5377
G1 X202.2147 Y134.2868
G1 X194.7734 Y118.3285
G3 X189.565 Y123.5905 I-12.2261 J-6.8929
G3 X168.512 Y111.4356 I-7.0176 J-12.1549
G3 X169.3167 Y106.7515 I14.0353 J0.0
G1 X144.9748 Y118.1003
G3 X138.0284 Y131.6677 I-13.964 J1.4125
G3 X120.9515 Y129.3005 I-7.0176 J-12.1549
G1 X113.3663 Y132.8369
G3 X109.183 Y133.7641 I-4.1833 J-8.9727
G1 X48.2727
G3 X41.6863 Y149.3714 I-13.6041 J3.4524
G3 X39.9285 Y150.229 I-7.0176 J-12.1549
G1 Y169.5141
G1 F300.0 X38.7285
G1 F2500.0 Y227.7673
G3 X41.7213 Y229.0215 I-3.4248 J12.3699
G3 X47.7013 Y236.814 I-6.4176 J11.1157
G1 X92.5409
G1 X93.0378
G1 X104.544
G1 X105.0409
G1 X105.837
G3 X124.6522 Y229.0215 I12.3976 J3.3232
G3 X130.6322 Y236.814 I-6.4176 J11.1157
G1 X140.9025
G1 X141.3994
G1 X156.6369
G3 X165.6351 Y227.7603 I12.3976 J3.3232
G1 Y157.68
G3 X165.4438 Y155.6061 I11.1464 J-2.0739
G3 X176.7815 Y144.2684 I11.3377 J0.0
G3 X181.471 Y145.2837 I0.0 J11.3377
G1 X203.8094 Y134.8672
G1 X194.7455 Y115.4292
G3 X188.965 Y122.5512 I-12.1982 J-3.9936
G3 X169.712 Y111.4356 I-6.4176 J-11.1157
G3 X171.9441 Y104.2026 I12.8353 J0.0
G1 X143.6685 Y117.3853
G3 X137.4284 Y130.6284 I-12.6577 J2.1275
G3 X121.2436 Y127.8403 I-6.4176 J-11.1157
G1 X112.8592 Y131.7493
G3 X109.183 Y132.5641 I-3.6762 J-7.8851
G1 X46.6311
G3 X41.0863 Y148.3322 I-11.9624 J4.6524
G3 X38.7285 Y149.3928 I-6.4176 J-11.1157
G1 Y169.5141
G1 F300.0 X37.5285
G1 F2500.0 Y228.7166
G3 X41.1213 Y230.0608 I-2.2248 J11.4206
G3 X46.7436 Y238.014 I-5.8176 J10.0765
G1 X92.5409
G1 X93.0378
G1 X104.544
G1 X105.0409
G1 X106.7947
G3 X124.0522 Y230.0608 I11.4399 J2.1232
G3 X129.6745 Y238.014 I-5.8176 J10.0765
G1 X140.9025
G1 X141.3994
G1 X157.5946
G3 X166.8351 Y228.7117 I11.4399 J2.1232
G1 Y157.5662
G3 X166.6438 Y155.6061 I9.9464 J-1.9601
G3 X176.7815 Y145.4684 I10.1377 J0.0
G3 X181.4604 Y146.6127 I0.0 J10.1377
G1 X205.4041 Y135.4477
G1 X194.1825 Y111.3823
G3 X188.365 Y121.512 I-11.6352 J0.0532
G3 X170.912 Y111.4356 I-5.8176 J-10.0765
G3 X188.365 Y101.3591 I11.6353 J0.0
G3 X190.0672 Y102.5568 I-5.8176 J10.0765
G1 X186.954 Y95.8806
G1 X142.3007 Y116.699
G3 X136.8284 Y129.5892 I-11.2899 J2.8138
G3 X121.5973 Y126.3514 I-5.8176 J-10.0765
G1 X112.3521 Y130.6617
G3 X109.183 Y131.3641 I-3.1692 J-6.7975
G1 X44.725
G3 X40.4863 Y147.293 I-10.0563 J5.8524
G3 X37.5285 Y148.4949 I-5.8176 J-10.0765
G1 Y169.5141
G0 Z3.0
G0 X176.202 Y113.9768
G0 Z1.0
G1 F300.0 Z-3.0
G3 F2500.0 X175.712 Y111.4356 I6.3453 J-2.5412
G3 X185.965 Y105.516 I6.8353 J0.0
G3 Y117.3551 I-3.4176 J5.9195
G3 X176.202 Y113.9768 I-3.4176 J-5.9195
G1 F300.0 X177.3137 Y113.5316
G3 F2500.0 X176.9096 Y111.4356 I5.2336 J-2.096
G3 X185.3662 Y106.5532 I5.6377 J0.0
G3 Y116.3179 I-2.8188 J4.8824
G3 X177.3137 Y113.5316 I-2.8188 J-4.8824
G0 Z3.0
G0 X175.088 Y114.4229
G0 Z1.0
G1 F300.0 Z-3.0
G2 F2500.0 X186.565 Y118.3943 I7.4593 J-2.9874
G2 Y104.4768 I-4.0176 J-6.9588
G2 X174.512 Y111.4356 I-4.0176 J6.9588
G2 X175.088 Y114.4229 I8.0353 J0.0
G1 F300.0 X173.974 Y114.8691
G2 F2500.0 X187.165 Y119.4335 I8.5733 J-3.4335
G2 Y103.4376 I-4.6176 J-7.998
G2 X173.312 Y111.4356 I-4.6176 J7.998
G2 X173.974 Y114.8691 I9.2353 J0.0
G1 F300.0 X172.86 Y115.3152
G2 F2500.0 X187.765 Y120.4728 I9.6873 J-3.8797
G2 Y102.3983 I-5.2176 J-9.0372
G2 X172.112 Y111.4356 I-5.2176 J9.0372
G2 X172.86 Y115.3152 I10.4353 J0.0
G0 Z3.0
G0 X167.4265 Y103.6608
G0 Z1.0
G1 F300.0 Z-3.0
G1 F2500.0 X140.8545 Y116.0492
G3 X136.2284 Y128.55 I-9.8437 J3.4635
G3 X122.0294 Y124.8259 I-5.2176 J-9.0372
G1 X111.8451 Y129.5741
G3 X109.183 Y130.1641 I-2.6621 J-5.7099
G1 X42.4559
G1 X42.4058 Y130.2142
G3 X39.8863 Y146.2538 I-7.7371 J7.0023
G3 X36.3285 Y147.519 I-5.2176 J-9.0372
G1 Y229.7524
G3 X40.5213 Y231.1 I-1.0248 J10.3848
G3 X45.698 Y239.214 I-5.2176 J9.0372
G1 X92.5409
G1 X93.0378
G1 X104.544
G1 X105.0409
G1 X107.8402
G3 X123.4522 Y231.1 I10.3944 J0.9232
G3 X128.629 Y239.214 I-5.2176 J9.0372
G1 X140.9025
G1 X141.3994
G1 X158.5697
G1 X158.6402
G3 X168.0351 Y229.7499 I10.3944 J0.9232
G1 Y157.4453
G3 X167.8438 Y155.6061 I8.7464 J-1.8392
G3 X176.7815 Y146.6684 I8.9377 J0.0
G3 X181.41 Y147.9602 I0.0 J8.9377
G1 X206.9988 Y136.0281
G1 X187.5345 Y94.2859
G1 X167.4265 Y103.6608
G1 F300.0 X166.9194 Y102.5732
G1 F2500.0 X139.3036 Y115.4483
G3 X135.6284 Y127.5107 I-8.2928 J4.0645
G3 X122.5662 Y123.2516 I-4.6176 J-7.998
G1 X111.338 Y128.4865
G3 X109.183 Y128.9641 I-2.155 J-4.6223
G1 X41.9589
G1 X40.7002 Y130.2228
G3 X39.2863 Y145.2145 I-6.0315 J6.9937
G3 X35.1285 Y146.4404 I-4.6176 J-7.998
G1 Y230.9036
G3 X39.9213 Y232.1392 I0.1752 J9.2336
G3 X44.5348 Y240.414 I-4.6176 J7.998
G1 X92.5409
G1 X93.0378
G1 X104.544
G1 X105.0409
G1 X109.0035
G3 X108.9993 Y240.1372 I9.2311 J-0.2768
G3 X122.8522 Y232.1392 I9.2353 J0.0
G3 X127.4657 Y240.414 I-4.6176 J7.998
G1 X140.9025
G1 X141.3994
G1 X158.5697
G1 X159.0667
G1 X159.8034
G3 X159.7993 Y240.1372 I9.2311 J-0.2768
G3 X169.2351 Y230.9041 I9.2353 J0.0
G1 Y157.316
G3 X169.0438 Y155.6061 I7.5464 J-1.7099
G3 X176.7815 Y147.8684 I7.7377 J0.0
G3 X181.3091 Y149.3313 I0.0 J7.7377
G1 X208.1581 Y136.8116
G1 X208.3906 Y136.1733
G1 X188.3177 Y93.126
G1 X187.6799 Y92.8941
G1 X166.9194 Y102.5732
G1 F300.0 X166.4123 Y101.4856
G1 F2500.0 X137.6023 Y114.9174
G3 X135.0284 Y126.4715 I-6.5916 J4.5953
G3 X123.2533 Y121.6073 I-4.0176 J-6.9588
G1 X110.8309 Y127.3989
G3 X109.183 Y127.7641 I-1.648 J-3.5347
G1 X41.4618
G1 X38.8631 Y130.3629
G3 X38.6863 Y144.1753 I-4.1944 J6.8537
G3 X33.9285 Y145.2176 I-4.0176 J-6.9588
G1 Y232.2205
G3 X39.3213 Y233.1785 I1.3752 J7.9167
G3 X43.2021 Y241.614 I-4.0176 J6.9588
G1 X92.5409
G1 X93.0378
G1 X104.544
G1 X105.0409
G1 X110.3362
G3 X110.1993 Y240.1372 I7.8984 J-1.4768
G3 X122.2522 Y233.1785 I8.0353 J0.0
G3 X126.133 Y241.614 I-4.0176 J6.9588
G1 X140.9025
G1 X141.3994
G1 X158.5697
G1 X159.0667
G1 X161.1361
G3 X160.9993 Y240.1372 I7.8984 J-1.4768
G3 X170.4351 Y232.2249 I8.0353 J0.0
G1 Y157.176
G3 X170.2438 Y155.6061 I6.3464 J-1.5699
G3 X176.7815 Y149.0684 I6.5377 J0.0
G3 X181.1408 Y150.7339 I0.0 J6.5377
G1 X209.1156 Y137.6892
G1 X209.6883 Y136.1168
G1 X189.1951 Y92.1682
G1 X187.6231 Y91.5966
G1 X166.4123 Y101.4856
G1 F300.0 X165.9053 Y100.3979
G1 F2500.0 X135.6577 Y114.5
G3 X134.4284 Y125.4323 I-4.6469 J5.0127
G3 X124.1838 Y119.8494 I-3.4176 J-5.9195
G1 X110.3239 Y126.3113
G3 X109.183 Y126.5641 I-1.1409 J-2.4471
G1 X40.9647
G1 X36.8052 Y130.7237
G3 X38.0863 Y131.297 I-2.1365 J6.4928
G3 Y143.1361 I-3.4176 J5.9195
G3 X32.7285 Y143.7707 I-3.4176 J-5.9195
G1 Y233.8056
G3 X38.7213 Y234.2177 I2.5752 J6.3316
G3 X41.593 Y242.814 I-3.4176 J5.9195
G1 X92.5409
G1 X93.0378
G1 X104.544
G1 X105.0409
G1 X111.9452
G3 X111.3993 Y240.1372 I6.2893 J-2.6768
G3 X121.6522 Y234.2177 I6.8353 J0.0
G3 X124.5239 Y242.814 I-3.4176 J5.9195
G1 X140.9025
G1 X141.3994
G1 X158.5697
G1 X159.0667
G1 X162.7452
G3 X162.1993 Y240.1372 I6.2893 J-2.6768
G3 X171.6351 Y233.816 I6.8353 J0.0
G1 Y157.0223
G3 X171.4438 Y155.6061 I5.1464 J-1.4161
G3 X176.7815 Y150.2684 I5.3377 J0.0
G3 X180.8758 Y152.1815 I0.0 J5.3377
G1 X210.073 Y138.5667
G1 X210.986 Y136.0603
G1 X190.0725 Y91.2104
G1 X187.5663 Y90.2991
G1 X165.9053 Y100.3979
G1 F300.0 X165.3982 Y99.3103
G1 F2500.0 X133.2049 Y114.3196
G3 X133.8296 Y114.6304 I-2.1942 J5.1932
G3 Y124.3951 I-2.8188 J4.8824
G3 X125.3731 Y119.5127 I-2.8188 J-4.8824
G3 X125.6224 Y117.8547 I5.6377 J0.0
G1 X109.8168 Y125.2236
G3 X109.183 Y125.3641 I-0.6338 J-1.3595
G1 X40.4677
G1 X34.2364 Y131.5954
G3 X37.4875 Y132.3342 I0.4323 J5.6211
G3 Y142.0989 I-2.8188 J4.8824
G3 X31.5285 Y141.8987 I-2.8188 J-4.8824
G1 Y235.9502
G3 X38.1225 Y235.2548 I3.7752 J4.187
G3 X39.3968 Y244.014 I-2.8188 J4.8824
G1 X92.5409
G1 X93.0378
G1 X104.544
G1 X105.0409
G1 X114.1414
G3 X112.5969 Y240.1372 I4.0932 J-3.8768
G3 X121.0534 Y235.2548 I5.6377 J0.0
G3 X122.3277 Y244.014 I-2.8188 J4.8824
G1 X140.9025
G1 X141.3994
G1 X158.5697
G1 X159.0667
G1 X164.9414
G3 X163.3969 Y240.1372 I4.0932 J-3.8768
G3 X171.8534 Y235.2548 I5.6377 J0.0
G3 X172.8351 Y235.9732 I-2.8188 J4.8824
G1 Y156.8496
G3 X172.6438 Y155.6061 I3.9464 J-1.2435
G3 X176.7815 Y151.4684 I4.1377 J0.0
G3 X180.4549 Y153.7018 I0.0 J4.1377
G1 X211.0305 Y139.4443
G1 X212.2837 Y136.0038
G1 X190.95 Y90.2526
G1 X187.5095 Y89.0015
G1 X165.3982 Y99.3103
G0 Z3.0
G0 X183.8239 Y98.6639
G0 Z-2.0
G1 F300.0 Z-6.0
G3 F2500.0 X187.329 Y99.5242 I-1.2766 J12.7716
G1 X186.3736 Y97.4752
G1 X183.8239 Y98.6639
G0 Z3.0
G0 X159.3256 Y131.7227
G0 Z-2.0
G1 F300.0 Z-6.0
G3 F2500.0 X159.1259 Y132.1758 I-28.3149 J-12.21
G3 X159.4881 Y131.9072 I17.6556 J23.4303
G3 X159.3256 Y131.7227 I23.0592 J-20.4716
G0 Z3.0
G0 X135.0351 Y162.7612
G0 Z-2.0
G1 F300.0 Z-6.0
G3 F2500.0 X134.3399 Y162.8203 I-4.0244 J-43.2485
G3 X135.0351 Y163.9836 I-36.9333 J22.8594
G1 Y162.7612
G1 F300.0 X135.6351
G1 F2500.0 Y162.0977
G3 X133.2906 Y162.2873 I-4.6244 J-42.5849
G3 X135.6351 Y166.355 I-35.884 J23.3924
G1 Y162.7612
G1 F300.0 X136.8351
G1 F2500.0 Y160.7386
G3 X131.0473 Y161.148 I-5.8244 J-41.2259
G3 X136.8351 Y172.3047 I-33.6407 J24.5317
G1 Y162.7612
G0 Z3.0
G0 Y199.0546
G0 Z-2.0
G1 F300.0 Z-6.0
G3 F2500.0 X135.5853 Y202.2895 I-39.4285 J-13.3749
G3 X136.8351 Y202.8878 I-17.3507 J37.8477
G1 Y199.0546
G1 F300.0 X135.6987 Y198.6691
G3 F2500.0 X133.9924 Y202.8987 I-38.2921 J-12.9895
G3 X138.0351 Y204.8817 I-15.7578 J37.2385
G1 Y159.461
G3 X138.0228 Y159.3354 I38.7464 J-3.8549
G3 X128.5351 Y159.8722 I-7.0121 J-39.8226
G3 X135.6987 Y198.6691 I-31.1285 J25.8075
G1 F300.0 X134.5623 Y198.2836
G3 F2500.0 X132.3472 Y203.5279 I-37.1557 J-12.604
G3 X137.8522 Y206.1585 I-14.1127 J36.6093
G3 X139.2351 Y206.9953 I-19.6176 J33.9788
G1 Y159.401
G3 X139.1138 Y157.9022 I37.5464 J-3.7948
G3 X125.5773 Y158.37 I-8.103 J-38.3894
G3 X134.5623 Y198.2836 I-28.1707 J27.3097
G1 F300.0 X133.4259 Y197.8982
G3 F2500.0 X130.6387 Y204.1814 I-36.0193 J-12.2185
G3 X137.2522 Y207.1977 I-12.4041 J35.9558
G3 X140.4351 Y209.2533 I-19.0176 J32.9395
G1 Y159.34
G3 X140.2526 Y156.4082 I36.3464 J-3.7339
G3 X121.6608 Y156.3809 I-9.2419 J-36.8954
G3 X133.4259 Y197.8982 I-24.2542 J29.2988
G1 F300.0 X132.2895 Y197.5127
G3 F2500.0 X128.8512 Y204.865 I-34.8829 J-11.833
G3 X136.6522 Y208.2369 I-10.6166 J35.2722
G3 X141.6351 Y211.6898 I-18.4176 J31.9003
G1 Y159.278
G3 X141.4438 Y155.6061 I35.1464 J-3.6719
G3 X141.4522 Y154.8372 I35.3377 J0.0
G3 X120.0894 Y154.6917 I-10.4414 J-35.3244
G3 X118.2225 Y155.2899 I-10.9064 J-30.8276
G3 X132.2895 Y197.5127 I-20.8158 J30.3898
G1 F300.0 X131.1531 Y197.1272
G3 F2500.0 X126.9626 Y205.5873 I-33.7465 J-11.4475
G3 X136.0522 Y209.2762 I-8.728 J34.5499
G3 X142.472 Y214.014 I-17.8176 J30.8611
G1 X142.8351
G1 Y159.2149
G3 X142.6438 Y155.6061 I33.9464 J-3.6088
G3 X142.7312 Y153.1655 I34.1377 J0.0
G3 X120.0642 Y153.4251 I-11.7204 J-33.6527
G3 X115.1734 Y154.7893 I-10.8812 J-29.5609
G3 X115.2243 Y154.8186 I-17.7668 J30.8904
G3 X131.1531 Y197.1272 I-17.8176 J30.8611
G1 F300.0 X130.0167 Y196.7417
G3 F2500.0 X124.9397 Y206.361 I-32.6101 J-11.062
G3 X135.4522 Y210.3154 I-6.7051 J33.7762
G3 X141.9964 Y215.214 I-17.2176 J29.8218
G1 X144.0351
G1 Y159.1508
G3 X143.8438 Y155.6061 I32.7464 J-3.5446
G3 X144.1193 Y151.3554 I32.9377 J0.0
G3 X120.038 Y152.153 I-13.1085 J-31.8427
G3 X111.1388 Y154.101 I-10.855 J-28.2889
G3 X114.6243 Y155.8578 I-13.7322 J31.5787
G3 X130.0167 Y196.7417 I-17.2176 J29.8218
G1 F300.0 X128.8803 Y196.3562
G3 F2500.0 X122.7277 Y207.207 I-31.4737 J-10.6765
G3 X134.8522 Y211.3546 I-4.4931 J32.9302
G3 X141.5111 Y216.414 I-16.6176 J28.7826
G1 X145.2351
G1 Y159.0854
G3 X145.0438 Y155.6061 I31.5464 J-3.4793
G3 X145.6683 Y149.3413 I31.7377 J0.0
G3 X120.0105 Y150.8748 I-14.6575 J-29.8285
G3 X109.183 Y152.9641 I-10.8275 J-27.0106
G1 X103.2614
G3 X114.0243 Y156.8971 I-5.8547 J32.7155
G3 X128.8803 Y196.3562 I-16.6176 J28.7826
G0 Z3.0
G0 X66.9498 Y210.414
G0 Z-2.0
G1 F300.0 Z-6.0
G3 F2500.0 X65.1285 Y207.9851 I30.4569 J-24.7343
G1 Y210.414
G1 X66.9498
G1 F300.0 X67.8813 Y209.6575
G3 F2500.0 X63.9285 Y203.7323 I29.5253 J-23.9778
G1 Y211.614
G1 X69.5841
G3 X67.8813 Y209.6575 I27.8225 J-25.9343
G1 F300.0 X68.8128 Y208.901
G3 F2500.0 X62.7285 Y198.1001 I28.5938 J-23.2213
G1 Y212.814
G1 X72.4955
G3 X68.8128 Y208.901 I24.9112 J-27.1343
G0 Z3.0
G0 X65.1285 Y163.3743
G0 Z-2.0
G1 F300.0 Z-6.0
G3 F2500.0 X68.6718 Y158.9641 I32.2781 J22.3054
G1 X67.3252
G3 X65.1285 Y161.9472 I-32.6565 J-21.7476
G1 Y163.3743
G1 F300.0 X66.1157 Y164.0565
G3 F2500.0 X71.5724 Y157.7641 I31.2909 J21.6232
G1 X66.6762
G3 X63.9285 Y161.5177 I-32.0075 J-20.5476
G1 Y167.627
G3 X66.1157 Y164.0565 I33.4781 J18.0526
G1 F300.0 X67.1029 Y164.7387
G3 F2500.0 X74.8428 Y156.5641 I30.3037 J20.941
G1 X66.0137
G3 X62.7285 Y161.0804 I-31.345 J-19.3476
G1 Y173.2593
G3 X67.1029 Y164.7387 I34.6781 J12.4204
G1 F300.0 X68.0901 Y165.4209
G3 F2500.0 X78.6758 Y155.3641 I29.3165 J20.2588
G1 X65.3369
G3 X61.5285 Y160.635 I-30.6682 J-18.1476
G1 Y214.014
G1 X75.7955
G3 X61.7713 Y185.6797 I21.6111 J-28.3343
G3 X68.0901 Y165.4209 I35.6353 J0.0
G1 F300.0 X69.0774 Y166.1031
G3 F2500.0 X83.53 Y154.1641 I28.3293 J19.5766
G1 X64.6448
G3 X60.3285 Y160.1809 I-29.9761 J-16.9476
G1 Y215.214
G1 X79.7003
G3 X62.9713 Y185.6797 I17.7063 J-29.5343
G3 X69.0774 Y166.1031 I34.4353 J0.0
G1 F300.0 X70.0646 Y166.7853
G3 F2500.0 X91.5519 Y152.9641 I27.342 J18.8944
G1 X63.9364
G3 X59.1285 Y159.7177 I-29.2677 J-15.7476
G1 Y216.414
G1 X84.7581
G3 X64.1713 Y185.6797 I12.6485 J-30.7343
G3 X70.0646 Y166.7853 I33.2353 J0.0
G1 F300.0 X71.0518 Y167.4675
G3 F2500.0 X113.4243 Y157.9363 I26.3548 J18.2122
G3 X120.2259 Y208.1639 I-16.0176 J27.7434
G3 X134.2522 Y212.3938 I-1.9913 J31.9733
G3 X141.0154 Y217.614 I-16.0176 J27.7434
G1 X141.3994
G1 X146.2537
G3 X146.4351 Y217.432 I22.7808 J22.5232
G1 Y159.0188
G3 X146.2438 Y155.6061 I30.3464 J-3.4127
G3 X147.4854 Y146.9872 I30.5377 J0.0
G3 X147.0284 Y147.2561 I-16.4746 J-27.4745
G3 X119.9816 Y149.5896 I-16.0176 J-27.7434
G3 X109.183 Y151.7641 I-10.7986 J-25.7255
G1 X63.2103
G3 X57.9285 Y159.2447 I-28.5417 J-14.5476
G1 Y217.4573
G3 X58.0845 Y217.614 I-22.6248 J22.6799
G1 X92.5409
G1 X93.0378
G1 X94.8654
G3 X65.3713 Y185.6797 I2.5412 J-31.9343
G3 X71.0518 Y167.4675 I32.0353 J0.0
G1 F300.0 X72.039 Y168.1497
G3 F2500.0 X112.8243 Y158.9755 I25.3676 J17.53
G3 X117.2054 Y209.3191 I-15.4176 J26.7041
G3 X133.6522 Y213.4331 I1.0292 J30.8181
G3 X140.5087 Y218.814 I-15.4176 J26.7041
G1 X140.9025
G1 X141.3994
G1 X146.7604
G3 X147.6351 Y217.9363 I22.2741 J21.3232
G1 Y158.9508
G3 X147.4438 Y155.6061 I29.1464 J-3.3447
G3 X149.8803 Y143.9003 I29.3377 J0.0
G3 X146.4284 Y146.2169 I-18.8695 J-24.3876
G3 X119.9512 Y148.2964 I-15.4176 J-26.7041
G3 X109.183 Y150.5641 I-10.7682 J-24.4323
G1 X62.4654
G3 X56.7285 Y158.7614 I-27.7967 J-13.3476
G1 Y217.9608
G3 X57.5778 Y218.814 I-21.4248 J22.1764
G1 X92.5409
G1 X93.0378
G1 X95.9605
G3 X98.4358 Y216.4978 I22.2741 J21.3232
G3 X66.5713 Y185.6797 I-1.0292 J-30.8181
G3 X72.039 Y168.1497 I30.8353 J0.0
G1 F300.0 X73.0262 Y168.8319
G3 F2500.0 X112.2243 Y160.0148 I24.3804 J16.8478
G3 X112.7975 Y211.005 I-14.8176 J25.6649
G3 X133.0522 Y214.4723 I5.4371 J29.1323
G3 X139.9902 Y220.014 I-14.8176 J25.6649
G1 X140.9025
G1 X141.3994
G1 X147.2789
G3 X148.8351 Y218.4523 I21.7556 J20.1232
G1 Y158.8815
G3 X148.6438 Y155.6061 I27.9464 J-3.2754
G3 X161.3092 Y132.1042 I28.1377 J0.0
G3 X158.9575 Y129.3735 I21.2381 J-20.6687
G3 X145.8284 Y145.1777 I-27.9467 J-9.8607
G3 X119.9189 Y146.994 I-14.8176 J-25.6649
G3 X109.183 Y149.3641 I-10.7359 J-23.1299
G1 X61.6999
G3 X55.5285 Y158.2669 I-27.0312 J-12.1476
G1 Y218.476
G3 X57.0593 Y220.014 I-20.2248 J21.6612
G1 X92.5409
G1 X93.0378
G1 X96.479
G3 X102.8437 Y214.8119 I21.7556 J20.1232
G3 X67.7713 Y185.6797 I-5.4371 J-29.1323
G3 X73.0262 Y168.8319 I29.6353 J0.0
G0 Z3.0
G0 X91.7834 Y181.7938
G0 Z-2.0
G1 F300.0 Z-6.0
G3 F2500.0 X100.8243 Y179.7601 I5.6233 J3.8859
G3 Y191.5992 I-3.4176 J5.9195
G3 X90.5713 Y185.6797 I-3.4176 J-5.9195
G3 X91.7834 Y181.7938 I6.8353 J0.0
G1 F300.0 X92.7686 Y182.4746
G3 F2500.0 X100.2255 Y180.7973 I4.638 J3.205
G3 Y190.5621 I-2.8188 J4.8824
G3 X91.7689 Y185.6797 I-2.8188 J-4.8824
G3 X92.7686 Y182.4746 I5.6377 J0.0
G0 Z3.0
G0 X90.7961 Y181.1116
G0 Z-2.0
G1 F300.0 Z-6.0
G2 F2500.0 X89.3713 Y185.6797 I6.6105 J4.5681
G2 X101.4243 Y192.6384 I8.0353 J0.0
G2 Y178.7209 I-4.0176 J-6.9588
G2 X90.7961 Y181.1116 I-4.0176 J6.9588
G1 F300.0 X89.8089 Y180.4294
G2 F2500.0 X88.1713 Y185.6797 I7.5977 J5.2503
G2 X102.0243 Y193.6777 I9.2353 J0.0
G2 Y177.6817 I-4.6176 J-7.998
G2 X89.8089 Y180.4294 I-4.6176 J7.998
G1 F300.0 X88.8217 Y179.7472
G2 F2500.0 X86.9713 Y185.6797 I8.5849 J5.9325
G2 X102.6243 Y194.7169 I10.4353 J0.0
G2 Y176.6425 I-5.2176 J-9.0372
G2 X88.8217 Y179.7472 I-5.2176 J9.0372
G1 F300.0 X87.8345 Y179.065
G2 F2500.0 X85.7713 Y185.6797 I9.5721 J6.6147
G2 X103.2243 Y195.7561 I11.6353 J0.0
G2 Y175.6032 I-5.8176 J-10.0765
G2 X87.8345 Y179.065 I-5.8176 J10.0765
G1 F300.0 X86.8473 Y178.3828
G2 F2500.0 X84.5713 Y185.6797 I10.5593 J7.2969
G2 X103.8243 Y196.7954 I12.8353 J0.0
G2 Y174.564 I-6.4176 J-11.1157
G2 X86.8473 Y178.3828 I-6.4176 J11.1157
G1 F300.0 X85.8601 Y177.7006
G2 F2500.0 X83.3713 Y185.6797 I11.5466 J7.9791
G2 X104.4243 Y197.8346 I14.0353 J0.0
G2 Y173.5248 I-7.0176 J-12.1549
G2 X85.8601 Y177.7006 I-7.0176 J12.1549
G1 F300.0 X84.8728 Y177.0184
G2 F2500.0 X82.1713 Y185.6797 I12.5338 J8.6613
G2 X105.0243 Y198.8738 I15.2353 J0.0
G2 Y172.4855 I-7.6176 J-13.1941
G2 X84.8728 Y177.0184 I-7.6176 J13.1941
G1 F300.0 X83.8856 Y176.3362
G2 F2500.0 X80.9713 Y185.6797 I13.521 J9.3435
G2 X105.6243 Y199.913 I16.4353 J0.0
G2 Y171.4463 I-8.2176 J-14.2334
G2 X83.8856 Y176.3362 I-8.2176 J14.2334
G1 F300.0 X82.8984 Y175.654
G2 F2500.0 X79.7713 Y185.6797 I14.5082 J10.0257
G2 X106.2243 Y200.9523 I17.6353 J0.0
G2 Y170.4071 I-8.8176 J-15.2726
G2 X82.8984 Y175.654 I-8.8176 J15.2726
G1 F300.0 X81.9112 Y174.9718
G2 F2500.0 X78.5713 Y185.6797 I15.4954 J10.7079
G2 X106.8243 Y201.9915 I18.8353 J0.0
G2 Y169.3678 I-9.4176 J-16.3118
G2 X81.9112 Y174.9718 I-9.4176 J16.3118
G1 F300.0 X80.924 Y174.2896
G2 F2500.0 X77.3713 Y185.6797 I16.4826 J11.3901
G2 X107.4243 Y203.0307 I20.0353 J0.0
G2 Y168.3286 I-10.0176 J-17.3511
G2 X80.924 Y174.2896 I-10.0176 J17.3511
G1 F300.0 X79.9367 Y173.6073
G2 F2500.0 X76.1713 Y185.6797 I17.4699 J12.0723
G2 X108.0243 Y204.07 I21.2353 J0.0
G2 Y167.2894 I-10.6176 J-18.3903
G2 X79.9367 Y173.6073 I-10.6176 J18.3903
G1 F300.0 X78.9495 Y172.9251
G2 F2500.0 X74.9713 Y185.6797 I18.4571 J12.7545
G2 X108.6243 Y205.1092 I22.4353 J0.0
G2 Y166.2501 I-11.2176 J-19.4295
G2 X78.9495 Y172.9251 I-11.2176 J19.4295
G1 F300.0 X77.9623 Y172.2429
G2 F2500.0 X73.7713 Y185.6797 I19.4443 J13.4367
G2 X109.2243 Y206.1484 I23.6353 J0.0
G2 Y165.2109 I-11.8176 J-20.4688
G2 X77.9623 Y172.2429 I-11.8176 J20.4688
G1 F300.0 X76.9751 Y171.5607
G2 F2500.0 X72.5713 Y185.6797 I20.4315 J14.1189
G2 X109.8243 Y207.1877 I24.8353 J0.0
G2 Y164.1717 I-12.4176 J-21.508
G2 X76.9751 Y171.5607 I-12.4176 J21.508
G1 F300.0 X75.9879 Y170.8785
G2 F2500.0 X71.3713 Y185.6797 I21.4187 J14.8011
G2 X110.4243 Y208.2269 I26.0353 J0.0
G2 Y163.1325 I-13.0176 J-22.5472
G2 X75.9879 Y170.8785 I-13.0176 J22.5472
G1 F300.0 X75.0007 Y170.1963
G2 F2500.0 X70.1713 Y185.6797 I22.406 J15.4833
G2 X111.0243 Y209.2661 I27.2353 J0.0
G2 Y162.0932 I-13.6176 J-23.5864
G2 X75.0007 Y170.1963 I-13.6176 J23.5864
G1 F300.0 X74.0134 Y169.5141
G2 F2500.0 X68.9713 Y185.6797 I23.3932 J16.1655
G2 X111.6243 Y210.3054 I28.4353 J0.0
G2 Y161.054 I-14.2176 J-24.6257
G2 X74.0134 Y169.5141 I-14.2176 J24.6257
G0 Z3.0
G0 X54.3285
G0 Z-2.0
G1 F300.0 Z-6.0
G1 F2500.0 Y219.0038
G3 X56.5281 Y221.214 I-19.0248 J21.1334
G1 X92.5409
G1 X93.0378
G1 X97.0101
G3 X132.4522 Y215.5115 I21.2245 J18.9232
G3 X139.459 Y221.214 I-14.2176 J24.6257
G1 X140.9025
G1 X141.3994
G1 X147.8101
G3 X150.0351 Y218.9809 I21.2245 J18.9232
G1 Y158.8106
G3 X149.8438 Y155.6061 I26.7464 J-3.2045
G3 X163.2455 Y132.3163 I26.9377 J0.0
G3 X159.038 Y127.4318 I19.3018 J-20.8807
G1 X158.2056 Y127.8199
G3 X145.2284 Y144.1384 I-27.1948 J-8.3072
G3 X119.8903 Y145.6834 I-14.2176 J-24.6257
G1 X119.4511 Y145.8881
G3 X109.183 Y148.1641 I-10.2681 J-22.024
G1 X60.9121
G3 X54.3285 Y157.7606 I-26.2434 J-10.9476
G1 Y169.5141
G1 F300.0 X53.1285
G1 F2500.0 Y219.5451
G3 X55.9834 Y222.414 I-17.8248 J20.5922
G1 X92.5409
G1 X93.0378
G1 X97.5549
G3 X131.8522 Y216.5508 I20.6797 J17.7232
G3 X138.9143 Y222.414 I-13.6176 J23.5864
G1 X140.9025
G1 X141.3994
G1 X148.3549
G3 X151.2351 Y219.5231 I20.6797 J17.7232
G1 Y158.7382
G3 X151.0438 Y155.6061 I25.5464 J-3.1321
G3 X165.3438 Y132.5495 I25.7377 J0.0
G3 X159.4735 Y125.9048 I17.2035 J-21.114
G1 X157.2078 Y126.9611
G3 X144.6284 Y143.0992 I-26.197 J-7.4483
G3 X119.874 Y144.367 I-13.6176 J-23.5864
G1 X118.944 Y144.8005
G3 X109.183 Y146.9641 I-9.761 J-20.9364
G1 X60.0999
G3 X53.1285 Y157.2414 I-25.4312 J-9.7476
G1 Y169.5141
G1 F300.0 X51.9285
G1 F2500.0 Y220.101
G3 X55.4238 Y223.614 I-16.6248 J20.0363
G1 X92.5409
G1 X93.0378
G1 X98.1145
G3 X131.2522 Y217.59 I20.1201 J16.5232
G3 X138.3547 Y223.614 I-13.0176 J22.5472
G1 X140.9025
G1 X141.3994
G1 X148.9144
G3 X152.4351 Y220.0799 I20.1201 J16.5232
G1 Y158.664
G3 X152.2438 Y155.6061 I24.3464 J-3.0579
G3 X167.6895 Y132.815 I24.5377 J0.0
G3 X159.9466 Y124.3602 I14.8578 J-21.3795
G1 X156.1967 Y126.1085
G3 X144.0284 Y142.06 I-25.186 J-6.5957
G3 X119.8709 Y143.0444 I-13.0176 J-22.5472
G1 X118.4369 Y143.7129
G3 X109.183 Y145.7641 I-9.254 J-19.8488
G1 X59.2608
G3 X51.9285 Y156.7085 I-24.5922 J-8.5476
G1 Y169.5141
G1 F300.0 X50.7285
G1 F2500.0 Y220.6727
G3 X54.8483 Y224.814 I-15.4248 J19.4645
G1 X92.5409
G1 X93.0378
G1 X98.69
G3 X130.6522 Y218.6292 I19.5446 J15.3232
G3 X137.7792 Y224.814 I-12.4176 J21.508
G1 X140.9025
G1 X141.3994
G1 X149.49
G3 X153.6351 Y220.6526 I19.5446 J15.3232
G1 Y158.588
G3 X153.4438 Y155.6061 I23.1464 J-2.9819
G3 X170.4719 Y133.1375 I23.3377 J0.0
G3 X160.4625 Y122.7957 I12.0754 J-21.702
G1 X155.1713 Y125.2625
G3 X143.4284 Y141.0207 I-24.1605 J-5.7498
G3 X119.8822 Y141.7151 I-12.4176 J-21.508
G1 X117.9299 Y142.6253
G3 X109.183 Y144.5641 I-8.7469 J-18.7612
G1 X58.3922
G3 X50.7285 Y156.1605 I-23.7235 J-7.3476
G1 Y169.5141
G1 F300.0 X49.5285
G1 F2500.0 Y221.2618
G3 X54.2552 Y226.014 I-14.2248 J18.8754
G1 X92.5409
G1 X93.0378
G1 X99.283
G3 X130.0522 Y219.6685 I18.9516 J14.1232
G3 X137.1862 Y226.014 I-11.8176 J20.4688
G1 X140.9025
G1 X141.3994
G1 X150.083
G3 X154.8351 Y221.2427 I18.9516 J14.1232
G1 Y158.51
G3 X154.6438 Y155.6061 I21.9464 J-2.9039
G3 X174.347 Y133.6027 I22.1377 J0.0
G3 X161.0271 Y121.2084 I8.2003 J-22.1671
G1 X154.1302 Y124.4239
G3 X142.8284 Y139.9815 I-23.1194 J-4.9112
G3 X119.9092 Y140.3785 I-11.8176 J-20.4688
G1 X117.4228 Y141.5377
G3 X109.183 Y143.3641 I-8.2398 J-17.6736
G1 X57.4905
G3 X49.5285 Y155.5962 I-22.8218 J-6.1476
G1 Y169.5141
G1 F300.0 X48.3285
G1 F2500.0 Y221.8699
G3 X53.6431 Y227.214 I-13.0248 J18.2674
G1 X92.5409
G1 X93.0378
G1 X99.8952
G3 X129.4522 Y220.7077 I18.3394 J12.9232
G3 X136.574 Y227.214 I-11.2176 J19.4295
G1 X140.9025
G1 X141.3994
G1 X150.6952
G3 X156.0351 Y221.8518 I18.3394 J12.9232
G1 Y158.4299
G3 X155.8438 Y155.6061 I20.7464 J-2.8238
G3 X176.7815 Y134.6684 I20.9377 J0.0
G3 X180.7189 Y135.042 I0.0 J20.9377
G1 X183.2544 Y133.8597
G3 X161.6483 Y119.5948 I-0.7071 J-22.4241
G1 X153.0718 Y123.5933
G3 X142.2284 Y138.9423 I-22.0611 J-4.0806
G3 X119.9534 Y139.0339 I-11.2176 J-19.4295
G1 X116.9157 Y140.4501
G3 X109.183 Y142.1641 I-7.7328 J-16.586
G1 X56.5516
G3 X48.3285 Y155.014 I-21.8829 J-4.9476
G1 Y169.5141
G1 F300.0 X47.1285
G1 F2500.0 Y222.4989
G3 X53.0097 Y228.414 I-11.8248 J17.6383
G1 X92.5409
G1 X93.0378
G1 X100.5286
G3 X128.8522 Y221.7469 I17.706 J11.7232
G3 X135.9406 Y228.414 I-10.6176 J18.3903
G1 X140.9025
G1 X141.3994
G1 X151.3285
G3 X157.2351 Y222.4819 I17.706 J11.7232
G1 Y158.3474
G3 X157.0438 Y155.6061 I19.5464 J-2.7413
G3 X176.7815 Y135.8684 I19.7377 J0.0
G3 X180.8686 Y136.2962 I0.0 J19.7377
G1 X192.6465 Y130.8042
G1 X192.3892 Y130.2524
G3 X162.336 Y117.9501 I-9.8419 J-18.8169
G1 X151.9945 Y122.7716
G3 X141.6284 Y137.903 I-20.9837 J-3.2588
G3 X120.0166 Y137.6804 I-10.6176 J-18.3903
G1 X116.4087 Y139.3625
G3 X109.183 Y140.9641 I-7.2257 J-15.4984
G1 X55.5707
G3 X47.1285 Y154.4122 I-20.902 J-3.7476
G1 Y169.5141
G1 F300.0 X45.9285
G1 F2500.0 Y223.1512
G3 X52.3529 Y229.614 I-10.6248 J16.9861
G1 X92.5409
G1 X93.0378
G1 X101.1854
G3 X128.2522 Y222.7862 I17.0492 J10.5232
G3 X135.2838 Y229.614 I-10.0176 J17.3511
G1 X140.9025
G1 X141.3994
G1 X151.9853
G3 X158.4351 Y223.1353 I17.0492 J10.5232
G1 Y158.2623
G3 X158.2438 Y155.6061 I18.3464 J-2.6562
G3 X176.7815 Y137.0684 I18.5377 J0.0
G3 X181.006 Y137.5562 I0.0 J18.5377
G1 X194.2412 Y131.3846
G1 X192.9293 Y128.5711
G3 X192.565 Y128.7866 I-10.3819 J-17.1356
G3 X163.1036 Y116.2683 I-10.0176 J-17.3511
G1 X150.8961 Y121.9597
G3 X141.0284 Y136.8638 I-19.8853 J-2.4469
G3 X120.1009 Y136.3171 I-10.0176 J-17.3511
G1 X115.9016 Y138.2749
G3 X109.183 Y139.7641 I-6.7186 J-14.4108
G1 X54.5413
G3 X45.9285 Y153.7885 I-19.8727 J-2.5476
G1 Y169.5141
G1 F300.0 X44.7285
G1 F2500.0 Y223.8295
G3 X51.6697 Y230.814 I-9.4248 J16.3077
G1 X92.5409
G1 X93.0378
G1 X101.8686
G3 X127.6522 Y223.8254 I16.366 J9.3232
G3 X134.6006 Y230.814 I-9.4176 J16.3118
G1 X140.9025
G1 X141.3994
G1 X152.6685
G3 X159.6351 Y223.8149 I16.366 J9.3232
G1 Y158.1744
G3 X159.4438 Y155.6061 I17.1464 J-2.5683
G3 X176.7815 Y138.2684 I17.3377 J0.0
G3 X181.1298 Y138.8226 I0.0 J17.3377
G1 X195.8359 Y131.965
G1 X193.4311 Y126.8079
G3 X191.965 Y127.7474 I-10.8838 J-15.3724
G3 X163.9697 Y114.5405 I-9.4176 J-16.3118
G1 X149.774 Y121.1588
G3 X140.4284 Y135.8246 I-18.7632 J-1.6461
G3 X120.2088 Y134.9428 I-9.4176 J-16.3118
G1 X115.3945 Y137.1873
G3 X109.183 Y138.5641 I-6.2116 J-13.3232
G1 X53.4557
G3 X44.7285 Y153.1404 I-18.787 J-1.3476
G1 Y169.5141
G1 F300.0 X43.5285
G1 F2500.0 Y224.5373
G3 X44.1213 Y224.8646 I-8.2248 J15.5999
G3 X50.9567 Y232.014 I-8.8176 J15.2726
G1 X92.5409
G1 X93.0378
G1 X102.5816
G3 X127.0522 Y224.8646 I15.653 J8.1232
G3 X133.8876 Y232.014 I-8.8176 J15.2726
G1 X140.9025
G1 X141.3994
G1 X153.3815
G3 X160.8351 Y224.524 I15.653 J8.1232
G1 Y158.0835
G3 X160.6438 Y155.6061 I15.9464 J-2.4774
G3 X176.7815 Y139.4684 I16.1377 J0.0
G3 X181.2382 Y140.096 I0.0 J16.1377
G1 X197.4306 Y132.5455
G1 X193.8855 Y124.9429
G3 X191.365 Y126.7082 I-11.3382 J-13.5073
G3 X164.9614 Y112.7541 I-8.8176 J-15.2726
G1 X148.6252 Y120.3704
G3 X139.8284 Y134.7854 I-17.6144 J-0.8577
G3 X120.3435 Y133.556 I-8.8176 J-15.2726
G1 X114.8875 Y136.0997
G3 X109.183 Y137.3641 I-5.7045 J-12.2356
G1 X52.3033
G3 X43.5285 Y152.4647 I-17.6347 J-0.1476
G1 Y169.5141
G1 F300.0 X42.3285
G1 F2500.0 Y225.2789
G3 X43.5213 Y225.9038 I-7.0248 J14.8584
G3 X50.2096 Y233.214 I-8.2176 J14.2334
G1 X92.5409
G1 X93.0378
G1 X103.3286
G3 X126.4522 Y225.9038 I14.906 J6.9232
G3 X133.1406 Y233.214 I-8.2176 J14.2334
G1 X140.9025
G1 X141.3994
G1 X154.1286
G3 X162.0351 Y225.2669 I14.906 J6.9232
G1 Y157.989
G3 X161.8438 Y155.6061 I14.7464 J-2.3829
G3 X176.7815 Y140.6684 I14.9377 J0.0
G3 X181.3294 Y141.3776 I0.0 J14.9377
G1 X199.0253 Y133.1259
G1 X194.2786 Y122.9463
G3 X190.765 Y125.6689 I-11.7312 J-11.5107
G3 X166.112 Y111.4356 I-8.2176 J-14.2334
G3 X166.1211 Y110.8894 I16.4353 J0.0
G1 X147.4458 Y119.5962
G3 X139.2284 Y133.7461 I-16.4351 J-0.0835
G3 X120.5087 Y132.1549 I-8.2176 J-14.2334
G1 X114.3804 Y135.0121
G3 X109.183 Y136.1641 I-5.1974 J-11.1479
G1 X51.0702
G3 X42.8863 Y151.4499 I-16.4016 J1.0524
G3 X42.3285 Y151.7577 I-8.2176 J-14.2334
G1 Y169.5141
G1 F300.0 X41.1285
G1 F2500.0 Y226.0594
G3 X42.9213 Y226.9431 I-5.8248 J14.0778
G3 X49.4231 Y234.414 I-7.6176 J13.1941
G1 X92.5409
G1 X93.0378
G1 X104.1151
G3 X125.8522 Y226.9431 I14.1194 J5.7232
G3 X132.354 Y234.414 I-7.6176 J13.1941
G1 X140.9025
G1 X141.3994
G1 X154.9151
G3 X163.2351 Y226.0489 I14.1194 J5.7232
G1 Y157.8906
G3 X163.0438 Y155.6061 I13.5464 J-2.2845
G3 X176.7815 Y141.8684 I13.7377 J0.0
G3 X181.4008 Y142.6683 I0.0 J13.7377
G1 X200.62 Y133.7064
G1 X194.5879 Y120.7703
G3 X190.165 Y124.6297 I-12.0406 J-9.3347
G3 X167.312 Y111.4356 I-7.6176 J-13.1941
G3 X167.5225 Y108.912 I15.2353 J0.0
G1 X146.2311 Y118.8385
G3 X138.6284 Y132.7069 I-15.2204 J0.6742
G3 X120.7093 Y130.7374 I-7.6176 J-13.1941
G1 X113.8733 Y133.9245
G3 X109.183 Y134.9641 I-4.6904 J-10.0603
G1 X49.7366
G3 X42.2863 Y150.4107 I-15.0679 J2.2524
G3 X41.1285 Y151.0145 I-7.6176 J-13.1941
G1 Y169.5141
G1 F300.0 X39.9285
G1 F2500.0 Y226.8858
G3 X42.3213 Y227.9823 I-4.6248 J13.2514
G3 X48.5901 Y235.614 I-7.0176 J12.1549
G1 X92.5409
G1 X93.0378
G1 X104.544
G1 X104.9481
G3 X125.2522 Y227.9823 I13.2865 J4.5232
G3 X131.521 Y235.614 I-7.0176 J12.1549
G1 X140.9025
G1 X141.3994
G1 X155.7481
G3 X164.4351 Y226.8769 I13.2865 J4.5232
G1 Y157.7879
G3 X164.2438 Y155.6061 I12.3464 J-2.1817
G3 X176.7815 Y143.0684 I12.5377 J0.0
G3 X181.4494 Y143.9697 I0.0 J12.5377
G1 X202.2147 Y134.2868
G1 X194.7734 Y118.3285
G3 X189.565 Y123.5905 I-12.2261 J-6.8929
G3 X168.512 Y111.4356 I-7.0176 J-12.1549
G3 X169.3167 Y106.7515 I14.0353 J0.0
G1 X144.9748 Y118.1003
G3 X138.0284 Y131.6677 I-13.964 J1.4125
G3 X120.9515 Y129.3005 I-7.0176 J-12.1549
G1 X113.3663 Y132.8369
G3 X109.183 Y133.7641 I-4.1833 J-8.9727
G1 X48.2727
G3 X41.6863 Y149.3714 I-13.6041 J3.4524
G3 X39.9285 Y150.229 I-7.0176 J-12.1549
G1 Y169.5141
G1 F300.0 X38.7285
G1 F2500.0 Y227.7673
G3 X41.7213 Y229.0215 I-3.4248 J12.3699
G3 X47.7013 Y236.814 I-6.4176 J11.1157
G1 X92.5409
G1 X93.0378
G1 X104.544
G1 X105.0409
G1 X105.837
G3 X124.6522 Y229.0215 I12.3976 J3.3232
G3 X130.6322 Y236.814 I-6.4176 J11.1157
G1 X140.9025
G1 X141.3994
G1 X156.6369
G3 X165.6351 Y227.7603 I12.3976 J3.3232
G1 Y157.68
G3 X165.4438 Y155.6061 I11.1464 J-2.0739
G3 X176.7815 Y144.2684 I11.3377 J0.0
G3 X181.471 Y145.2837 I0.0 J11.3377
G1 X203.8094 Y134.8672
G1 X194.7455 Y115.4292
G3 X188.965 Y122.5512 I-12.1982 J-3.9936
G3 X169.712 Y111.4356 I-6.4176 J-11.1157
G3 X171.9441 Y104.2026 I12.8353 J0.0
G1 X143.6685 Y117.3853
G3 X137.4284 Y130.6284 I-12.6577 J2.1275
G3 X121.2436 Y127.8403 I-6.4176 J-11.1157
G1 X112.8592 Y131.7493
G3 X109.183 Y132.5641 I-3.6762 J-7.8851
G1 X46.6311
G3 X41.0863 Y148.3322 I-11.9624 J4.6524
G3 X38.7285 Y149.3928 I-6.4176 J-11.1157
G1 Y169.5141
G1 F300.0 X37.5285
G1 F2500.0 Y228.7166
G3 X41.1213 Y230.0608 I-2.2248 J11.4206
G3 X46.7436 Y238.014 I-5.8176 J10.0765
G1 X92.5409
G1 X93.0378
G1 X104.544
G1 X105.0409
G1 X106.7947
G3 X124.0522 Y230.0608 I11.4399 J2.1232
G3 X129.6745 Y238.014 I-5.8176 J10.0765
G1 X140.9025
G1 X141.3994
G1 X157.5946
G3 X166.8351 Y228.7117 I11.4399 J2.1232
G1 Y157.5662
G3 X166.6438 Y155.6061 I9.9464 J-1.9601
G3 X176.7815 Y145.4684 I10.1377 J0.0
G3 X181.4604 Y146.6127 I0.0 J10.1377
G1 X205.4041 Y135.4477
G1 X194.1825 Y111.3823
G3 X188.365 Y121.512 I-11.6352 J0.0532
G3 X170.912 Y111.4356 I-5.8176 J-10.0765
G3 X188.365 Y101.3591 I11.6353 J0.0
G3 X190.0672 Y102.5568 I-5.8176 J10.0765
G1 X186.954 Y95.8806
G1 X142.3007 Y116.699
G3 X136.8284 Y129.5892 I-11.2899 J2.8138
G3 X121.5973 Y126.3514 I-5.8176 J-10.0765
G1 X112.3521 Y130.6617
G3 X109.183 Y131.3641 I-3.1692 J-6.7975
G1 X44.725
G3 X40.4863 Y147.293 I-10.0563 J5.8524
G3 X37.5285 Y148.4949 I-5.8176 J-10.0765
G1 Y169.5141
G0 Z3.0
G0 X176.202 Y113.9768
G0 Z-2.0
G1 F300.0 Z-6.0
G3 F2500.0 X175.712 Y111.4356 I6.3453 J-2.5412
G3 X185.965 Y105.516 I6.8353 J0.0
G3 Y117.3551 I-3.4176 J5.9195
G3 X176.202 Y113.9768 I-3.4176 J-5.9195
G1 F300.0 X177.3137 Y113.5316
G3 F2500.0 X176.9096 Y111.4356 I5.2336 J-2.096
G3 X185.3662 Y106.5532 I5.6377 J0.0
G3 Y116.3179 I-2.8188 J4.8824
G3 X177.3137 Y113.5316 I-2.8188 J-4.8824
G0 Z3.0
G0 X175.088 Y114.4229
G0 Z-2.0
G1 F300.0 Z-6.0
G2 F2500.0 X186.565 Y118.3943 I7.4593 J-2.9874
G2 Y104.4768 I-4.0176 J-6.9588
G2 X174.512 Y111.4356 I-4.0176 J6.9588
G2 X175.088 Y114.4229 I8.0353 J0.0
G1 F300.0 X173.974 Y114.8691
G2 F2500.0 X187.165 Y119.4335 I8.5733 J-3.4335
G2 Y103.4376 I-4.6176 J-7.998
G2 X173.312 Y111.4356 I-4.6176 J7.998
G2 X173.974 Y114.8691 I9.2353 J0.0
G1 F300.0 X172.86 Y115.3152
G2 F2500.0 X187.765 Y120.4728 I9.6873 J-3.8797
G2 Y102.3983 I-5.2176 J-9.0372
G2 X172.112 Y111.4356 I-5.2176 J9.0372
G2 X172.86 Y115.3152 I10.4353 J0.0
G0 Z3.0
G0 X167.4265 Y103.6608
G0 Z-2.0
G1 F300.0 Z-6.0
G1 F2500.0 X140.8545 Y116.0492
G3 X136.2284 Y128.55 I-9.8437 J3.4635
G3 X122.0294 Y124.8259 I-5.2176 J-9.0372
G1 X111.8451 Y129.5741
G3 X109.183 Y130.1641 I-2.6621 J-5.7099
G1 X42.4559
G1 X42.4058 Y130.2142
G3 X39.8863 Y146.2538 I-7.7371 J7.0023
G3 X36.3285 Y147.519 I-5.2176 J-9.0372
G1 Y229.7524
G3 X40.5213 Y231.1 I-1.0248 J10.3848
G3 X45.698 Y239.214 I-5.2176 J9.0372
G1 X92.5409
G1 X93.0378
G1 X104.544
G1 X105.0409
G1 X107.8402
G3 X123.4522 Y231.1 I10.3944 J0.9232
G3 X128.629 Y239.214 I-5.2176 J9.0372
G1 X140.9025
G1 X141.3994
G1 X158.5697
G1 X158.6402
G3 X168.0351 Y229.7499 I10.3944 J0.9232
G1 Y157.4453
G3 X167.8438 Y155.6061 I8.7464 J-1.8392
G3 X176.7815 Y146.6684 I8.9377 J0.0
G3 X181.41 Y147.9602 I0.0 J8.9377
G1 X206.9988 Y136.0281
G1 X187.5345 Y94.2859
G1 X167.4265 Y103.6608
G1 F300.0 X166.9194 Y102.5732
G1 F2500.0 X139.3036 Y115.4483
G3 X135.6284 Y127.5107 I-8.2928 J4.0645
G3 X122.5662 Y123.2516 I-4.6176 J-7.998
G1 X111.338 Y128.4865
G3 X109.183 Y128.9641 I-2.155 J-4.6223
G1 X41.9589
G1 X40.7002 Y130.2228
G3 X39.2863 Y145.2145 I-6.0315 J6.9937
G3 X35.1285 Y146.4404 I-4.6176 J-7.998
G1 Y230.9036
G3 X39.9213 Y232.1392 I0.1752 J9.2336
G3 X44.5348 Y240.414 I-4.6176 J7.998
G1 X92.5409
G1 X93.0378
G1 X104.544
G1 X105.0409
G1 X109.0035
G3 X108.9993 Y240.1372 I9.2311 J-0.2768
G3 X122.8522 Y232.1392 I9.2353 J0.0
G3 X127.4657 Y240.414 I-4.6176 J7.998
G1 X140.9025
G1 X141.3994
G1 X158.5697
G1 X159.0667
G1 X159.8034
G3 X159.7993 Y240.1372 I9.2311 J-0.2768
G3 X169.2351 Y230.9041 I9.2353 J0.0
G1 Y157.316
G3 X169.0438 Y155.6061 I7.5464 J-1.7099
G3 X176.7815 Y147.8684 I7.7377 J0.0
G3 X181.3091 Y149.3313 I0.0 J7.7377
G1 X208.1581 Y136.8116
G1 X208.3906 Y136.1733
G1 X188.3177 Y93.126
G1 X187.6799 Y92.8941
G1 X166.9194 Y102.5732
G1 F300.0 X166.4123 Y101.4856
G1 F2500.0 X137.6023 Y114.9174
G3 X135.0284 Y126.4715 I-6.5916 J4.5953
G3 X123.2533 Y121.6073 I-4.0176 J-6.9588
G1 X110.8309 Y127.3989
G3 X109.183 Y127.7641 I-1.648 J-3.5347
G1 X41.4618
G1 X38.8631 Y130.3629
G3 X38.6863 Y144.1753 I-4.1944 J6.8537
G3 X33.9285 Y145.2176 I-4.0176 J-6.9588
G1 Y232.2205
G3 X39.3213 Y233.1785 I1.3752 J7.9167
G3 X43.2021 Y241.614 I-4.0176 J6.9588
G1 X92.5409
G1 X93.0378
G1 X104.544
G1 X105.0409
G1 X110.3362
G3 X110.1993 Y240.1372 I7.8984 J-1.4768
G3 X122.2522 Y233.1785 I8.0353 J0.0
G3 X126.133 Y241.614 I-4.0176 J6.9588
G1 X140.9025
G1 X141.3994
G1 X158.5697
G1 X159.0667
G1 X161.1361
G3 X160.9993 Y240.1372 I7.8984 J-1.4768
G3 X170.4351 Y232.2249 I8.0353 J0.0
G1 Y157.176
G3 X170.2438 Y155.6061 I6.3464 J-1.5699
G3 X176.7815 Y149.0684 I6.5377 J0.0
G3 X181.1408 Y150.7339 I0.0 J6.5377
G1 X209.1156 Y137.6892
G1 X209.6883 Y136.1168
G1 X189.1951 Y92.1682
G1 X187.6231 Y91.5966
G1 X166.4123 Y101.4856
G1 F300.0 X165.9053 Y100.3979
G1 F2500.0 X135.6577 Y114.5
G3 X134.4284 Y125.4323 I-4.6469 J5.0127
G3 X124.1838 Y119.8494 I-3.4176 J-5.9195
G1 X110.3239 Y126.3113
G3 X109.183 Y126.5641 I-1.1409 J-2.4471
G1 X40.9647
G1 X36.8052 Y130.7237
G3 X38.0863 Y131.297 I-2.1365 J6.4928
G3 Y143.1361 I-3.4176 J5.9195
G3 X32.7285 Y143.7707 I-3.4176 J-5.9195
G1 Y233.8056
G3 X38.7213 Y234.2177 I2.5752 J6.3316
G3 X41.593 Y242.814 I-3.4176 J5.9195
G1 X92.5409
G1 X93.0378
G1 X104.544
G1 X105.0409
G1 X111.9452
G3 X111.3993 Y240.1372 I6.2893 J-2.6768
G3 X121.6522 Y234.2177 I6.8353 J0.0
G3 X124.5239 Y242.814 I-3.4176 J5.9195
G1 X140.9025
G1 X141.3994
G1 X158.5697
G1 X159.0667
G1 X162.7452
G3 X162.1993 Y240.1372 I6.2893 J-2.6768
G3 X171.6351 Y233.816 I6.8353 J0.0
G1 Y157.0223
G3 X171.4438 Y155.6061 I5.1464 J-1.4161
G3 X176.7815 Y150.2684 I5.3377 J0.0
G3 X180.8758 Y152.1815 I0.0 J5.3377
G1 X210.073 Y138.5667
G1 X210.986 Y136.0603
G1 X190.0725 Y91.2104
G1 X187.5663 Y90.2991
G1 X165.9053 Y100.3979
G1 F300.0 X165.3982 Y99.3103
G1 F2500.0 X133.2049 Y114.3196
G3 X133.8296 Y114.6304 I-2.1942 J5.1932
G3 Y124.3951 I-2.8188 J4.8824
G3 X125.3731 Y119.5127 I-2.8188 J-4.8824
G3 X125.6224 Y117.8547 I5.6377 J0.0
G1 X109.8168 Y125.2236
G3 X109.183 Y125.3641 I-0.6338 J-1.3595
G1 X40.4677
G1 X34.2364 Y131.5954
G3 X37.4875 Y132.3342 I0.4323 J5.6211
G3 Y142.0989 I-2.8188 J4.8824
G3 X31.5285 Y141.8987 I-2.8188 J-4.8824
G1 Y235.9502
G3 X38.1225 Y235.2548 I3.7752 J4.187
G3 X39.3968 Y244.014 I-2.8188 J4.8824
G1 X92.5409
G1 X93.0378
G1 X104.544
G1 X105.0409
G1 X114.1414
G3 X112.5969 Y240.1372 I4.0932 J-3.8768
G3 X121.0534 Y235.2548 I5.6377 J0.0
G3 X122.3277 Y244.014 I-2.8188 J4.8824
G1 X140.9025
G1 X141.3994
G1 X158.5697
G1 X159.0667
G1 X164.9414
G3 X163.3969 Y240.1372 I4.0932 J-3.8768
G3 X171.8534 Y235.2548 I5.6377 J0.0
G3 X172.8351 Y235.9732 I-2.8188 J4.8824
G1 Y156.8496
G3 X172.6438 Y155.6061 I3.9464 J-1.2435
G3 X176.7815 Y151.4684 I4.1377 J0.0
G3 X180.4549 Y153.7018 I0.0 J4.1377
G1 X211.0305 Y139.4443
G1 X212.2837 Y136.0038
G1 X190.95 Y90.2526
G1 X187.5095 Y89.0015
G1 X165.3982 Y99.3103
( Internal Space Profile )
G0 Z3.0
( T1 : 1.0 )
T1 M6
M3 S1000
G0 X92.5409 Y245.014
G0 Z1.0
G1 F300.0 Z-4.0
G1 F2000.0 X93.0378
G1 X104.544
G1 X105.0409
G1 X140.9025
G1 X141.3994
G1 X158.5697
G1 X159.0667
G1 X170.6347
G1 X173.8351 Y241.839
G1 Y156.6849
G3 X173.6438 Y155.6061 I2.9464 J-1.0788
G3 X176.7815 Y152.4684 I3.1377 J0.0
G3 X179.8741 Y155.076 I0.0 J3.1377
G1 X211.8284 Y140.1756
G1 X213.3651 Y135.9567
G1 X191.6811 Y89.4544
G1 X187.4622 Y87.9203
G1 X109.3942 Y124.3173
G3 X109.183 Y124.3641 I-0.2113 J-0.4532
G1 X40.0535
G1 X30.5285 Y133.8891
G1 Y241.839
G1 X33.7035 Y245.014
G1 X92.5409
( Connector Cutouts )
G0 Z3.0
( T3 : 3.0 )
T3 M6
M3 S1000
G0 X157.7032 Y246.4324
G0 Z1.0
G1 F300.0 Z-4.0
G1 F1200.0 X142.3225
G0 Z3.0
G0 X103.6494
G0 Z1.0
G1 F300.0 Z-4.0
G1 F1200.0 X93.9043
( PCB Stands )
S1000
G0 Z3.0
G0 X187.0473 Y111.4356
G0 Z1.0
G1 F300.0 Z-4.0
G3 F2000.0 X180.2973 Y115.3327 I-4.5 J0.0
G3 Y107.5384 I2.25 J-3.8971
G3 X187.0473 Y111.4356 I2.25 J3.8971
G0 Z3.0
G0 X135.4647 Y118.8707
G0 Z1.0
G1 F300.0 Z-4.0
G3 F2000.0 X135.5108 Y119.5127 I-4.454 J0.642
G3 X128.7608 Y123.4099 I-4.5 J0.0
G3 Y115.6156 I2.25 J-3.8971
G3 X135.4647 Y118.8707 I2.25 J3.8971
G0 Z3.0
G0 X99.634 Y181.7696
G0 Z1.0
G1 F300.0 Z-4.0
G3 F2000.0 X101.9066 Y185.6797 I-2.2274 J3.9101
G3 X95.1566 Y189.5768 I-4.5 J0.0
G3 Y181.7826 I2.25 J-3.8971
G3 X99.634 Y181.7696 I2.25 J3.8971
G0 Z3.0
G0 X116.8682 Y235.8497
G0 Z1.0
G1 F300.0 Z-4.0
G3 F2000.0 X122.7346 Y240.1372 I1.3664 J4.2875
G3 X115.9846 Y244.0343 I-4.5 J0.0
G3 Y236.2401 I2.25 J-3.8971
G3 X116.8682 Y235.8497 I2.25 J3.8971
G0 Z3.0
G0 X164.5497 Y239.7686
G0 Z1.0
G1 F300.0 Z-4.0
G3 F2000.0 X166.7845 Y236.2401 I4.4849 J0.3686
G3 X173.5345 Y240.1372 I2.25 J3.8971
G3 X166.7845 Y244.0343 I-4.5 J0.0
G3 X164.5497 Y239.7686 I2.25 J-3.8971
G0 Z3.0
G0 X39.8037 Y240.1244
G0 Z1.0
G1 F300.0 Z-4.0
G3 F2000.0 Y240.1372 I-4.5 J0.0128
G3 X33.0537 Y244.0343 I-4.5 J0.0
G3 Y236.2401 I2.25 J-3.8971
G3 X39.8037 Y240.1244 I2.25 J3.8971
G0 Z3.0
G0 X34.8929 Y141.7109
G0 Z1.0
G1 F300.0 Z-4.0
G3 F2000.0 X32.4187 Y141.1136 I-0.2243 J-4.4944
G3 Y133.3194 I2.25 J-3.8971
G3 X39.1687 Y137.2165 I2.25 J3.8971
G3 X34.8929 Y141.7109 I-4.5 J0.0
( Cutout Roughing Shallow )
S1000
G0 Z3.0
G0 X40.0856 Y18.8641
G0 Z1.0
G1 F300.0 Z-3.0
G1 F1200.0 X158.9518
G1 X159.6925
G3 X159.7703 Y18.8662 I0.0 J1.5
G3 X167.054 Y23.6274 I-0.4481 J8.6374
G3 X167.0725 Y23.6657 I-1.3409 J0.6722
G1 X174.9878 Y40.6405
G1 X196.6679 Y87.1344
G1 X218.3467 Y133.6255
G3 X214.1456 Y145.1637 I-7.8248 J3.6848
G1 X181.0617 Y160.5908
G1 X179.3351 Y161.3959
G1 Y241.7989
G3 X170.5872 Y250.514 I-8.5427 J0.1731
G1 X160.614
G1 X160.5574
G3 X160.4922 Y250.5134 I0.0 J-3.5
G3 X157.0067 Y249.014 I0.0935 J-5.0183
G1 X143.019
G3 X139.3886 Y250.514 I-3.579 J-3.5189
G1 X106.5316
G3 X102.9529 Y249.014 I0.0 J-5.0191
G1 X94.6009
G3 X90.9705 Y250.514 I-3.579 J-3.5189
G1 X33.7764
G3 X25.0285 Y241.7989 I-0.2052 J-8.542
G1 Y133.9212
G1 Y33.9437
G3 X38.9701 Y18.8751 I14.6517 J-0.4279
G3 X39.1511 Y18.8641 I0.181 J1.489
G1 X39.2747
G1 X40.0856
G1 F300.0 Z-6.0
G1 F1200.0 X158.9518
G1 X159.6925
G3 X159.7703 Y18.8662 I0.0 J1.5
G3 X167.054 Y23.6274 I-0.4481 J8.6374
G3 X167.0725 Y23.6657 I-1.3409 J0.6722
G1 X174.9878 Y40.6405
G1 X196.6679 Y87.1344
G1 X218.3467 Y133.6255
G3 X214.1456 Y145.1637 I-7.8248 J3.6848
G1 X181.0617 Y160.5908
G1 X179.3351 Y161.3959
G1 Y241.7989
G3 X170.5872 Y250.514 I-8.5427 J0.1731
G1 X160.614
G1 X160.5574
G3 X160.4922 Y250.5134 I0.0 J-3.5
G3 X157.0067 Y249.014 I0.0935 J-5.0183
G1 X143.019
G3 X139.3886 Y250.514 I-3.579 J-3.5189
G1 X106.5316
G3 X102.9529 Y249.014 I0.0 J-5.0191
G1 X94.6009
G3 X90.9705 Y250.514 I-3.579 J-3.5189
G1 X33.7764
G3 X25.0285 Y241.7989 I-0.2052 J-8.542
G1 Y133.9212
G1 Y33.9437
G3 X38.9701 Y18.8751 I14.6517 J-0.4279
G3 X39.1511 Y18.8641 I0.181 J1.489
G1 X39.2747
G1 X40.0856
( Cutout Roughing Deep )
S1000
G1 F300.0 Z-7.0
G1 F600.0 X48.9936
G1 X50.4936 Z-6.0
G1 X53.4936
G1 X54.9936 Z-7.0
G1 X68.9936
G1 X70.4936 Z-6.0
G1 X73.4936
G1 X74.9936 Z-7.0
G1 X88.9936
G1 X90.4936 Z-6.0
G1 X93.4936
G1 X94.9936 Z-7.0
G1 X108.9936
G1 X110.4936 Z-6.0
G1 X113.4936
G1 X114.9936 Z-7.0
G1 X128.9936
G1 X130.4936 Z-6.0
G1 X133.4936
G1 X134.9936 Z-7.0
G1 X148.9936
G1 X150.4936 Z-6.0
G1 X153.4936
G1 X154.9936 Z-7.0
G1 X158.9518
G1 X159.6925
G3 X159.7703 Y18.8662 I0.0 J1.5
G3 X167.054 Y23.6274 I-0.4481 J8.6374
G3 X167.0725 Y23.6657 I-1.3409 J0.6722
G1 X167.8181 Y25.2646
G1 X168.452 Y26.6241 Z-6.0
G1 X169.7198 Y29.343
G1 X170.3537 Y30.7025 Z-7.0
G1 X174.9878 Y40.6405
G1 X176.2703 Y43.3908
G1 X176.9042 Y44.7503 Z-6.0
G1 X178.1721 Y47.4692
G1 X178.806 Y48.8287 Z-7.0
G1 X184.7225 Y61.517
G1 X185.3564 Y62.8765 Z-6.0
G1 X186.6243 Y65.5954
G1 X187.2582 Y66.9549 Z-7.0
G1 X193.1748 Y79.6432
G1 X193.8087 Y81.0027 Z-6.0
G1 X195.0765 Y83.7216
G1 X195.7104 Y85.0811 Z-7.0
G1 X196.6679 Y87.1344
G1 X201.627 Y97.7695
G1 X202.2609 Y99.1289 Z-6.0
G1 X203.5288 Y101.8479
G1 X204.1627 Y103.2073 Z-7.0
G1 X210.0792 Y115.8957
G1 X210.7132 Y117.2551 Z-6.0
G1 X211.981 Y119.9741
G1 X212.6149 Y121.3335 Z-7.0
G1 X218.3467 Y133.6255
G3 X218.7471 Y134.6364 I-7.8248 J3.6848
G3 X219.0929 Y136.1514 Z-6.0 I-8.2253 J2.674
G3 X218.9732 Y139.149 I-8.571 J1.159
G3 X218.5078 Y140.6316 Z-7.0 I-8.4514 J-1.8386
G3 X214.1456 Y145.1637 I-7.9859 J-3.3212
G1 X205.8617 Y149.0265
G1 X204.5023 Y149.6604 Z-6.0
G1 X201.7833 Y150.9282
G1 X200.4239 Y151.5622 Z-7.0
G1 X187.7355 Y157.4788
G1 X186.3761 Y158.1127 Z-6.0
G1 X183.6571 Y159.3806
G1 X182.2977 Y160.0145 Z-7.0
G1 X181.0617 Y160.5908
G1 X179.3351 Y161.3959
G1 Y170.2159
G1 Y171.7159 Z-6.0
G1 Y174.7159
G1 Y176.2159 Z-7.0
G1 Y190.2159
G1 Y191.7159 Z-6.0
G1 Y194.7159
G1 Y196.2159 Z-7.0
G1 Y210.2159
G1 Y211.7159 Z-6.0
G1 Y214.7159
G1 Y216.2159 Z-7.0
G1 Y230.2159
G1 Y231.7159 Z-6.0
G1 Y234.7159
G1 Y236.2159 Z-7.0
G1 Y241.7989
G3 X173.5888 Y250.0459 I-8.5427 J0.1731
G3 X172.0789 Y250.4191 Z-6.0 I-2.7964 J-8.0739
G3 X170.5872 Y250.514 I-1.2865 J-8.4471
G1 X169.0755
G1 X167.575 Z-7.0
G1 X162.1987
G1 X160.6987 Z-6.0
G1 X160.614
G1 X160.5574
G3 X160.5081 Y250.5137 I0.0 J-3.5
G1 X157.6987
G1 X156.1987 Z-7.0
G1 X142.1987 Y250.514
G1 X140.6987 Z-6.0
G1 X139.397
G1 X137.6987
G1 X136.1987 Z-7.0
G1 X122.1987
G1 X120.6987 Z-6.0
G1 X117.6987
G1 X116.1987 Z-7.0
G1 X106.5316
G1 X102.1987
G1 X100.6987 Z-6.0
G1 X97.6987
G1 X96.1987 Z-7.0
G1 X90.9788
G1 X82.1987
G1 X80.6987 Z-6.0
G1 X77.6987
G1 X76.1987 Z-7.0
G1 X62.1987
G1 X60.6987 Z-6.0
G1 X57.6987
G1 X56.1987 Z-7.0
G1 X42.1987
G1 X40.6987 Z-6.0
G1 X37.6987
G1 X36.1987 Z-7.0
G1 X33.7764
G3 X25.0285 Y241.7989 I-0.2052 J-8.542
G1 Y241.6649
G1 Y240.1649 Z-6.0
G1 Y237.1649
G1 Y235.6649 Z-7.0
G1 Y221.6649
G1 Y220.1649 Z-6.0
G1 Y217.1649
G1 Y215.6649 Z-7.0
G1 Y201.6649
G1 Y200.1649 Z-6.0
G1 Y197.1649
G1 Y195.6649 Z-7.0
G1 Y181.6649
G1 Y180.1649 Z-6.0
G1 Y177.1649
G1 Y175.6649 Z-7.0
G1 Y161.6649
G1 Y160.1649 Z-6.0
G1 Y157.1649
G1 Y155.6649 Z-7.0
G1 Y141.6649
G1 Y140.1649 Z-6.0
G1 Y137.1649
G1 Y135.6649 Z-7.0
G1 Y133.9212
G1 Y121.6649
G1 Y120.1649 Z-6.0
G1 Y117.1649
G1 Y115.6649 Z-7.0
G1 Y101.6649
G1 Y100.1649 Z-6.0
G1 Y97.1649
G1 Y95.6649 Z-7.0
G1 Y81.6649
G1 Y80.1649 Z-6.0
G1 Y77.1649
G1 Y75.6649 Z-7.0
G1 Y61.6649
G1 Y60.1649 Z-6.0
G1 Y57.1649
G1 Y55.6649 Z-7.0
G1 Y41.6649
G1 Y40.1649 Z-6.0
G1 Y37.1649
G1 Y35.6649 Z-7.0
G1 Y33.9437
G3 X30.8297 Y21.8315 I14.6517 J-0.4279
G3 X32.0856 Y20.9788 Z-6.0 I8.8505 J11.6843
G3 X34.7971 Y19.6952 I7.5945 J12.537
G3 X36.2527 Y19.2642 Z-7.0 I4.883 J13.8206
G3 X38.9701 Y18.8751 I3.4274 J14.2516
G3 X39.1511 Y18.8641 I0.181 J1.489
G1 X39.2747
G1 X40.0856
G1 F300.0 Z-8.0
G1 F600.0 X48.9936
G1 X50.4936 Z-6.0
G1 X53.4936
G1 X54.9936 Z-8.0
G1 X68.9936
G1 X70.4936 Z-6.0
G1 X73.4936
G1 X74.9936 Z-8.0
G1 X88.9936
G1 X90.4936 Z-6.0
G1 X93.4936
G1 X94.9936 Z-8.0
G1 X108.9936
G1 X110.4936 Z-6.0
G1 X113.4936
G1 X114.9936 Z-8.0
G1 X128.9936
G1 X130.4936 Z-6.0
G1 X133.4936
G1 X134.9936 Z-8.0
G1 X148.9936
G1 X150.4936 Z-6.0
G1 X153.4936
G1 X154.9936 Z-8.0
G1 X158.9518
G1 X159.6925
G3 X159.7703 Y18.8662 I0.0 J1.5
G3 X167.054 Y23.6274 I-0.4481 J8.6374
G3 X167.0725 Y23.6657 I-1.3409 J0.6722
G1 X167.8181 Y25.2646
G1 X168.452 Y26.6241 Z-6.0
G1 X169.7198 Y29.343
G1 X170.3537 Y30.7025 Z-8.0
G1 X174.9878 Y40.6405
G1 X176.2703 Y43.3908
G1 X176.9042 Y44.7503 Z-6.0
G1 X178.1721 Y47.4692
G1 X178.806 Y48.8287 Z-8.0
G1 X184.7225 Y61.517
G1 X185.3564 Y62.8765 Z-6.0
G1 X186.6243 Y65.5954
G1 X187.2582 Y66.9549 Z-8.0
G1 X193.1748 Y79.6432
G1 X193.8087 Y81.0027 Z-6.0
G1 X195.0765 Y83.7216
G1 X195.7104 Y85.0811 Z-8.0
G1 X196.6679 Y87.1344
G1 X201.627 Y97.7695
G1 X202.2609 Y99.1289 Z-6.0
G1 X203.5288 Y101.8479
G1 X204.1627 Y103.2073 Z-8.0
G1 X210.0792 Y115.8957
G1 X210.7132 Y117.2551 Z-6.0
G1 X211.981 Y119.9741
G1 X212.6149 Y121.3335 Z-8.0
G1 X218.3467 Y133.6255
G3 X218.7471 Y134.6364 I-7.8248 J3.6848
G3 X219.0929 Y136.1514 Z-6.0 I-8.2253 J2.674
G3 X218.9732 Y139.149 I-8.571 J1.159
G3 X218.5078 Y140.6316 Z-8.0 I-8.4514 J-1.8386
G3 X214.1456 Y145.1637 I-7.9859 J-3.3212
G1 X205.8617 Y149.0265
G1 X204.5023 Y149.6604 Z-6.0
G1 X201.7833 Y150.9282
G1 X200.4239 Y151.5622 Z-8.0
G1 X187.7355 Y157.4788
G1 X186.3761 Y158.1127 Z-6.0
G1 X183.6571 Y159.3806
G1 X182.2977 Y160.0145 Z-8.0
G1 X181.0617 Y160.5908
G1 X179.3351 Y161.3959
G1 Y170.2159
G1 Y171.7159 Z-6.0
G1 Y174.7159
G1 Y176.2159 Z-8.0
G1 Y190.2159
G1 Y191.7159 Z-6.0
G1 Y194.7159
G1 Y196.2159 Z-8.0
G1 Y210.2159
G1 Y211.7159 Z-6.0
G1 Y214.7159
G1 Y216.2159 Z-8.0
G1 Y230.2159
G1 Y231.7159 Z-6.0
G1 Y234.7159
G1 Y236.2159 Z-8.0
G1 Y241.7989
G3 X173.5888 Y250.0459 I-8.5427 J0.1731
G3 X172.0789 Y250.4191 Z-6.0 I-2.7964 J-8.0739
G3 X170.5872 Y250.514 I-1.2865 J-8.4471
G1 X169.0755
G1 X167.575 Z-8.0
G1 X162.1987
G1 X160.6987 Z-6.0
G1 X160.614
G1 X160.5574
G3 X160.5081 Y250.5137 I0.0 J-3.5
G1 X157.6987
G1 X156.1987 Z-8.0
G1 X142.1987 Y250.514
G1 X140.6987 Z-6.0
G1 X139.397
G1 X137.6987
G1 X136.1987 Z-8.0
G1 X122.1987
G1 X120.6987 Z-6.0
G1 X117.6987
G1 X116.1987 Z-8.0
G1 X106.5316
G1 X102.1987
G1 X100.6987 Z-6.0
G1 X97.6987
G1 X96.1987 Z-8.0
G1 X90.9788
G1 X82.1987
G1 X80.6987 Z-6.0
G1 X77.6987
G1 X76.1987 Z-8.0
G1 X62.1987
G1 X60.6987 Z-6.0
G1 X57.6987
G1 X56.1987 Z-8.0
G1 X42.1987
G1 X40.6987 Z-6.0
G1 X37.6987
G1 X36.1987 Z-8.0
G1 X33.7764
G3 X25.0285 Y241.7989 I-0.2052 J-8.542
G1 Y241.6649
G1 Y240.1649 Z-6.0
G1 Y237.1649
G1 Y235.6649 Z-8.0
G1 Y221.6649
G1 Y220.1649 Z-6.0
G1 Y217.1649
G1 Y215.6649 Z-8.0
G1 Y201.6649
G1 Y200.1649 Z-6.0
G1 Y197.1649
G1 Y195.6649 Z-8.0
G1 Y181.6649
G1 Y180.1649 Z-6.0
G1 Y177.1649
G1 Y175.6649 Z-8.0
G1 Y161.6649
G1 Y160.1649 Z-6.0
G1 Y157.1649
G1 Y155.6649 Z-8.0
G1 Y141.6649
G1 Y140.1649 Z-6.0
G1 Y137.1649
G1 Y135.6649 Z-8.0
G1 Y133.9212
G1 Y121.6649
G1 Y120.1649 Z-6.0
G1 Y117.1649
G1 Y115.6649 Z-8.0
G1 Y101.6649
G1 Y100.1649 Z-6.0
G1 Y97.1649
G1 Y95.6649 Z-8.0
G1 Y81.6649
G1 Y80.1649 Z-6.0
G1 Y77.1649
G1 Y75.6649 Z-8.0
G1 Y61.6649
G1 Y60.1649 Z-6.0
G1 Y57.1649
G1 Y55.6649 Z-8.0
G1 Y41.6649
G1 Y40.1649 Z-6.0
G1 Y37.1649
G1 Y35.6649 Z-8.0
G1 Y33.9437
G3 X30.8297 Y21.8315 I14.6517 J-0.4279
G3 X32.0856 Y20.9788 Z-6.0 I8.8505 J11.6843
G3 X34.7971 Y19.6952 I7.5945 J12.537
G3 X36.2527 Y19.2642 Z-8.0 I4.883 J13.8206
G3 X38.9701 Y18.8751 I3.4274 J14.2516
G3 X39.1511 Y18.8641 I0.181 J1.489
G1 X39.2747
G1 X40.0856
( Cutout Finishing )
S1000
G1 F400.0 Y18.9641
G1 X50.0936
G1 X50.5936 Z-7.0
G1 X53.3936
G1 X53.8936 Z-8.0
G1 X70.0936
G1 X70.5936 Z-7.0
G1 X73.3936
G1 X73.8936 Z-8.0
G1 X90.0936
G1 X90.5936 Z-7.0
G1 X93.3936
G1 X93.8936 Z-8.0
G1 X110.0936
G1 X110.5936 Z-7.0
G1 X113.3936
G1 X113.8936 Z-8.0
G1 X130.0936
G1 X130.5936 Z-7.0
G1 X133.3936
G1 X133.8936 Z-8.0
G1 X150.0936
G1 X150.5936 Z-7.0
G1 X153.3936
G1 X153.8936 Z-8.0
G1 X158.9518
G1 X159.6925
G3 X159.7651 Y18.966 I0.0 J1.4
G3 X166.9646 Y23.6722 I-0.4429 J8.5376
G3 X166.9819 Y23.708 I-1.2515 J0.6274
G1 X168.1923 Y26.3038
G1 X168.4036 Y26.7569 Z-7.0
G1 X169.5869 Y29.2946
G1 X169.7982 Y29.7478 Z-8.0
G1 X174.8972 Y40.6828
G1 X176.6445 Y44.43
G1 X176.8558 Y44.8832 Z-7.0
G1 X178.0392 Y47.4208
G1 X178.2505 Y47.874 Z-8.0
G1 X185.0968 Y62.5562
G1 X185.3081 Y63.0094 Z-7.0
G1 X186.4914 Y65.5471
G1 X186.7027 Y66.0002 Z-8.0
G1 X193.549 Y80.6824
G1 X193.7603 Y81.1356 Z-7.0
G1 X194.9436 Y83.6733
G1 X195.1549 Y84.1264 Z-8.0
G1 X196.5772 Y87.1766
G1 X202.0012 Y98.8087
G1 X202.2125 Y99.2618 Z-7.0
G1 X203.3959 Y101.7995
G1 X203.6072 Y102.2526 Z-8.0
G1 X210.4535 Y116.9349
G1 X210.6648 Y117.388 Z-7.0
G1 X211.8481 Y119.9257
G1 X212.0594 Y120.3789 Z-8.0
G1 X218.2561 Y133.668
G3 X218.9262 Y135.7444 I-7.7343 J3.6424
G3 X219.0046 Y136.2479 Z-7.0 I-8.4044 J1.566
G3 X218.8929 Y139.0457 I-8.4828 J1.0625
G3 X218.7746 Y139.5414 Z-8.0 I-8.3711 J-1.7353
G3 X214.1035 Y145.073 I-8.2528 J-2.231
G1 X204.8225 Y149.4007
G1 X204.3694 Y149.612 Z-7.0
G1 X201.8317 Y150.7954
G1 X201.3785 Y151.0067 Z-8.0
G1 X186.6963 Y157.853
G1 X186.2432 Y158.0643 Z-7.0
G1 X183.7055 Y159.2477
G1 X183.2524 Y159.459 Z-8.0
G1 X181.0194 Y160.5002
G1 X179.2351 Y161.3322
G1 Y171.3159
G1 Y171.8159 Z-7.0
G1 Y174.6159
G1 Y175.1159 Z-8.0
G1 Y191.3159
G1 Y191.8159 Z-7.0
G1 Y194.6159
G1 Y195.1159 Z-8.0
G1 Y211.3159
G1 Y211.8159 Z-7.0
G1 Y214.6159
G1 Y215.1159 Z-8.0
G1 Y231.3159
G1 Y231.8159 Z-7.0
G1 Y234.6159
G1 Y235.1159 Z-8.0
G1 Y241.7999
G3 X172.4834 Y250.2454 I-8.4427 J0.172
G3 X171.981 Y250.3324 Z-7.0 I-1.691 J-8.2735
G3 X170.5884 Y250.414 I-1.1886 J-8.3604
G1 X169.1781
G1 X168.6779 Z-8.0
G1 X161.0987
G1 X160.614 Z-7.0305
G1 X160.5987 Z-7.0
G1 X160.5574
G3 X160.5088 Y250.4137 I0.0 J-3.4
G1 X157.7987
G1 X157.2987 Z-8.0
G1 X141.0987 Y250.414
G1 X140.5987 Z-7.0
G1 X139.397
G1 X137.7987
G1 X137.2987 Z-8.0
G1 X121.0987
G1 X120.5987 Z-7.0
G1 X117.7987
G1 X117.2987 Z-8.0
G1 X106.5316
G1 X101.0987
G1 X100.5987 Z-7.0
G1 X97.7987
G1 X97.2987 Z-8.0
G1 X90.9788
G1 X81.0987
G1 X80.5987 Z-7.0
G1 X77.7987
G1 X77.2987 Z-8.0
G1 X61.0987
G1 X60.5987 Z-7.0
G1 X57.7987
G1 X57.2987 Z-8.0
G1 X41.0987
G1 X40.5987 Z-7.0
G1 X37.7987
G1 X37.2987 Z-8.0
G1 X33.7752
G3 X25.1285 Y241.7999 I-0.204 J-8.442
G1 Y240.5649
G1 Y240.0649 Z-7.0
G1 Y237.2649
G1 Y236.7649 Z-8.0
G1 Y220.5649
G1 Y220.0649 Z-7.0
G1 Y217.2649
G1 Y216.7649 Z-8.0
G1 Y200.5649
G1 Y200.0649 Z-7.0
G1 Y197.2649
G1 Y196.7649 Z-8.0
G1 Y180.5649
G1 Y180.0649 Z-7.0
G1 Y177.2649
G1 Y176.7649 Z-8.0
G1 Y160.5649
G1 Y160.0649 Z-7.0
G1 Y157.2649
G1 Y156.7649 Z-8.0
G1 Y140.5649
G1 Y140.0649 Z-7.0
G1 Y137.2649
G1 Y136.7649 Z-8.0
G1 Y133.9212
G1 Y120.5649
G1 Y120.0649 Z-7.0
G1 Y117.2649
G1 Y116.7649 Z-8.0
G1 Y100.5649
G1 Y100.0649 Z-7.0
G1 Y97.2649
G1 Y96.7649 Z-8.0
G1 Y80.5649
G1 Y80.0649 Z-7.0
G1 Y77.2649
G1 Y76.7649 Z-8.0
G1 Y60.5649
G1 Y60.0649 Z-7.0
G1 Y57.2649
G1 Y56.7649 Z-8.0
G1 Y40.5649
G1 Y40.0649 Z-7.0
G1 Y37.2649
G1 Y36.7649 Z-8.0
G1 Y33.9423
G3 X31.7872 Y21.2833 I14.5517 J-0.4264
G3 X32.2147 Y21.0178 Z-7.0 I7.8929 J12.2325
G3 X34.7455 Y19.8198 I7.4654 J12.498
G3 X35.2218 Y19.6574 Z-8.0 I4.9347 J13.696
G3 X38.9786 Y18.9748 I4.4583 J13.8584
G3 X39.1511 Y18.9641 I0.1725 J1.3893
G1 X39.2747
G1 X40.0856
G0 Z3.0
M5
M30
